; HEADER_BLOCK_START
; generated by OrcaSlicer 2.3.0 on 2025-12-15 at 12:04:24
; total layer number: 137
;_GP_TOTAL_LAYER_NUMBER_PLACEHOLDER
; filament_density: 1.24
; filament_diameter: 1.75
; max_z_height: 27.40
; HEADER_BLOCK_END

; THUMBNAIL_BLOCK_START

;
; THUMBNAIL_BLOCK_END

; THUMBNAIL_BLOCK_START

;
; THUMBNAIL_BLOCK_END

; external perimeters extrusion width = 0.45mm
; perimeters extrusion width = 0.45mm
; infill extrusion width = 0.45mm
; solid infill extrusion width = 0.45mm
; top infill extrusion width = 0.40mm

; EXECUTABLE_BLOCK_START
M73 P0 R27
M201 X10000 Y10000 Z500 E5000
M203 X500 Y500 Z10 E60
M204 P10000 R1000 T10000
M205 X8.00 Y8.00 Z0.40 E5.00 ; sets the jerk limits, mm/sec
;TYPE:Custom
G90 ; use absolute coordinates
M83 ; extruder relative mode
M204 S10000 T1000
M104 S220 ; set extruder temp
M140 S55 ; set bed temp
G28 ; home all
G1 Y1.0 Z0.3 F1000 ; move print head up
M190 S55 ; wait for bed temp
M109 S220 ; wait for extruder temp
G92 E0.0
; initial load
G1 X205.0 E19 F1000
G1 Y1.6
G1 X5.0 E19 F1000
G92 E0.0
; intro line
G1 Y2.0 Z0.2 F1000
M73 P1 R27
G1 X65.0 E9.0 F1000
G1 X105.0 E12.5 F1000
G92 E0.0
G90
G21
M83 ; use relative distances for extrusion
; Filament gcode
M106 S0
;LAYER_CHANGE
;Z:0.2
;HEIGHT:0.2
;BEFORE_LAYER_CHANGE
;0.2
G92 E0

G1 E-.9 F2700
;AFTER_LAYER_CHANGE
;0.2
;_SET_FAN_SPEED_CHANGING_LAYER
M204 S300
G1 X115.298 Y117.783 F7200
G1 Z.6
G1 Z.2
G1 E.9 F2100
;TYPE:Skirt
;WIDTH:0.45
G1 F3000
G1 X116.378 Y116.937 E.04551
G1 X118.412 Y115.82 E.07696
G1 X120.14 Y115.328 E.05962
G1 X121.181 Y115.227 E.03469
G1 X122.226 Y115.265 E.03469
G1 X123.32 Y115.453 E.0368
G1 X128.624 Y116.665 E.18049
G1 X129.924 Y117.209 E.04674
G1 X131.787 Y118.261 E.07097
G1 X132.781 Y119.138 E.04397
G1 X133.71 Y120.46 E.05361
G1 X134.199 Y121.693 E.04397
G1 X134.387 Y122.656 E.03257
G1 X134.425 Y123.612 E.03173
G1 X134.215 Y126.055 E.08134
G1 X134.007 Y127.08 E.03469
G1 X133.666 Y128.069 E.03469
G1 X133.197 Y129.003 E.03469
G1 X132.663 Y129.801 E.03183
G1 X131.384 Y131.407 E.06812
G1 X130.533 Y132.258 E.03992
G1 X129.165 Y133.119 E.05361
G1 X128.066 Y133.513 E.03871
G1 X123.709 Y134.555 E.14863
G1 X122.211 Y134.737 E.05005
G1 X121.166 Y134.772 E.03469
G1 X119.387 Y134.51 E.05962
G1 X118.13 Y134.058 E.04434
G1 X116.592 Y133.127 E.05962
G1 X115.636 Y132.258 E.04284
G1 X113.655 Y129.795 E.10486
G1 X112.733 Y128.252 E.05962
G1 X112.288 Y126.991 E.04434
G1 X112.092 Y125.964 E.03469
G1 X112.033 Y124.92 E.03469
G1 X112.256 Y123.136 E.05962
G1 X112.713 Y121.785 E.04733
G1 X113.725 Y119.647 E.07847
G1 X114.315 Y118.783 E.03469
G1 X115.014 Y118.005 E.03469
G1 X115.266 Y117.807 E.01063
M73 P2 R27
; printing object Test Conico v1_conic_12.0.stl_1 id:1369094286727274340 copy 0
G1 E-.9 F2700
G1 X116.778 Y119.646 Z.6 F7200
G1 Z.2
G1 E.9 F2100
;TYPE:Brim
G1 F1800
G1 X117.33 Y119.192 E.0237
G1 X117.698 Y118.95 E.01461
G1 X118.581 Y118.418 E.03422
G1 X119.234 Y118.082 E.02436
G1 X119.919 Y117.837 E.02413
G1 X120.631 Y117.685 E.02413
G1 X121.356 Y117.628 E.02413
G1 X122.082 Y117.668 E.02413
G1 X122.798 Y117.803 E.02417
G1 X123.37 Y117.984 E.0199
G1 X125.548 Y118.808 E.07722
G1 X125.668 Y118.815 E.00399
G1 X125.918 Y118.754 E.00854
G1 X126.522 Y118.705 E.02009
G1 X127.122 Y118.75 E.01997
G1 X127.976 Y118.984 E.02936
G1 X128.803 Y119.339 E.02987
G1 X129.964 Y119.955 E.0436
G1 X130.482 Y120.284 E.02035
G1 X130.936 Y120.685 E.02009
G1 X131.322 Y121.151 E.02009
G1 X131.63 Y121.672 E.02009
G1 X131.854 Y122.235 E.02009
G1 X131.986 Y122.826 E.02009
G1 X132.025 Y123.43 E.02009
G1 X131.969 Y124.031 E.02
G1 X131.848 Y124.506 E.01626
G1 X131.881 Y124.907 E.01335
G1 X131.846 Y125.633 E.02413
G1 X131.714 Y126.349 E.02413
G1 X131.489 Y127.041 E.02413
G1 X131.175 Y127.697 E.02413
G1 X130.777 Y128.306 E.02413
G1 X130.301 Y128.857 E.02413
G1 X130.021 Y129.106 E.01245
G1 X129.854 Y129.41 E.01151
G1 X129.504 Y129.904 E.02009
G1 X129.081 Y130.338 E.02009
G1 X128.595 Y130.7 E.02009
G1 X128.059 Y130.981 E.02009
G1 X127.486 Y131.176 E.02009
G1 X126.889 Y131.279 E.02009
G1 X126.284 Y131.287 E.02009
G1 X126.014 Y131.248 E.00903
G1 X125.9 Y131.264 E.00381
G1 X124.871 Y131.735 E.03753
G1 X124.187 Y131.994 E.02428
G1 X123.222 Y132.197 E.03271
G1 X122.078 Y132.333 E.03821
G1 X121.345 Y132.372 E.02436
G1 X120.62 Y132.313 E.02413
G1 X119.909 Y132.16 E.02413
G1 X119.224 Y131.914 E.02413
G1 X118.578 Y131.579 E.02413
G1 X117.982 Y131.162 E.02413
G1 X117.444 Y130.669 E.0242
G1 X117.114 Y130.29 E.01669
G1 X115.632 Y128.421 E.07911
G1 X115.214 Y127.817 E.02436
G1 X114.883 Y127.169 E.02413
G1 X114.641 Y126.483 E.02413
G1 X114.492 Y125.771 E.02413
G1 X114.437 Y125.046 E.02413
G1 X114.479 Y124.32 E.02413
G1 X114.617 Y123.607 E.02408
G1 X114.915 Y122.757 E.02989
G1 X115.506 Y121.431 E.04814
G1 X115.848 Y120.781 E.02436
G1 X116.27 Y120.188 E.02413
G1 X116.749 Y119.674 E.02333
G1 X117.04 Y119.959 F7200
G1 F1800
G1 X117.567 Y119.525 E.02266
G1 X117.913 Y119.296 E.01376
G1 X118.776 Y118.776 E.03345
G1 X119.404 Y118.453 E.02341
G1 X120.039 Y118.228 E.02234
G1 X120.682 Y118.09 E.0218
G1 X121.353 Y118.037 E.02234
G1 X122.025 Y118.072 E.02234
G1 X122.692 Y118.197 E.02248
G1 X123.234 Y118.368 E.01885
G1 X125.392 Y119.184 E.07653
G1 X125.639 Y119.22 E.00829
G1 X125.993 Y119.157 E.01192
G1 X126.532 Y119.114 E.01796
G1 X127.064 Y119.156 E.01768
G1 X127.833 Y119.367 E.02645
G1 X128.632 Y119.709 E.02883
G1 X129.755 Y120.305 E.04219
G1 X130.244 Y120.617 E.01924
G1 X130.649 Y120.976 E.01796
G1 X130.993 Y121.394 E.01796
G1 X131.267 Y121.861 E.01796
G1 X131.466 Y122.365 E.01796
G1 X131.583 Y122.894 E.01796
G1 X131.616 Y123.434 E.01796
G1 X131.568 Y123.952 E.01724
G1 X131.456 Y124.395 E.01518
G1 X131.443 Y124.55 E.00514
G1 X131.473 Y124.922 E.01238
G1 X131.439 Y125.594 E.02234
G1 X131.316 Y126.257 E.02234
G1 X131.107 Y126.897 E.02234
G1 X130.815 Y127.503 E.02234
G1 X130.455 Y128.054 E.0218
G1 X130.016 Y128.564 E.02234
G1 X129.758 Y128.795 E.01148
G1 X129.659 Y128.919 E.00527
G1 X129.504 Y129.199 E.01062
G1 X129.196 Y129.635 E.01771
G1 X128.804 Y130.036 E.0186
G1 X128.385 Y130.348 E.01733
G1 X127.907 Y130.602 E.01796
G1 X127.394 Y130.777 E.01796
G1 X126.842 Y130.872 E.01859
G1 X126.32 Y130.879 E.01733
G1 X126.085 Y130.847 E.00787
G1 X125.846 Y130.862 E.00791
G1 X125.723 Y130.898 E.00426
G1 X124.711 Y131.36 E.03693
G1 X124.063 Y131.604 E.02296
G1 X123.151 Y131.796 E.03093
G1 X122.048 Y131.927 E.03685
G1 X121.343 Y131.963 E.02341
G1 X120.687 Y131.91 E.0218
G1 X120.029 Y131.769 E.02234
G1 X119.38 Y131.536 E.02287
G1 X118.796 Y131.234 E.0218
G1 X118.244 Y130.849 E.02234
G1 X117.732 Y130.379 E.02304
G1 X117.425 Y130.027 E.01549
G1 X115.961 Y128.182 E.07813
G1 X115.561 Y127.601 E.02341
G1 X115.256 Y127.001 E.02234
G1 X115.032 Y126.365 E.02234
G1 X114.895 Y125.706 E.02234
G1 X114.846 Y125.034 E.02234
G1 X114.884 Y124.378 E.0218
G1 X115.009 Y123.722 E.02216
G1 X115.296 Y122.903 E.0288
G1 X115.871 Y121.612 E.04685
G1 X116.192 Y121.002 E.02288
G1 X116.581 Y120.453 E.02234
G1 X117.012 Y119.989 E.02101
G1 X117.311 Y120.265 F7200
G1 F1800
G1 X117.314 Y120.262 E.00014
G1 X117.817 Y119.847 E.02165
G1 X118.97 Y119.135 E.04494
G1 X119.574 Y118.825 E.02251
G1 X120.158 Y118.619 E.02055
G1 X120.749 Y118.493 E.02003
G1 X121.35 Y118.445 E.02002
G1 X121.969 Y118.477 E.02054
G1 X122.585 Y118.591 E.0208
G1 X123.097 Y118.752 E.01779
G1 X125.345 Y119.588 E.07956
G1 X125.57 Y119.622 E.00754
G1 X125.721 Y119.619 E.00502
G1 X126.051 Y119.56 E.01112
G1 X126.542 Y119.523 E.01634
G1 X127.004 Y119.562 E.01539
G1 X127.69 Y119.75 E.02359
G1 X128.46 Y120.079 E.02778
G1 X129.545 Y120.654 E.04075
G1 X130.005 Y120.949 E.01811
G1 X130.361 Y121.267 E.01583
G1 X130.663 Y121.636 E.01584
G1 X130.904 Y122.049 E.01584
G1 X131.077 Y122.494 E.01584
G1 X131.179 Y122.96 E.01584
G1 X131.207 Y123.437 E.01585
G1 X131.166 Y123.873 E.01453
G1 X131.063 Y124.288 E.01418
G1 X131.038 Y124.509 E.00737
G1 X131.065 Y124.936 E.01419
G1 X131.032 Y125.555 E.02056
G1 X130.918 Y126.163 E.02054
G1 X130.725 Y126.752 E.02054
G1 X130.463 Y127.296 E.02002
G1 X130.133 Y127.802 E.02003
G1 X129.73 Y128.272 E.02057
G1 X129.493 Y128.486 E.01058
G1 X129.346 Y128.66 E.00757
G1 X129.155 Y128.988 E.01259
G1 X128.887 Y129.366 E.01535
G1 X128.527 Y129.735 E.0171
G1 X128.159 Y130.008 E.01522
G1 X127.753 Y130.222 E.01523
G1 X127.284 Y130.383 E.01646
G1 X126.795 Y130.466 E.01644
G1 X126.354 Y130.472 E.01463
G1 X126.052 Y130.442 E.01007
G1 X125.722 Y130.474 E.01098
G1 X125.548 Y130.531 E.00608
G1 X124.55 Y130.986 E.03637
G1 X123.94 Y131.214 E.02163
G1 X123.079 Y131.394 E.02916
G1 X122.017 Y131.521 E.03548
G1 X121.341 Y131.555 E.02247
G1 X120.739 Y131.505 E.02003
G1 X120.149 Y131.379 E.02001
G1 X119.536 Y131.158 E.02161
G1 X119.001 Y130.88 E.02002
G1 X118.506 Y130.535 E.02001
G1 X118.019 Y130.09 E.02187
G1 X117.737 Y129.765 E.01429
G1 X116.291 Y127.943 E.07714
G1 X115.908 Y127.385 E.02246
G1 X115.628 Y126.832 E.02054
G1 X115.424 Y126.248 E.02055
G1 X115.298 Y125.641 E.02054
G1 X115.254 Y125.023 E.02055
G1 X115.29 Y124.42 E.02003
G1 X115.402 Y123.837 E.0197
G1 X115.677 Y123.048 E.02771
G1 X116.235 Y121.794 E.04555
G1 X116.536 Y121.223 E.02141
G1 X116.893 Y120.717 E.02055
G1 X117.284 Y120.295 E.01908
G1 X117.583 Y120.571 F7200
G1 F1800
G1 X117.588 Y120.565 E.00026
G1 X118.049 Y120.184 E.01981
G1 X119.166 Y119.492 E.04359
G1 X119.728 Y119.204 E.02096
G1 X120.261 Y119.014 E.01876
G1 X120.8 Y118.899 E.01827
G1 X121.348 Y118.854 E.01826
G1 X121.913 Y118.882 E.01876
G1 X122.48 Y118.986 E.01911
G1 X122.962 Y119.136 E.01676
G1 X125.298 Y119.993 E.08253
G1 X125.502 Y120.023 E.00685
G1 X125.72 Y120.026 E.00724
G1 X126.108 Y119.964 E.01303
G1 X126.55 Y119.932 E.01469
G1 X126.944 Y119.968 E.01311
G1 X127.564 Y120.138 E.02133
G1 X128.289 Y120.449 E.02617
G1 X129.335 Y121.004 E.03929
G1 X129.75 Y121.269 E.01632
G1 X130.072 Y121.557 E.01433
G1 X130.332 Y121.878 E.01371
G1 X130.531 Y122.218 E.01308
G1 X130.683 Y122.603 E.01371
G1 X130.772 Y123.006 E.01371
G1 X130.798 Y123.439 E.01439
G1 X130.764 Y123.796 E.01188
G1 X130.67 Y124.183 E.01323
G1 X130.635 Y124.454 E.00907
G1 X130.657 Y124.945 E.01628
G1 X130.626 Y125.514 E.01892
G1 X130.521 Y126.07 E.01875
G1 X130.349 Y126.592 E.01823
G1 X130.111 Y127.088 E.01827
G1 X129.802 Y127.563 E.0188
G1 X129.443 Y127.982 E.01828
G1 X129.226 Y128.178 E.00972
G1 X129.041 Y128.39 E.00933
G1 X128.809 Y128.772 E.01483
G1 X128.567 Y129.111 E.01381
G1 X128.266 Y129.42 E.01432
G1 X127.933 Y129.667 E.01374
G1 X127.582 Y129.851 E.01315
G1 X127.173 Y129.989 E.0143
G1 X126.748 Y130.059 E.01428
G1 X126.378 Y130.064 E.01228
G1 X126.003 Y130.038 E.01248
G1 X125.587 Y130.09 E.01389
G1 X125.373 Y130.163 E.0075
G1 X124.398 Y130.608 E.03555
G1 X123.835 Y130.819 E.01997
G1 X123.019 Y130.991 E.02767
G1 X121.987 Y131.114 E.03446
G1 X121.355 Y131.146 E.02099
G1 X120.791 Y131.1 E.01879
G1 X120.253 Y130.984 E.01824
G1 X119.707 Y130.787 E.01925
G1 X119.219 Y130.535 E.01824
G1 X118.755 Y130.211 E.01877
G1 X118.317 Y129.81 E.01971
G1 X118.048 Y129.502 E.01354
G1 X116.621 Y127.704 E.07615
G1 X116.255 Y127.169 E.02151
G1 X116.001 Y126.665 E.01874
G1 X115.815 Y126.131 E.01875
G1 X115.702 Y125.577 E.01875
G1 X115.663 Y125.029 E.01824
G1 X115.694 Y124.479 E.01827
G1 X115.799 Y123.934 E.01839
G1 X116.054 Y123.203 E.02568
G1 X116.6 Y121.975 E.04458
G1 X116.888 Y121.429 E.02049
G1 X117.206 Y120.98 E.01824
G1 X117.556 Y120.6 E.01715
G1 X117.855 Y120.876 F7200
G1 F1800
G1 X117.864 Y120.867 E.0004
G1 X118.28 Y120.521 E.01797
G1 X119.362 Y119.849 E.04224
G1 X119.883 Y119.582 E.01941
G1 X120.365 Y119.409 E.01698
G1 X120.851 Y119.304 E.01652
G1 X121.347 Y119.262 E.0165
G1 X121.858 Y119.286 E.01697
G1 X122.375 Y119.38 E.01742
G1 X122.828 Y119.521 E.01576
G1 X125.249 Y120.397 E.08541
G1 X125.504 Y120.43 E.0085
G1 X125.705 Y120.433 E.00669
G1 X126.152 Y120.37 E.01497
G1 X126.556 Y120.342 E.01345
G1 X126.882 Y120.373 E.01084
G1 X127.437 Y120.527 E.01911
G1 X128.118 Y120.819 E.02459
G1 X129.126 Y121.353 E.03784
G1 X129.495 Y121.589 E.01453
G1 X129.783 Y121.846 E.0128
G1 X129.991 Y122.102 E.01095
G1 X130.159 Y122.388 E.011
G1 X130.289 Y122.713 E.0116
G1 X130.366 Y123.053 E.01156
G1 X130.389 Y123.441 E.0129
G1 X130.363 Y123.719 E.00926
G1 X130.276 Y124.081 E.01232
G1 X130.232 Y124.394 E.01048
G1 X130.249 Y124.949 E.01842
G1 X130.219 Y125.473 E.01742
G1 X130.127 Y125.96 E.01644
G1 X129.973 Y126.432 E.01648
G1 X129.751 Y126.895 E.01703
G1 X129.47 Y127.325 E.01702
G1 X129.156 Y127.691 E.01602
G1 X128.916 Y127.915 E.01088
G1 X128.741 Y128.114 E.00879
G1 X128.47 Y128.546 E.0169
G1 X128.247 Y128.856 E.01266
G1 X127.989 Y129.118 E.01221
G1 X127.707 Y129.325 E.0116
G1 X127.412 Y129.478 E.01104
G1 X127.064 Y129.594 E.01215
G1 X126.698 Y129.653 E.01229
G1 X125.944 Y129.635 E.02503
G1 X125.447 Y129.708 E.01667
G1 X125.199 Y129.795 E.00871
G1 X124.246 Y130.23 E.03475
G1 X123.729 Y130.424 E.01831
G1 X122.958 Y130.588 E.02617
G1 X121.948 Y130.709 E.03372
G1 X121.37 Y130.738 E.01922
G1 X120.843 Y130.695 E.01753
G1 X120.358 Y130.589 E.01646
G1 X119.863 Y130.41 E.01746
G1 X119.423 Y130.181 E.01646
G1 X119.004 Y129.887 E.01698
G1 X118.613 Y129.53 E.01756
G1 X118.36 Y129.24 E.01279
G1 X116.952 Y127.466 E.07512
G1 X116.602 Y126.954 E.02054
G1 X116.374 Y126.498 E.01693
G1 X116.207 Y126.015 E.01696
G1 X116.105 Y125.514 E.01697
G1 X116.071 Y125.018 E.01648
G1 X116.099 Y124.537 E.01598
G1 X116.196 Y124.032 E.01707
G1 X116.431 Y123.358 E.02367
G1 X116.965 Y122.157 E.0436
G1 X117.241 Y121.636 E.01956
G1 X117.528 Y121.23 E.01649
G1 X117.828 Y120.905 E.01467
G1 X118.128 Y121.181 F7200
G1 F1800
G1 X118.139 Y121.169 E.00054
G1 X118.526 Y120.847 E.01668
G1 X119.559 Y120.207 E.04032
G1 X120.053 Y119.953 E.01841
G1 X120.469 Y119.804 E.01468
G1 X120.904 Y119.709 E.01476
G1 X121.346 Y119.671 E.01473
G1 X121.804 Y119.691 E.01519
G1 X122.27 Y119.775 E.01573
G1 X122.696 Y119.906 E.01477
G1 X124.992 Y120.737 E.081
G1 X125.067 Y120.814 E.00357
G1 X125.039 Y120.935 E.00412
G1 X124.77 Y121.222 E.01306
G1 X124.609 Y121.466 E.0097
G1 X124.474 Y121.761 E.01077
G1 X124.391 Y121.83 E.00357
G1 X124.32 Y121.825 E.00236
G1 X122.268 Y121.049 E.07275
G1 X121.62 Y120.922 E.0219
G1 X121.362 Y120.914 E.00858
G1 X120.925 Y120.969 E.01459
G1 X120.815 Y120.997 E.00378
G1 X120.206 Y121.242 E.02178
G1 X119.247 Y121.846 E.03759
G1 X118.861 Y122.201 E.0174
G1 X118.712 Y122.384 E.00783
G1 X118.461 Y122.801 E.01613
G1 X117.84 Y124.248 E.05225
G1 X117.719 Y124.891 E.0217
G1 X117.729 Y125.247 E.01182
G1 X117.789 Y125.585 E.01138
G1 X117.872 Y125.815 E.00814
G1 X118.11 Y126.277 E.01721
G1 X119.706 Y128.299 E.08546
G1 X120.146 Y128.679 E.01928
G1 X120.528 Y128.893 E.01452
G1 X120.773 Y128.984 E.00867
G1 X121.272 Y129.085 E.01689
G1 X121.753 Y129.092 E.01595
G1 X122.888 Y128.948 E.03795
G1 X123.204 Y128.878 E.01074
G1 X124.39 Y128.363 E.0429
G1 X124.498 Y128.368 E.00357
G1 X124.541 Y128.409 E.00198
G1 X124.811 Y128.827 E.0165
G1 X125.179 Y129.183 E.01698
G1 X125.216 Y129.284 E.00357
G1 X125.144 Y129.382 E.00403
G1 X124.093 Y129.852 E.0382
G1 X123.606 Y130.034 E.01724
G1 X122.885 Y130.187 E.02442
G1 X121.918 Y130.302 E.03232
G1 X121.368 Y130.329 E.01827
G1 X120.911 Y130.292 E.0152
G1 X120.479 Y130.199 E.01466
G1 X120.02 Y130.032 E.0162
G1 X119.628 Y129.827 E.01467
G1 X119.266 Y129.574 E.01468
G1 X118.901 Y129.24 E.01641
G1 X118.67 Y128.977 E.01159
G1 X117.282 Y127.227 E.07408
G1 X116.95 Y126.74 E.01956
G1 X116.747 Y126.332 E.01511
G1 X116.599 Y125.9 E.01516
G1 X116.509 Y125.451 E.01518
G1 X116.479 Y125.008 E.01473
G1 X116.505 Y124.58 E.01424
G1 X116.588 Y124.147 E.01463
G1 X116.812 Y123.503 E.02258
G1 X117.329 Y122.339 E.04227
G1 X117.584 Y121.857 E.01809
G1 X117.841 Y121.494 E.01475
G1 X118.101 Y121.21 E.01277
G1 X118.402 Y121.485 F7200
G1 F1800
G1 X118.415 Y121.47 E.00064
G1 X118.772 Y121.174 E.01539
G1 X119.755 Y120.564 E.03839
G1 X120.222 Y120.325 E.01741
G1 X120.589 Y120.195 E.01293
G1 X120.973 Y120.112 E.01301
G1 X121.363 Y120.079 E.01298
G1 X121.75 Y120.097 E.01287
G1 X122.167 Y120.17 E.01403
G1 X122.564 Y120.291 E.01377
G1 X124.301 Y120.92 E.06127
G1 X124.376 Y120.997 E.00357
G1 X124.362 Y121.101 E.00346
G1 X124.257 Y121.263 E.0064
