; generated by SuperSlicer 2.5.59.13 on 2025-12-16 at 13:20:39 UTC

; 

; external perimeters extrusion width = 1.00mm
; perimeters extrusion width = 1.00mm
; infill extrusion width = 1.00mm
; solid infill extrusion width = 1.00mm
; top infill extrusion width = 1.00mm
; first layer extrusion width = 1.00mm

; object:{"name":"Test_base3mm_conic","id":"Test_base3mm_conic.stl id:0 copy 0","object_center":[-13.003743,0.000000,0.000000],"boundingbox_center":[-13.003743,0.000000,30.017147],"boundingbox_size":[46.813477,20.801426,60.034294]}
; Total objects to print: 1
M486 T1
; plater:{"center":[-13.003743,0.000000,0.000000],"boundingbox_center":[-13.003743,0.000000,30.017147],"boundingbox_size":[46.813477,20.801426,60.034294]}

M107 ; disable fan
M140 S65 ; set bed temperature
M104 S210 ; set temperature
;TYPE:Custom
; custom gcode: start_gcode
G28 ; home all axes
 M117 Purge extruder
 G92 E0 ; reset extruder
 G1 Z1.0 F3000 ; move z up little to prevent scratching of surface
 G1 X2 Y20 Z0.3 F5000.0 ; move to start-line position
 G1 X2 Y200.0 Z0.3 F1500.0 E15 ; draw 1st line
 G1 X2 Y200.0 Z0.4 F5000.0 ; move to side a little
 G1 X2 Y20 Z0.4 F1500.0 E30 ; draw 2nd line
 G92 E0 ; reset extruder
 G1 Z1.0 F3000 ; move z up little to prevent scratching of surface
; custom gcode end: start_gcode

M107 ; disable fan
G21 ; set units to millimeters
G90 ; use absolute coordinates
M83 ; use relative distances for extrusion
; custom gcode: start_filament_gcode
; Filament gcode
; custom gcode end: start_filament_gcode
M109 S210 ; set temperature and wait for it to be reached
M190 S65 ; set bed temperature and wait for it to be reached
;LAYER_CHANGE
;Z:0.4
;HEIGHT:0.4
; custom gcode: before_layer_gcode
;BEFORE_LAYER_CHANGE
;0.4
G92 E0
; custom gcode end: before_layer_gcode

G1 X150.000 Y150.000 Z0.200 E-1.90000
G1 X150.000 Y150.000 Z0.700
; custom gcode: layer_gcode
;AFTER_LAYER_CHANGE
;0.4
; custom gcode end: layer_gcode

G1 X150.000 Y150.000 Z1.100
; printing object Test_base3mm_conic.stl id:0 copy 0
M486 S0
M204 S500 ; adjust acceleration
G1 X149.049 Y149.960 Z0.827
G1 X148.098 Y149.920 Z0.700
G1 X147.147 Y149.880 Z0.700
G1 X146.196 Y149.840 Z0.700
G1 X145.245 Y149.800 Z0.700
G1 X144.294 Y149.760 Z0.700
G1 X143.342 Y149.720 Z0.700
G1 X142.391 Y149.680 Z0.700
G1 X141.440 Y149.640 Z0.700
G1 X140.489 Y149.600 Z0.700
G1 X140.489 Y149.600 Z0.700
G1 X140.489 Y149.600 Z0.700 E1.90000
;TYPE:External perimeter
;WIDTH:1.000000
M107 ; disable fan
G1 F900
G1 X140.557 Y148.803 Z0.700 E0.05690
G1 X140.690 Y148.015 Z0.700 E0.05690
G1 X140.887 Y147.248 Z0.700 E0.05638
G1 X141.148 Y146.500 Z0.700 E0.05639
G1 X141.473 Y145.769 Z0.700 E0.05690
G1 X141.858 Y145.069 Z0.700 E0.05689
G1 X142.300 Y144.403 Z0.700 E0.05688
G1 X142.792 Y143.782 Z0.700 E0.05643
G1 X143.336 Y143.204 Z0.700 E0.05643
G1 X143.933 Y142.666 Z0.700 E0.05719
G1 X144.567 Y142.184 Z0.700 E0.05673
G1 X145.241 Y141.756 Z0.700 E0.05674
G1 X145.947 Y141.387 Z0.700 E0.05673
G1 X146.682 Y141.079 Z0.700 E0.05674
G1 X147.440 Y140.831 Z0.700 E0.05674
G1 X148.216 Y140.650 Z0.700 E0.05674
G1 X149.005 Y140.533 Z0.700 E0.05673
G1 X149.801 Y140.484 Z0.700 E0.05674
G1 X150.598 Y140.500 Z0.700 E0.05674
G1 X151.391 Y140.583 Z0.700 E0.05673
G1 X152.173 Y140.732 Z0.700 E0.05674
G1 X152.941 Y140.947 Z0.700 E0.05674
G1 X153.688 Y141.225 Z0.700 E0.05674
G1 X154.410 Y141.564 Z0.700 E0.05673
G1 X155.100 Y141.963 Z0.700 E0.05674
G1 X155.755 Y142.418 Z0.700 E0.05674
G1 X156.369 Y142.926 Z0.700 E0.05673
G1 X156.939 Y143.484 Z0.700 E0.05674
G1 X157.460 Y144.087 Z0.700 E0.05674
G1 X157.928 Y144.732 Z0.700 E0.05674
G1 X158.342 Y145.414 Z0.700 E0.05673
G1 X158.696 Y146.128 Z0.700 E0.05674
G1 X158.990 Y146.869 Z0.700 E0.05674
G1 X159.219 Y147.632 Z0.700 E0.05674
G1 X159.386 Y148.413 Z0.700 E0.05673
G1 X159.486 Y149.203 Z0.700 E0.05674
G1 X159.519 Y150.000 Z0.700 E0.05674
G1 X159.486 Y150.797 Z0.700 E0.05673
G1 X159.386 Y151.587 Z0.700 E0.05674
G1 X159.219 Y152.368 Z0.700 E0.05674
G1 X158.990 Y153.131 Z0.700 E0.05674
G1 X158.696 Y153.872 Z0.700 E0.05673
G1 X158.342 Y154.586 Z0.700 E0.05674
G1 X157.928 Y155.268 Z0.700 E0.05674
G1 X157.460 Y155.913 Z0.700 E0.05674
G1 X156.939 Y156.516 Z0.700 E0.05673
G1 X156.369 Y157.074 Z0.700 E0.05674
G1 X155.755 Y157.582 Z0.700 E0.05674
G1 X155.100 Y158.037 Z0.700 E0.05674
G1 X154.410 Y158.436 Z0.700 E0.05673
G1 X153.688 Y158.775 Z0.700 E0.05674
G1 X152.941 Y159.053 Z0.700 E0.05674
G1 X152.173 Y159.268 Z0.700 E0.05673
G1 X151.391 Y159.417 Z0.700 E0.05674
G1 X150.598 Y159.500 Z0.700 E0.05674
G1 X149.801 Y159.516 Z0.700 E0.05674
G1 X149.005 Y159.467 Z0.700 E0.05673
G1 X148.216 Y159.350 Z0.700 E0.05674
G1 X147.440 Y159.169 Z0.700 E0.05674
G1 X146.682 Y158.921 Z0.700 E0.05674
G1 X145.947 Y158.613 Z0.700 E0.05673
G1 X145.241 Y158.244 Z0.700 E0.05674
G1 X144.567 Y157.816 Z0.700 E0.05674
G1 X143.933 Y157.334 Z0.700 E0.05673
G1 X143.339 Y156.801 Z0.700 E0.05674
G1 X142.797 Y156.223 Z0.700 E0.05644
G1 X142.300 Y155.596 Z0.700 E0.05687
G1 X141.858 Y154.931 Z0.700 E0.05688
G1 X141.473 Y154.231 Z0.700 E0.05688
G1 X141.148 Y153.500 Z0.700 E0.05691
G1 X140.887 Y152.752 Z0.700 E0.05639
G1 X140.690 Y151.985 Z0.700 E0.05638
G1 X140.557 Y151.197 Z0.700 E0.05690
G1 X140.489 Y150.400 Z0.700 E0.05690
G1 X140.489 Y149.744 Z0.700 E0.04664
M107 ; disable fan
;WIPE_START
M204 S1000 ; adjust acceleration
G1 X140.993 Y149.346 Z0.700
;WIPE_END
;WIPE_START
G1 F6240
G1 X141.033 Y148.864 Z0.700 E-0.16081
G1 X141.161 Y148.116 Z0.700 E-0.25254
G1 X141.348 Y147.387 Z0.700 E-0.25014
G1 X141.596 Y146.677 Z0.700 E-0.25016
G1 X141.904 Y145.983 Z0.700 E-0.25254
G1 X142.270 Y145.318 Z0.700 E-0.25241
G1 X142.690 Y144.686 Z0.700 E-0.25244
G1 X142.940 Y144.370 Z0.700 E-0.13396
;WIPE_END
G1 X142.940 Y144.370 Z0.700 E-0.09500
G1 X142.940 Y144.370 Z0.700
; acceleration to travel
M204 S1500 ; adjust acceleration
G1 X143.890 Y144.462 Z0.700
G1 X144.840 Y144.555 Z0.700
G1 X145.790 Y144.648 Z0.700
G1 X146.740 Y144.740 Z0.700
G1 X147.690 Y144.833 Z0.700
G1 X148.640 Y144.925 Z0.700
G1 X149.590 Y145.018 Z0.700
G1 X150.540 Y145.110 Z0.700
G1 X151.490 Y145.203 Z0.700
G1 X152.440 Y145.295 Z0.700
G1 X153.390 Y145.388 Z0.700
G1 X154.340 Y145.481 Z0.700
G1 X155.290 Y145.573 Z0.700
G1 X156.240 Y145.666 Z0.700
; decel to extrusion
M204 S500 ; adjust acceleration
G1 X157.149 Y145.754 Z0.700
G1 X158.059 Y145.843 Z0.700
; end travel
G1 X158.059 Y145.843 Z0.700
G1 X158.059 Y145.843 Z0.700 E1.90000
;TYPE:Solid infill
M107 ; disable fan
G1 F1641
G1 X157.470 Y145.253 Z0.700 E1.48431
G1 X156.881 Y144.664 Z0.700 E1.06862
G1 X156.291 Y144.075 Z0.700 E0.65294
G1 X155.702 Y143.486 Z0.700 E0.23725
G1 X155.237 Y143.101 Z0.700 E0.04294
G1 X154.641 Y142.687 Z0.700 E0.05163
G1 X154.013 Y142.324 Z0.700 E0.05163
G1 X153.357 Y142.015 Z0.700 E0.05163
G1 X152.598 Y141.741 Z0.700 E0.05736
G1 X153.227 Y142.369 Z0.700 E0.11423
G1 X153.855 Y142.997 Z0.700 E0.17109
G1 X154.483 Y143.626 Z0.700 E0.22796
G1 X155.112 Y144.254 Z0.700 E0.28482
G1 X155.740 Y144.882 Z0.700 E0.34169
G1 X156.368 Y145.510 Z0.700 E0.39855
G1 X156.997 Y146.139 Z0.700 E0.45542
G1 X157.625 Y146.767 Z0.700 E0.51228
G1 X158.253 Y147.395 Z0.700 E0.56915
G1 X158.390 Y147.846 Z0.700 E0.03350
G1 X158.541 Y148.555 Z0.700 E0.05163
G1 X158.611 Y149.111 Z0.700 E0.03981
G1 X157.968 Y148.468 Z0.700 E0.10123
G1 X157.324 Y147.824 Z0.700 E0.16265
G1 X156.681 Y147.181 Z0.700 E0.22407
G1 X156.038 Y146.538 Z0.700 E0.28549
G1 X155.395 Y145.895 Z0.700 E0.34691
G1 X154.752 Y145.251 Z0.700 E0.40834
G1 X154.108 Y144.608 Z0.700 E0.46976
G1 X153.465 Y143.965 Z0.700 E0.53118
G1 X152.822 Y143.322 Z0.700 E0.59260
G1 X152.179 Y142.678 Z0.700 E0.65402
G1 X151.535 Y142.035 Z0.700 E0.71544
G1 X150.892 Y141.392 Z0.700 E0.77686
G1 X150.544 Y141.355 Z0.700 E0.02492
G1 X149.818 Y141.340 Z0.700 E0.05162
G1 X149.502 Y141.360 Z0.700 E0.02259
G1 X150.155 Y142.013 Z0.700 E0.08668
G1 X150.808 Y142.666 Z0.700 E0.15076
G1 X151.460 Y143.318 Z0.700 E0.21485
G1 X152.113 Y143.971 Z0.700 E0.27894
G1 X152.766 Y144.624 Z0.700 E0.34303
G1 X153.419 Y145.277 Z0.700 E0.40711
G1 X154.071 Y145.930 Z0.700 E0.47120
G1 X154.724 Y146.582 Z0.700 E0.53529
G1 X155.377 Y147.235 Z0.700 E0.59937
G1 X156.030 Y147.888 Z0.700 E0.66346
G1 X156.682 Y148.541 Z0.700 E0.72755
G1 X157.335 Y149.193 Z0.700 E0.79164
G1 X157.988 Y149.846 Z0.700 E0.85572
G1 X158.641 Y150.499 Z0.700 E0.91981
G1 X158.631 Y150.725 Z0.700 E0.01608
G1 X158.541 Y151.445 Z0.700 E0.05163
G1 X158.486 Y151.702 Z0.700 E0.01875
G1 X157.807 Y151.023 Z0.700 E0.08588
G1 X157.127 Y150.344 Z0.700 E0.15301
G1 X156.448 Y149.664 Z0.700 E0.22014
G1 X155.768 Y148.985 Z0.700 E0.28727
G1 X155.089 Y148.305 Z0.700 E0.35440
G1 X154.409 Y147.626 Z0.700 E0.42153
G1 X153.730 Y146.946 Z0.700 E0.48866
G1 X153.051 Y146.267 Z0.700 E0.55580
G1 X152.371 Y145.588 Z0.700 E0.62293
G1 X151.692 Y144.908 Z0.700 E0.69006
G1 X151.012 Y144.229 Z0.700 E0.75719
G1 X150.333 Y143.549 Z0.700 E0.82432
G1 X149.654 Y142.870 Z0.700 E0.89145
G1 X148.974 Y142.191 Z0.700 E0.95858
G1 X148.295 Y141.511 Z0.700 E1.02571
G1 X147.671 Y141.657 Z0.700 E0.04561
G1 X147.227 Y141.801 Z0.700 E0.03321
G1 X147.872 Y142.447 Z0.700 E0.09623
G1 X148.518 Y143.093 Z0.700 E0.15926
G1 X149.163 Y143.738 Z0.700 E0.22228
G1 X149.809 Y144.384 Z0.700 E0.28530
G1 X150.455 Y145.029 Z0.700 E0.34832
G1 X151.100 Y145.675 Z0.700 E0.41135
G1 X151.746 Y146.320 Z0.700 E0.47437
G1 X152.391 Y146.966 Z0.700 E0.53739
G1 X153.037 Y147.612 Z0.700 E0.60042
G1 X153.682 Y148.257 Z0.700 E0.66344
G1 X154.328 Y148.903 Z0.700 E0.72646
G1 X154.974 Y149.548 Z0.700 E0.78949
G1 X155.619 Y150.194 Z0.700 E0.85251
G1 X156.265 Y150.839 Z0.700 E0.91553
G1 X156.910 Y151.485 Z0.700 E0.97855
G1 X157.556 Y152.131 Z0.700 E1.04158
G1 X158.201 Y152.776 Z0.700 E1.10460
G1 X157.913 Y153.523 Z0.700 E0.05697
G1 X157.805 Y153.738 Z0.700 E0.01714
G1 X157.126 Y153.059 Z0.700 E0.08450
G1 X156.447 Y152.380 Z0.700 E0.15186
G1 X155.768 Y151.701 Z0.700 E0.21922
G1 X155.088 Y151.021 Z0.700 E0.28658
G1 X154.409 Y150.342 Z0.700 E0.35394
G1 X153.730 Y149.663 Z0.700 E0.42130
G1 X153.051 Y148.983 Z0.700 E0.48866
G1 X152.371 Y148.304 Z0.700 E0.55602
G1 X151.692 Y147.625 Z0.700 E0.62339
G1 X151.013 Y146.946 Z0.700 E0.69075
G1 X150.333 Y146.266 Z0.700 E0.75811
G1 X149.654 Y145.587 Z0.700 E0.82547
G1 X148.975 Y144.908 Z0.700 E0.89283
G1 X148.296 Y144.229 Z0.700 E0.96019
G1 X147.616 Y143.549 Z0.700 E1.02755
G1 X146.937 Y142.870 Z0.700 E1.09491
G1 X146.258 Y142.191 Z0.700 E1.16227
G1 X145.670 Y142.498 Z0.700 E0.04729
G1 X145.387 Y142.678 Z0.700 E0.02380
G1 X146.050 Y143.341 Z0.700 E0.08922
G1 X146.713 Y144.004 Z0.700 E0.15464
G1 X147.376 Y144.667 Z0.700 E0.22006
G1 X148.039 Y145.331 Z0.700 E0.28548
G1 X148.702 Y145.994 Z0.700 E0.35090
G1 X149.366 Y146.657 Z0.700 E0.41632
G1 X150.029 Y147.320 Z0.700 E0.48174
G1 X150.692 Y147.983 Z0.700 E0.54716
G1 X151.355 Y148.646 Z0.700 E0.61258
G1 X152.018 Y149.309 Z0.700 E0.67800
G1 X152.681 Y149.972 Z0.700 E0.74342
G1 X153.344 Y150.635 Z0.700 E0.80884
G1 X154.007 Y151.299 Z0.700 E0.87426
G1 X154.670 Y151.962 Z0.700 E0.93968
G1 X155.334 Y152.625 Z0.700 E1.00510
G1 X155.997 Y153.288 Z0.700 E1.07052
G1 X156.660 Y153.951 Z0.700 E1.13594
G1 X157.323 Y154.614 Z0.700 E1.20136
G1 X157.214 Y154.794 Z0.700 E0.01490
G1 X156.762 Y155.411 Z0.700 E0.05452
G1 X156.085 Y154.735 Z0.700 E0.11954
G1 X155.409 Y154.059 Z0.700 E0.18456
G1 X154.733 Y153.383 Z0.700 E0.24959
G1 X154.057 Y152.706 Z0.700 E0.31461
G1 X153.381 Y152.030 Z0.700 E0.37963
G1 X152.705 Y151.354 Z0.700 E0.44465
G1 X152.029 Y150.678 Z0.700 E0.50967
G1 X151.352 Y150.002 Z0.700 E0.57469
G1 X150.676 Y149.326 Z0.700 E0.63972
G1 X150.000 Y148.650 Z0.700 E0.70474
G1 X149.324 Y147.973 Z0.700 E0.76976
G1 X148.648 Y147.297 Z0.700 E0.83478
G1 X147.972 Y146.621 Z0.700 E0.89980
G1 X147.296 Y145.945 Z0.700 E0.96482
G1 X146.619 Y145.269 Z0.700 E1.02985
G1 X145.943 Y144.593 Z0.700 E1.09487
G1 X145.267 Y143.917 Z0.700 E1.15989
G1 X144.591 Y143.240 Z0.700 E1.22491
G1 X144.232 Y143.561 Z0.700 E0.64668
G1 X143.874 Y143.882 Z0.700 E0.06846
G1 X144.518 Y144.526 Z0.700 E0.12971
G1 X145.162 Y145.170 Z0.700 E0.19095
G1 X145.807 Y145.814 Z0.700 E0.25220
G1 X146.451 Y146.459 Z0.700 E0.31345
G1 X147.095 Y147.103 Z0.700 E0.37469
G1 X147.740 Y147.747 Z0.700 E0.43594
G1 X148.384 Y148.392 Z0.700 E0.49718
G1 X149.028 Y149.036 Z0.700 E0.55843
G1 X149.673 Y149.680 Z0.700 E0.61968
G1 X150.317 Y150.325 Z0.700 E0.68092
G1 X150.961 Y150.969 Z0.700 E0.74217
G1 X151.605 Y151.613 Z0.700 E0.80342
G1 X152.250 Y152.257 Z0.700 E0.86466
G1 X152.894 Y152.902 Z0.700 E0.92591
G1 X153.538 Y153.546 Z0.700 E0.98715
G1 X154.183 Y154.190 Z0.700 E1.04840
G1 X154.827 Y154.835 Z0.700 E1.10965
G1 X155.471 Y155.479 Z0.700 E1.17089
G1 X156.116 Y156.123 Z0.700 E1.23214
G1 X155.795 Y156.437 Z0.700 E0.03187
G1 X155.399 Y156.765 Z0.700 E0.03664
G1 X154.724 Y156.090 Z0.700 E0.10262
G1 X154.048 Y155.414 Z0.700 E0.16859
G1 X153.372 Y154.738 Z0.700 E0.23457
G1 X152.696 Y154.062 Z0.700 E0.30055
G1 X152.021 Y153.387 Z0.700 E0.36652
G1 X151.345 Y152.711 Z0.700 E0.43250
G1 X150.669 Y152.035 Z0.700 E0.49848
G1 X149.993 Y151.359 Z0.700 E0.56445
G1 X149.318 Y150.683 Z0.700 E0.63043
G1 X148.642 Y150.008 Z0.700 E0.69641
G1 X147.966 Y149.332 Z0.700 E0.76238
G1 X147.290 Y148.656 Z0.700 E0.82836
G1 X146.614 Y147.980 Z0.700 E0.89434
G1 X145.939 Y147.305 Z0.700 E0.96031
G1 X145.263 Y146.629 Z0.700 E1.02629
G1 X144.587 Y145.953 Z0.700 E1.09227
G1 X143.911 Y145.277 Z0.700 E1.15824
G1 X143.236 Y144.602 Z0.700 E1.22422
G1 X142.994 Y144.907 Z0.700 E0.02771
G1 X142.670 Y145.395 Z0.700 E0.04164
G1 X143.334 Y146.058 Z0.700 E0.10608
G1 X143.997 Y146.721 Z0.700 E0.17052
G1 X144.660 Y147.384 Z0.700 E0.23496
G1 X145.323 Y148.047 Z0.700 E0.29940
G1 X145.986 Y148.711 Z0.700 E0.36384
G1 X146.650 Y149.374 Z0.700 E0.42828
G1 X147.313 Y150.037 Z0.700 E0.49272
G1 X147.976 Y150.700 Z0.700 E0.55716
G1 X148.639 Y151.364 Z0.700 E0.62160
G1 X149.303 Y152.027 Z0.700 E0.68603
G1 X149.966 Y152.690 Z0.700 E0.75047
G1 X150.629 Y153.353 Z0.700 E0.81491
G1 X151.292 Y154.016 Z0.700 E0.87935
G1 X151.955 Y154.680 Z0.700 E0.94379
G1 X152.619 Y155.343 Z0.700 E1.00823
G1 X153.282 Y156.006 Z0.700 E1.07267
G1 X153.945 Y156.669 Z0.700 E1.13711
G1 X154.608 Y157.333 Z0.700 E1.20155
G1 X154.013 Y157.676 Z0.700 E0.04891
G1 X153.728 Y157.810 Z0.700 E0.02244
G1 X153.049 Y157.131 Z0.700 E0.08944
G1 X152.370 Y156.453 Z0.700 E0.15645
G1 X151.691 Y155.774 Z0.700 E0.22345
G1 X151.012 Y155.095 Z0.700 E0.29045
G1 X150.334 Y154.416 Z0.700 E0.35745
G1 X149.655 Y153.737 Z0.700 E0.42446
G1 X148.976 Y153.059 Z0.700 E0.49146
G1 X148.297 Y152.380 Z0.700 E0.55846
G1 X147.618 Y151.701 Z0.700 E0.62547
G1 X146.940 Y151.022 Z0.700 E0.69247
G1 X146.261 Y150.343 Z0.700 E0.75947
G1 X145.582 Y149.664 Z0.700 E0.82648
G1 X144.903 Y148.986 Z0.700 E0.89348
G1 X144.224 Y148.307 Z0.700 E0.96048
G1 X143.545 Y147.628 Z0.700 E1.02748
G1 X142.867 Y146.949 Z0.700 E1.09449
G1 X142.188 Y146.270 Z0.700 E1.16149
G1 X141.945 Y146.815 Z0.700 E0.04245
G1 X141.798 Y147.238 Z0.700 E0.03191
G1 X142.443 Y147.883 Z0.700 E0.09496
G1 X143.088 Y148.529 Z0.700 E0.15801
G1 X143.733 Y149.174 Z0.700 E0.22106
G1 X144.378 Y149.819 Z0.700 E0.28411
G1 X145.023 Y150.464 Z0.700 E0.34716
G1 X145.668 Y151.109 Z0.700 E0.41021
G1 X146.313 Y151.754 Z0.700 E0.47326
G1 X146.959 Y152.399 Z0.700 E0.53631
G1 X147.604 Y153.044 Z0.700 E0.59936
G1 X148.249 Y153.689 Z0.700 E0.66241
G1 X148.894 Y154.335 Z0.700 E0.72546
G1 X149.539 Y154.980 Z0.700 E0.78851
G1 X150.184 Y155.625 Z0.700 E0.85156
G1 X150.829 Y156.270 Z0.700 E0.91461
G1 X151.474 Y156.915 Z0.700 E0.97766
G1 X152.119 Y157.560 Z0.700 E1.04071
G1 X152.765 Y158.205 Z0.700 E1.10376
G1 X151.978 Y158.433 Z0.700 E0.05828
G1 X151.689 Y158.488 Z0.700 E0.02093
G1 X151.010 Y157.809 Z0.700 E0.08784
G1 X150.332 Y157.131 Z0.700 E0.15475
G1 X149.653 Y156.452 Z0.700 E0.22165
G1 X148.974 Y155.773 Z0.700 E0.28856
G1 X148.296 Y155.095 Z0.700 E0.35547
G1 X147.617 Y154.416 Z0.700 E0.42238
G1 X146.938 Y153.737 Z0.700 E0.48929
G1 X146.260 Y153.059 Z0.700 E0.55619
G1 X145.581 Y152.380 Z0.700 E0.62310
G1 X144.902 Y151.701 Z0.700 E0.69001
G1 X144.224 Y151.023 Z0.700 E0.75692
