; generated by SuperSlicer 2.5.59.13 on 2025-12-15 at 15:43:25 UTC

; 

; external perimeters extrusion width = 1.05mm
; perimeters extrusion width = 1.05mm
; infill extrusion width = 1.05mm
; solid infill extrusion width = 1.05mm
; top infill extrusion width = 1.05mm
; first layer extrusion width = 1.05mm

; object:{"name":"Test_base3mm_conic","id":"Test_base3mm_conic.stl id:0 copy 0","object_center":[-13.003743,0.000000,0.000000],"boundingbox_center":[-13.003743,0.000000,30.017147],"boundingbox_size":[46.813477,20.801426,60.034294]}
; Total objects to print: 1
M486 T1
; plater:{"center":[-13.003743,0.000000,0.000000],"boundingbox_center":[-13.003743,0.000000,30.017147],"boundingbox_size":[46.813477,20.801426,60.034294]}

M107 ; disable fan
M140 S65 ; set bed temperature
M104 S210 ; set temperature
;TYPE:Custom
; custom gcode: start_gcode
G28 ; home all axes
 M117 Purge extruder
 G92 E0 ; reset extruder
 G1 Z1.0 F3000 ; move z up little to prevent scratching of surface
 G1 X2 Y20 Z0.3 F5000.0 ; move to start-line position
 G1 X2 Y200.0 Z0.3 F1500.0 E15 ; draw 1st line
 G1 X2 Y200.0 Z0.4 F5000.0 ; move to side a little
 G1 X2 Y20 Z0.4 F1500.0 E30 ; draw 2nd line
 G92 E0 ; reset extruder
 G1 Z1.0 F3000 ; move z up little to prevent scratching of surface
; custom gcode end: start_gcode

M107 ; disable fan
G21 ; set units to millimeters
G90 ; use absolute coordinates
M83 ; use relative distances for extrusion
; custom gcode: start_filament_gcode
; Filament gcode
; custom gcode end: start_filament_gcode
M109 S210 ; set temperature and wait for it to be reached
M190 S65 ; set bed temperature and wait for it to be reached
;LAYER_CHANGE
;Z:0.49
;HEIGHT:0.49
; custom gcode: before_layer_gcode
;BEFORE_LAYER_CHANGE
;0.49
G92 E0
; custom gcode end: before_layer_gcode

G1 E-1.9 F2100 ; retract
G1 Z0.6 F7800 ; lift Z
; custom gcode: layer_gcode
;AFTER_LAYER_CHANGE
;0.49
; custom gcode end: layer_gcode

G1 Z1.09 ; lift Z
; printing object Test_base3mm_conic.stl id:0 copy 0
M486 S0
M204 S500 ; adjust acceleration
G1 X-7.979 Y-0.336 ; move to first perimeter point (minimum acceleration)
G1 Z0.49 ; restore layer Z
G1 E1.9 F2100 ; unretract
;TYPE:Internal perimeter
;WIDTH:1.05
M107 ; disable fan
G1 F600
G1 X-7.923 Y-1.004 E0.12917 ; perimeter
G1 X-7.81 Y-1.667 E0.12934 ; perimeter
G1 X-7.645 Y-2.309 E0.12766 ; perimeter
G1 X-7.427 Y-2.935 E0.12766 ; perimeter
G1 X-7.154 Y-3.549 E0.12933 ; perimeter
G1 X-6.831 Y-4.137 E0.12914 ; perimeter
G1 X-6.459 Y-4.696 E0.12922 ; perimeter
G1 X-6.047 Y-5.217 E0.12775 ; perimeter
G1 X-5.593 Y-5.701 E0.12782 ; perimeter
G1 X-5.09 Y-6.154 E0.13025 ; perimeter
G1 X-4.558 Y-6.558 E0.12859 ; perimeter
G1 X-3.993 Y-6.916 E0.12875 ; perimeter
G1 X-3.4 Y-7.226 E0.12874 ; perimeter
G1 X-2.784 Y-7.485 E0.12874 ; perimeter
G1 X-2.148 Y-7.692 E0.12875 ; perimeter
G1 X-1.497 Y-7.845 E0.12874 ; perimeter
G1 X-0.842 Y-7.941 E0.12735 ; perimeter
G1 X-0.007 Y-7.981 E0.16083 ; perimeter
G1 X0.501 Y-7.97 E0.09795 ; perimeter
G1 X1.167 Y-7.901 E0.12875 ; perimeter
G1 X1.824 Y-7.775 E0.12874 ; perimeter
G1 X2.468 Y-7.595 E0.12874 ; perimeter
G1 X3.095 Y-7.362 E0.12874 ; perimeter
G1 X3.7 Y-7.077 E0.12875 ; perimeter
G1 X4.279 Y-6.743 E0.12874 ; perimeter
G1 X4.828 Y-6.361 E0.12875 ; perimeter
G1 X5.344 Y-5.935 E0.12873 ; perimeter
G1 X5.822 Y-5.467 E0.12875 ; perimeter
G1 X6.259 Y-4.961 E0.12874 ; perimeter
G1 X6.652 Y-4.419 E0.12874 ; perimeter
G1 X6.998 Y-3.847 E0.12875 ; perimeter
G1 X7.296 Y-3.248 E0.12874 ; perimeter
G1 X7.542 Y-2.626 E0.12875 ; perimeter
G1 X7.735 Y-1.986 E0.12873 ; perimeter
G1 X7.874 Y-1.332 E0.12875 ; perimeter
G1 X7.958 Y-0.668 E0.12874 ; perimeter
G1 X7.986 Y0.000000 E0.12874 ; perimeter
G1 X7.958 Y0.668 E0.12875 ; perimeter
G1 X7.874 Y1.332 E0.12874 ; perimeter
G1 X7.735 Y1.986 E0.12874 ; perimeter
G1 X7.542 Y2.626 E0.12874 ; perimeter
G1 X7.296 Y3.248 E0.12875 ; perimeter
G1 X6.998 Y3.847 E0.12874 ; perimeter
G1 X6.652 Y4.419 E0.12874 ; perimeter
G1 X6.259 Y4.961 E0.12875 ; perimeter
G1 X5.822 Y5.467 E0.12874 ; perimeter
G1 X5.344 Y5.935 E0.12874 ; perimeter
G1 X4.828 Y6.361 E0.12874 ; perimeter
G1 X4.279 Y6.743 E0.12875 ; perimeter
G1 X3.7 Y7.077 E0.12874 ; perimeter
G1 X3.095 Y7.362 E0.12875 ; perimeter
G1 X2.468 Y7.595 E0.12874 ; perimeter
G1 X1.824 Y7.775 E0.12874 ; perimeter
G1 X1.167 Y7.901 E0.12874 ; perimeter
G1 X0.501 Y7.97 E0.12874 ; perimeter
G1 X-0.167 Y7.984 E0.12875 ; perimeter
G1 X-0.835 Y7.942 E0.12874 ; perimeter
G1 X-1.497 Y7.845 E0.12874 ; perimeter
G1 X-2.148 Y7.692 E0.12874 ; perimeter
G1 X-2.784 Y7.485 E0.12875 ; perimeter
G1 X-3.4 Y7.226 E0.12874 ; perimeter
G1 X-3.993 Y6.916 E0.12874 ; perimeter
G1 X-4.558 Y6.558 E0.12875 ; perimeter
G1 X-5.091 Y6.153 E0.12874 ; perimeter
G1 X-5.588 Y5.706 E0.12878 ; perimeter
G1 X-6.042 Y5.222 E0.12778 ; perimeter
G1 X-6.46 Y4.696 E0.12922 ; perimeter
G1 X-6.831 Y4.137 E0.12912 ; perimeter
G1 X-7.154 Y3.549 E0.12914 ; perimeter
G1 X-7.427 Y2.935 E0.12932 ; perimeter
G1 X-7.645 Y2.309 E0.12766 ; perimeter
G1 X-7.81 Y1.667 E0.12767 ; perimeter
G1 X-7.923 Y1.004 E0.12933 ; perimeter
G1 X-7.979 Y0.336 E0.12917 ; perimeter
G1 X-7.979 Y-0.186 E0.1003 ; perimeter
M107 ; disable fan
G1 X-8.924 Y-0.375 F7800 ; move to first perimeter point (minimum acceleration)
M107 ; disable fan
G1 F600
G1 X-8.861 Y-1.123 E0.14448 ; perimeter
G1 X-8.735 Y-1.864 E0.14457 ; perimeter
G1 X-8.55 Y-2.582 E0.14283 ; perimeter
G1 X-8.306 Y-3.283 E0.14285 ; perimeter
G1 X-8.001 Y-3.97 E0.14457 ; perimeter
G1 X-7.64 Y-4.627 E0.14444 ; perimeter
G1 X-7.224 Y-5.252 E0.14448 ; perimeter
G1 X-6.763 Y-5.834 E0.14295 ; perimeter
G1 X-6.255 Y-6.376 E0.14301 ; perimeter
G1 X-5.693 Y-6.882 E0.14552 ; perimeter
G1 X-5.098 Y-7.334 E0.14389 ; perimeter
G1 X-4.466 Y-7.735 E0.14399 ; perimeter
G1 X-3.803 Y-8.082 E0.14399 ; perimeter
G1 X-3.113 Y-8.372 E0.14399 ; perimeter
G1 X-2.402 Y-8.603 E0.14399 ; perimeter
G1 X-1.674 Y-8.774 E0.14398 ; perimeter
G1 X-0.934 Y-8.883 E0.14399 ; perimeter
G1 X-0.02 Y-8.926 E0.17608 ; perimeter
G1 X0.561 Y-8.914 E0.1118 ; perimeter
G1 X1.305 Y-8.836 E0.14399 ; perimeter
G1 X2.04 Y-8.696 E0.14399 ; perimeter
G1 X2.76 Y-8.495 E0.14399 ; perimeter
G1 X3.461 Y-8.234 E0.14398 ; perimeter
G1 X4.138 Y-7.915 E0.144 ; perimeter
G1 X4.786 Y-7.541 E0.14398 ; perimeter
G1 X5.4 Y-7.114 E0.14399 ; perimeter
G1 X5.977 Y-6.638 E0.14398 ; perimeter
G1 X6.511 Y-6.114 E0.144 ; perimeter
G1 X7 Y-5.548 E0.14398 ; perimeter
G1 X7.44 Y-4.943 E0.14399 ; perimeter
G1 X7.827 Y-4.303 E0.14399 ; perimeter
G1 X8.16 Y-3.633 E0.14399 ; perimeter
G1 X8.435 Y-2.937 E0.14398 ; perimeter
G1 X8.651 Y-2.221 E0.14399 ; perimeter
G1 X8.807 Y-1.49 E0.14399 ; perimeter
G1 X8.901 Y-0.747 E0.14399 ; perimeter
G1 X8.932 Y0.000000 E0.14398 ; perimeter
G1 X8.901 Y0.747 E0.14399 ; perimeter
G1 X8.807 Y1.49 E0.14399 ; perimeter
G1 X8.651 Y2.221 E0.14399 ; perimeter
G1 X8.435 Y2.937 E0.14398 ; perimeter
G1 X8.16 Y3.633 E0.14399 ; perimeter
G1 X7.827 Y4.303 E0.14399 ; perimeter
G1 X7.44 Y4.943 E0.14399 ; perimeter
G1 X7 Y5.548 E0.14399 ; perimeter
G1 X6.511 Y6.114 E0.14398 ; perimeter
G1 X5.977 Y6.638 E0.14399 ; perimeter
G1 X5.4 Y7.114 E0.14399 ; perimeter
G1 X4.786 Y7.541 E0.14399 ; perimeter
G1 X4.138 Y7.915 E0.14398 ; perimeter
G1 X3.461 Y8.234 E0.144 ; perimeter
G1 X2.76 Y8.495 E0.14398 ; perimeter
G1 X2.04 Y8.696 E0.14399 ; perimeter
G1 X1.305 Y8.836 E0.14398 ; perimeter
G1 X0.561 Y8.914 E0.144 ; perimeter
G1 X-0.187 Y8.93 E0.14398 ; perimeter
G1 X-0.934 Y8.883 E0.14399 ; perimeter
G1 X-1.674 Y8.774 E0.14399 ; perimeter
G1 X-2.402 Y8.603 E0.14398 ; perimeter
G1 X-3.113 Y8.372 E0.14399 ; perimeter
G1 X-3.803 Y8.082 E0.14399 ; perimeter
G1 X-4.466 Y7.735 E0.14399 ; perimeter
G1 X-5.098 Y7.334 E0.14399 ; perimeter
G1 X-5.693 Y6.882 E0.14398 ; perimeter
G1 X-6.249 Y6.381 E0.14401 ; perimeter
G1 X-6.758 Y5.84 E0.14299 ; perimeter
G1 X-7.224 Y5.252 E0.14446 ; perimeter
G1 X-7.64 Y4.627 E0.14441 ; perimeter
G1 X-8.001 Y3.97 E0.14445 ; perimeter
G1 X-8.306 Y3.283 E0.14457 ; perimeter
G1 X-8.55 Y2.582 E0.14284 ; perimeter
G1 X-8.735 Y1.864 E0.14283 ; perimeter
G1 X-8.861 Y1.123 E0.14457 ; perimeter
G1 X-8.924 Y0.375 E0.14448 ; perimeter
G1 X-8.924 Y-0.225 E0.11561 ; perimeter
M107 ; disable fan
G1 X-9.869 Y-0.415 F7800 ; move to first perimeter point (minimum acceleration)
;TYPE:External perimeter
M107 ; disable fan
G1 F600
G1 X-9.799 Y-1.242 E0.15979 ; perimeter
G1 X-9.66 Y-2.061 E0.1598 ; perimeter
G1 X-9.456 Y-2.856 E0.15801 ; perimeter
G1 X-9.186 Y-3.631 E0.15802 ; perimeter
G1 X-8.848 Y-4.39 E0.15981 ; perimeter
G1 X-8.449 Y-5.117 E0.15975 ; perimeter
G1 X-7.989 Y-5.808 E0.15974 ; perimeter
G1 X-7.479 Y-6.452 E0.15815 ; perimeter
G1 X-6.917 Y-7.051 E0.15819 ; perimeter
G1 X-6.296 Y-7.611 E0.16079 ; perimeter
G1 X-5.637 Y-8.111 E0.1592 ; perimeter
G1 X-4.939 Y-8.554 E0.15924 ; perimeter
G1 X-4.206 Y-8.937 E0.15923 ; perimeter
G1 X-3.443 Y-9.258 E0.15923 ; perimeter
G1 X-2.656 Y-9.514 E0.15924 ; perimeter
G1 X-1.851 Y-9.703 E0.15923 ; perimeter
G1 X-1.033 Y-9.823 E0.15923 ; perimeter
G1 X-0.207 Y-9.875 E0.15923 ; perimeter
G1 X-0 Y-9.871 E0.03981 ; perimeter
G1 X0.62 Y-9.858 E0.11942 ; perimeter
G1 X1.443 Y-9.772 E0.15924 ; perimeter
G1 X2.256 Y-9.617 E0.15923 ; perimeter
G1 X3.052 Y-9.394 E0.15923 ; perimeter
G1 X3.828 Y-9.106 E0.15924 ; perimeter
G1 X4.576 Y-8.754 E0.15923 ; perimeter
G1 X5.293 Y-8.34 E0.15923 ; perimeter
G1 X5.972 Y-7.868 E0.15924 ; perimeter
G1 X6.609 Y-7.34 E0.15922 ; perimeter
G1 X7.2 Y-6.762 E0.15924 ; perimeter
G1 X7.741 Y-6.135 E0.15923 ; perimeter
G1 X8.227 Y-5.466 E0.15923 ; perimeter
G1 X8.656 Y-4.759 E0.15924 ; perimeter
G1 X9.024 Y-4.018 E0.15923 ; perimeter
G1 X9.328 Y-3.248 E0.15923 ; perimeter
G1 X9.567 Y-2.456 E0.15924 ; perimeter
G1 X9.739 Y-1.647 E0.15922 ; perimeter
G1 X9.843 Y-0.827 E0.15924 ; perimeter
G1 X9.878 Y0.000000 E0.15923 ; perimeter
G1 X9.843 Y0.827 E0.15923 ; perimeter
G1 X9.739 Y1.647 E0.15924 ; perimeter
G1 X9.567 Y2.456 E0.15923 ; perimeter
G1 X9.328 Y3.248 E0.15923 ; perimeter
G1 X9.024 Y4.018 E0.15923 ; perimeter
G1 X8.656 Y4.759 E0.15924 ; perimeter
G1 X8.227 Y5.466 E0.15923 ; perimeter
G1 X7.741 Y6.135 E0.15923 ; perimeter
G1 X7.2 Y6.762 E0.15924 ; perimeter
G1 X6.609 Y7.34 E0.15923 ; perimeter
G1 X5.972 Y7.868 E0.15923 ; perimeter
G1 X5.293 Y8.34 E0.15924 ; perimeter
G1 X4.576 Y8.754 E0.15922 ; perimeter
G1 X3.828 Y9.106 E0.15924 ; perimeter
G1 X3.052 Y9.394 E0.15923 ; perimeter
G1 X2.256 Y9.617 E0.15924 ; perimeter
G1 X1.443 Y9.772 E0.15923 ; perimeter
G1 X0.62 Y9.858 E0.15923 ; perimeter
G1 X-0.207 Y9.875 E0.15923 ; perimeter
G1 X-1.033 Y9.823 E0.15924 ; perimeter
G1 X-1.851 Y9.703 E0.15923 ; perimeter
G1 X-2.656 Y9.514 E0.15923 ; perimeter
G1 X-3.443 Y9.258 E0.15924 ; perimeter
G1 X-4.206 Y8.937 E0.15923 ; perimeter
G1 X-4.939 Y8.554 E0.15923 ; perimeter
G1 X-5.637 Y8.111 E0.15923 ; perimeter
G1 X-6.296 Y7.611 E0.15924 ; perimeter
G1 X-6.911 Y7.057 E0.15923 ; perimeter
G1 X-7.474 Y6.458 E0.15819 ; perimeter
G1 X-7.989 Y5.808 E0.1597 ; perimeter
G1 X-8.449 Y5.117 E0.15971 ; perimeter
G1 X-8.848 Y4.39 E0.15975 ; perimeter
G1 X-9.186 Y3.631 E0.15982 ; perimeter
G1 X-9.456 Y2.856 E0.15802 ; perimeter
G1 X-9.66 Y2.061 E0.15801 ; perimeter
G1 X-9.799 Y1.242 E0.1598 ; perimeter
G1 X-9.869 Y0.415 E0.15979 ; perimeter
G1 X-9.869 Y-0.265 E0.13091 ; perimeter
M107 ; disable fan
;WIPE_START
M204 S1000 ; adjust acceleration
G1 X-9.345 Y-0.68 F7800 ; move inwards before wipe
;WIPE_END
;WIPE_START
G1 F6240
G1 X-9.303 Y-1.179 E-0.16031 ; wipe and retract
G1 X-9.171 Y-1.957 E-0.25204 ; wipe and retract
G1 X-8.977 Y-2.711 E-0.24911 ; wipe and retract
G1 X-8.72 Y-3.447 E-0.24913 ; wipe and retract
G1 X-8.4 Y-4.167 E-0.25206 ; wipe and retract
G1 X-8.021 Y-4.858 E-0.25189 ; wipe and retract
G1 X-7.584 Y-5.514 E-0.25191 ; wipe and retract
G1 X-7.315 Y-5.854 E-0.13855 ; wipe and retract
;WIPE_END
G1 E-0.095 F2100 ; retract
G1 Z1.09 F7800 ; lift Z
; acceleration to travel
M204 S1500 ; adjust acceleration
G1 X5.415 Y-3.572 ; move to first Solid infill point (acceleration)
; decel to extrusion
M204 S500 ; adjust acceleration
G1 X6.952 Y-3.297 ; move to first Solid infill point (deceleration)
; end travel
G1 Z0.49 ; restore layer Z
G1 E1.9 F2100 ; unretract
;TYPE:Solid infill
;WIDTH:0.989193
M107 ; disable fan
G1 F600
G1 X4.755 Y-5.494 E0.5635 ; Solid infill
G1 X4.396 Y-5.791 E0.08453 ; Solid infill
G1 X3.896 Y-6.139 E0.11042 ; Solid infill
G1 X3.368 Y-6.443 E0.11041 ; Solid infill
G1 X2.817 Y-6.703 E0.11043 ; Solid infill
G1 X2.247 Y-6.915 E0.11042 ; Solid infill
G1 X1.799 Y-7.04 E0.08435 ; Solid infill
G1 X7.045 Y-1.793 E1.3455 ; Solid infill
G1 X7.169 Y-1.213 E0.10764 ; Solid infill
G1 X7.245 Y-0.608 E0.11042 ; Solid infill
G1 X7.264 Y-0.164 E0.08061 ; Solid infill
G1 X0.18 Y-7.248 E1.8167 ; Solid infill
G1 X-0.782 Y-7.228 E0.17438 ; Solid infill
G1 X-1.155 Y-7.172 E0.06842 ; Solid infill
G1 X7.176 Y1.158 E2.13638 ; Solid infill
G1 X7.042 Y1.808 E0.1203 ; Solid infill
G1 X6.897 Y2.29 E0.09126 ; Solid infill
G1 X-2.288 Y-6.895 E2.35536 ; Solid infill
G1 X-2.534 Y-6.815 E0.04701 ; Solid infill
G1 X-3.096 Y-6.579 E0.11041 ; Solid infill
G1 X-3.284 Y-6.48 E0.03852 ; Solid infill
G1 X6.48 Y3.284 E2.50392 ; Solid infill
G1 X6.371 Y3.503 E0.04433 ; Solid infill
G1 X5.952 Y4.166 E0.14235 ; Solid infill
G1 X-4.169 Y-5.955 E2.59562 ; Solid infill
G1 X-4.634 Y-5.603 E0.1057 ; Solid infill
G1 X-4.946 Y-5.321 E0.07624 ; Solid infill
G1 X5.324 Y4.949 E2.63377 ; Solid infill
G1 X4.865 Y5.403 E0.1171 ; Solid infill
G1 X4.593 Y5.628 E0.06405 ; Solid infill
G1 X-5.629 Y-4.593 E2.62129 ; Solid infill
G1 X-5.88 Y-4.276 E0.07346 ; Solid infill
G1 X-6.216 Y-3.77 E0.11006 ; Solid infill
G1 X3.767 Y6.213 E2.56022 ; Solid infill
G1 X3.368 Y6.443 E0.08347 ; Solid infill
G1 X2.837 Y6.693 E0.10654 ; Solid infill
G1 X-6.69 Y-2.833 E2.44312 ; Solid infill
G1 X-6.96 Y-2.102 E0.14135 ; Solid infill
G1 X-7.044 Y-1.777 E0.06096 ; Solid infill
G1 X1.778 Y7.046 E2.26241 ; Solid infill
G1 X1.062 Y7.193 E0.13259 ; Solid infill
G1 X0.567 Y7.245 E0.09029 ; Solid infill
G1 X-7.242 Y-0.565 E2.00265 ; Solid infill
G1 X-7.264 Y-0.305 E0.04716 ; Solid infill
G1 X-7.264 Y0.305 E0.11078 ; Solid infill
G1 X-7.216 Y0.872 E0.10308 ; Solid infill
G1 X-0.874 Y7.214 E1.62638 ; Solid infill
G1 X-1.362 Y7.142 E0.08945 ; Solid infill
G1 X-1.955 Y7.003 E0.11042 ; Solid infill
G1 X-2.534 Y6.815 E0.11042 ; Solid infill
G1 X-2.793 Y6.706 E0.05087 ; Solid infill
G1 X-7.405 Y2.094 E1.18276 ; Solid infill
M107 ; disable fan
M106 S127.5 ; set fan for new extruder
;LAYER_CHANGE
;Z:0.99
;HEIGHT:0.5
; custom gcode: before_layer_gcode
;BEFORE_LAYER_CHANGE
;0.99
G92 E0
; custom gcode end: before_layer_gcode

;WIPE_START
G1 F6240
M204 S1000 ; adjust acceleration
G1 X-3.413 Y6.086 E-1.805 ; wipe and retract
;WIPE_END
G1 E-0.095 F2100 ; retract
G1 Z1.09 F7800 ; lift Z
; stop printing object Test_base3mm_conic.stl id:0 copy 0
M486 S-1
; custom gcode: layer_gcode
;AFTER_LAYER_CHANGE
;0.99
; custom gcode end: layer_gcode

M104 S205 ; set temperature
M140 S60 ; set bed temperature
; printing object Test_base3mm_conic.stl id:0 copy 0
M486 S0
M204 S800 ; adjust acceleration
G1 X-3.995 Y6.92 ; move to first perimeter point (minimum acceleration)
G1 Z0.99 ; restore layer Z
G1 E1.9 F2100 ; unretract
;TYPE:Internal perimeter
;WIDTH:1.05
M106 S127.5 ; set fan for Internal perimeter
G1 F900
G1 X-4.56 Y6.561 E0.13114 ; perimeter
G1 X-5.093 Y6.157 E0.13115 ; perimeter
G1 X-5.591 Y5.708 E0.13126 ; perimeter
G1 X-6.039 Y5.232 E0.12819 ; perimeter
G1 X-6.46 Y4.702 E0.1326 ; perimeter
G1 X-6.834 Y4.14 E0.13229 ; perimeter
G1 X-7.159 Y3.548 E0.13238 ; perimeter
G1 X-7.435 Y2.928 E0.13292 ; perimeter
G1 X-7.649 Y2.312 E0.12782 ; perimeter
G1 X-7.811 Y1.68 E0.12783 ; perimeter
G1 X-7.926 Y1.012 E0.13295 ; perimeter
G1 X-7.983 Y0.338 E0.13245 ; perimeter
G1 X-7.983 Y-0.338 E0.13248 ; perimeter
G1 X-7.926 Y-1.012 E0.13246 ; perimeter
G1 X-7.811 Y-1.68 E0.13295 ; perimeter
G1 X-7.649 Y-2.312 E0.12783 ; perimeter
G1 X-7.435 Y-2.928 E0.12782 ; perimeter
G1 X-7.159 Y-3.548 E0.13292 ; perimeter
