; generated by SuperSlicer 2.5.59.13 on 2025-12-15 at 15:43:25 UTC

; 

; external perimeters extrusion width = 1.05mm
; perimeters extrusion width = 1.05mm
; infill extrusion width = 1.05mm
; solid infill extrusion width = 1.05mm
; top infill extrusion width = 1.05mm
; first layer extrusion width = 1.05mm

; object:{"name":"Test_base3mm_conic","id":"Test_base3mm_conic.stl id:0 copy 0","object_center":[-13.003743,0.000000,0.000000],"boundingbox_center":[-13.003743,0.000000,30.017147],"boundingbox_size":[46.813477,20.801426,60.034294]}
; Total objects to print: 1
M486 T1
; plater:{"center":[-13.003743,0.000000,0.000000],"boundingbox_center":[-13.003743,0.000000,30.017147],"boundingbox_size":[46.813477,20.801426,60.034294]}

M107 ; disable fan
M140 S65 ; set bed temperature
M104 S210 ; set temperature
;TYPE:Custom
; custom gcode: start_gcode
G28 ; home all axes
 M117 Purge extruder
 G92 E0 ; reset extruder
 G1 Z1.0 F3000 ; move z up little to prevent scratching of surface
 G1 X2 Y20 Z0.3 F5000.0 ; move to start-line position
 G1 X2 Y200.0 Z0.3 F1500.0 E15 ; draw 1st line
 G1 X2 Y200.0 Z0.4 F5000.0 ; move to side a little
 G1 X2 Y20 Z0.4 F1500.0 E30 ; draw 2nd line
 G92 E0 ; reset extruder
 G1 Z1.0 F3000 ; move z up little to prevent scratching of surface
; custom gcode end: start_gcode

M107 ; disable fan
G21 ; set units to millimeters
G90 ; use absolute coordinates
M83 ; use relative distances for extrusion
; custom gcode: start_filament_gcode
; Filament gcode
; custom gcode end: start_filament_gcode
M109 S210 ; set temperature and wait for it to be reached
M190 S65 ; set bed temperature and wait for it to be reached
;LAYER_CHANGE
;Z:0.49
;HEIGHT:0.49
; custom gcode: before_layer_gcode
;BEFORE_LAYER_CHANGE
;0.49
G92 E0
; custom gcode end: before_layer_gcode

G1 X150.000 Y150.000 Z0.200 E-1.90000
G1 X150.000 Y150.000 Z0.600
; custom gcode: layer_gcode
;AFTER_LAYER_CHANGE
;0.49
; custom gcode end: layer_gcode

G1 X150.000 Y150.000 Z1.090
; printing object Test_base3mm_conic.stl id:0 copy 0
M486 S0
M204 S500 ; adjust acceleration
G1 X149.041 Y149.960 Z0.990
G1 X148.083 Y149.919 Z0.890
G1 X147.124 Y149.879 Z0.790
G1 X146.165 Y149.839 Z0.690
G1 X145.206 Y149.798 Z0.600
G1 X144.248 Y149.758 Z0.600
G1 X143.289 Y149.717 Z0.600
G1 X142.330 Y149.677 Z0.600
G1 X142.330 Y149.677 Z0.600
G1 X142.330 Y149.677 Z0.600 E1.90000
;TYPE:Internal perimeter
;WIDTH:1.05
M107 ; disable fan
G1 F600
G1 X142.384 Y149.035 Z0.600 E0.12917
G1 X142.493 Y148.398 Z0.600 E0.12934
G1 X142.651 Y147.780 Z0.600 E0.12766
G1 X142.861 Y147.179 Z0.600 E0.12766
G1 X143.123 Y146.588 Z0.600 E0.12933
G1 X143.434 Y146.023 Z0.600 E0.12914
G1 X143.791 Y145.486 Z0.600 E0.12922
G1 X144.187 Y144.985 Z0.600 E0.12775
G1 X144.624 Y144.520 Z0.600 E0.12782
G1 X145.107 Y144.084 Z0.600 E0.13025
G1 X145.619 Y143.696 Z0.600 E0.12859
G1 X146.162 Y143.352 Z0.600 E0.12875
G1 X146.732 Y143.054 Z0.600 E0.12874
G1 X147.324 Y142.805 Z0.600 E0.12874
G1 X147.935 Y142.606 Z0.600 E0.12875
G1 X148.561 Y142.459 Z0.600 E0.12874
G1 X149.191 Y142.367 Z0.600 E0.12735
G1 X149.993 Y142.328 Z0.600 E0.16083
G1 X150.482 Y142.339 Z0.600 E0.09795
G1 X151.122 Y142.405 Z0.600 E0.12875
G1 X151.753 Y142.526 Z0.600 E0.12874
G1 X152.372 Y142.699 Z0.600 E0.12874
G1 X152.975 Y142.923 Z0.600 E0.12874
G1 X153.557 Y143.197 Z0.600 E0.12875
G1 X154.113 Y143.518 Z0.600 E0.12874
G1 X154.641 Y143.885 Z0.600 E0.12875
G1 X155.137 Y144.295 Z0.600 E0.12873
G1 X155.596 Y144.745 Z0.600 E0.12875
G1 X156.017 Y145.231 Z0.600 E0.12874
G1 X156.394 Y145.752 Z0.600 E0.12874
G1 X156.727 Y146.302 Z0.600 E0.12875
G1 X157.013 Y146.878 Z0.600 E0.12874
G1 X157.250 Y147.476 Z0.600 E0.12875
G1 X157.435 Y148.091 Z0.600 E0.12873
G1 X157.569 Y148.720 Z0.600 E0.12875
G1 X157.650 Y149.358 Z0.600 E0.12874
G1 X157.677 Y150.000 Z0.600 E0.12874
G1 X157.650 Y150.642 Z0.600 E0.12875
G1 X157.569 Y151.280 Z0.600 E0.12874
G1 X157.435 Y151.909 Z0.600 E0.12874
G1 X157.250 Y152.524 Z0.600 E0.12874
G1 X157.013 Y153.122 Z0.600 E0.12875
G1 X156.727 Y153.698 Z0.600 E0.12874
G1 X156.394 Y154.248 Z0.600 E0.12874
G1 X156.017 Y154.769 Z0.600 E0.12875
G1 X155.596 Y155.255 Z0.600 E0.12874
G1 X155.137 Y155.705 Z0.600 E0.12874
G1 X154.641 Y156.115 Z0.600 E0.12874
G1 X154.113 Y156.482 Z0.600 E0.12875
G1 X153.557 Y156.803 Z0.600 E0.12874
G1 X152.975 Y157.077 Z0.600 E0.12875
G1 X152.372 Y157.301 Z0.600 E0.12874
G1 X151.753 Y157.474 Z0.600 E0.12874
G1 X151.122 Y157.595 Z0.600 E0.12874
G1 X150.482 Y157.661 Z0.600 E0.12874
G1 X149.839 Y157.675 Z0.600 E0.12875
G1 X149.197 Y157.634 Z0.600 E0.12874
G1 X148.561 Y157.541 Z0.600 E0.12874
G1 X147.935 Y157.394 Z0.600 E0.12874
G1 X147.324 Y157.195 Z0.600 E0.12875
G1 X146.732 Y156.946 Z0.600 E0.12874
G1 X146.162 Y156.648 Z0.600 E0.12874
G1 X145.619 Y156.304 Z0.600 E0.12875
G1 X145.106 Y155.915 Z0.600 E0.12874
G1 X144.628 Y155.485 Z0.600 E0.12878
G1 X144.192 Y155.020 Z0.600 E0.12778
G1 X143.790 Y154.514 Z0.600 E0.12922
G1 X143.434 Y153.977 Z0.600 E0.12912
G1 X143.123 Y153.412 Z0.600 E0.12914
G1 X142.861 Y152.821 Z0.600 E0.12932
G1 X142.651 Y152.220 Z0.600 E0.12766
G1 X142.493 Y151.602 Z0.600 E0.12767
G1 X142.384 Y150.965 Z0.600 E0.12933
G1 X142.330 Y150.323 Z0.600 E0.12917
G1 X142.330 Y149.821 Z0.600 E0.10030
M107 ; disable fan
G1 X141.422 Y149.640 Z0.600
M107 ; disable fan
G1 F600
G1 X141.482 Y148.921 Z0.600 E0.14448
G1 X141.603 Y148.208 Z0.600 E0.14457
G1 X141.781 Y147.518 Z0.600 E0.14283
G1 X142.016 Y146.844 Z0.600 E0.14285
G1 X142.309 Y146.184 Z0.600 E0.14457
G1 X142.656 Y145.552 Z0.600 E0.14444
G1 X143.056 Y144.951 Z0.600 E0.14448
G1 X143.499 Y144.392 Z0.600 E0.14295
G1 X143.987 Y143.871 Z0.600 E0.14301
G1 X144.528 Y143.385 Z0.600 E0.14552
G1 X145.099 Y142.950 Z0.600 E0.14389
G1 X145.707 Y142.565 Z0.600 E0.14399
G1 X146.344 Y142.231 Z0.600 E0.14399
G1 X147.008 Y141.952 Z0.600 E0.14399
G1 X147.691 Y141.730 Z0.600 E0.14399
G1 X148.391 Y141.566 Z0.600 E0.14398
G1 X149.102 Y141.461 Z0.600 E0.14399
G1 X149.981 Y141.420 Z0.600 E0.17608
G1 X150.539 Y141.431 Z0.600 E0.11180
G1 X151.254 Y141.506 Z0.600 E0.14399
G1 X151.961 Y141.641 Z0.600 E0.14399
G1 X152.653 Y141.834 Z0.600 E0.14399
G1 X153.327 Y142.085 Z0.600 E0.14398
G1 X153.978 Y142.392 Z0.600 E0.14400
G1 X154.601 Y142.751 Z0.600 E0.14398
G1 X155.191 Y143.162 Z0.600 E0.14399
G1 X155.745 Y143.619 Z0.600 E0.14398
G1 X156.259 Y144.123 Z0.600 E0.14400
G1 X156.729 Y144.667 Z0.600 E0.14398
G1 X157.152 Y145.248 Z0.600 E0.14399
G1 X157.524 Y145.864 Z0.600 E0.14399
G1 X157.844 Y146.508 Z0.600 E0.14399
G1 X158.108 Y147.177 Z0.600 E0.14398
G1 X158.316 Y147.865 Z0.600 E0.14399
G1 X158.466 Y148.568 Z0.600 E0.14399
G1 X158.556 Y149.282 Z0.600 E0.14399
G1 X158.586 Y150.000 Z0.600 E0.14398
G1 X158.556 Y150.718 Z0.600 E0.14399
G1 X158.466 Y151.432 Z0.600 E0.14399
G1 X158.316 Y152.135 Z0.600 E0.14399
G1 X158.108 Y152.823 Z0.600 E0.14398
G1 X157.844 Y153.492 Z0.600 E0.14399
G1 X157.524 Y154.136 Z0.600 E0.14399
G1 X157.152 Y154.752 Z0.600 E0.14399
G1 X156.729 Y155.333 Z0.600 E0.14399
G1 X156.259 Y155.877 Z0.600 E0.14398
G1 X155.745 Y156.381 Z0.600 E0.14399
G1 X155.191 Y156.838 Z0.600 E0.14399
G1 X154.601 Y157.249 Z0.600 E0.14399
G1 X153.978 Y157.608 Z0.600 E0.14398
G1 X153.327 Y157.915 Z0.600 E0.14400
G1 X152.653 Y158.166 Z0.600 E0.14398
G1 X151.961 Y158.359 Z0.600 E0.14399
G1 X151.254 Y158.494 Z0.600 E0.14398
G1 X150.539 Y158.569 Z0.600 E0.14400
G1 X149.820 Y158.584 Z0.600 E0.14398
G1 X149.102 Y158.539 Z0.600 E0.14399
G1 X148.391 Y158.434 Z0.600 E0.14399
G1 X147.691 Y158.270 Z0.600 E0.14398
G1 X147.008 Y158.048 Z0.600 E0.14399
G1 X146.344 Y157.769 Z0.600 E0.14399
G1 X145.707 Y157.435 Z0.600 E0.14399
G1 X145.099 Y157.050 Z0.600 E0.14399
G1 X144.528 Y156.615 Z0.600 E0.14398
G1 X143.993 Y156.134 Z0.600 E0.14401
G1 X143.504 Y155.614 Z0.600 E0.14299
G1 X143.056 Y155.049 Z0.600 E0.14446
G1 X142.656 Y154.448 Z0.600 E0.14441
G1 X142.309 Y153.816 Z0.600 E0.14445
G1 X142.016 Y153.156 Z0.600 E0.14457
G1 X141.781 Y152.482 Z0.600 E0.14284
G1 X141.603 Y151.792 Z0.600 E0.14283
G1 X141.482 Y151.079 Z0.600 E0.14457
G1 X141.422 Y150.360 Z0.600 E0.14448
G1 X141.422 Y149.784 Z0.600 E0.11561
M107 ; disable fan
G1 X140.513 Y149.601 Z0.600
;TYPE:External perimeter
M107 ; disable fan
G1 F600
G1 X140.581 Y148.806 Z0.600 E0.15979
G1 X140.714 Y148.019 Z0.600 E0.15980
G1 X140.910 Y147.255 Z0.600 E0.15801
G1 X141.170 Y146.510 Z0.600 E0.15802
G1 X141.495 Y145.780 Z0.600 E0.15981
G1 X141.878 Y145.081 Z0.600 E0.15975
G1 X142.320 Y144.417 Z0.600 E0.15974
G1 X142.811 Y143.798 Z0.600 E0.15815
G1 X143.351 Y143.222 Z0.600 E0.15819
G1 X143.948 Y142.684 Z0.600 E0.16079
G1 X144.581 Y142.203 Z0.600 E0.15920
G1 X145.252 Y141.777 Z0.600 E0.15924
G1 X145.957 Y141.409 Z0.600 E0.15923
G1 X146.690 Y141.101 Z0.600 E0.15923
G1 X147.447 Y140.855 Z0.600 E0.15924
G1 X148.221 Y140.673 Z0.600 E0.15923
G1 X149.007 Y140.558 Z0.600 E0.15923
G1 X149.801 Y140.508 Z0.600 E0.15923
G1 X150.000 Y140.511 Z0.600 E0.03981
G1 X150.596 Y140.524 Z0.600 E0.11942
G1 X151.387 Y140.607 Z0.600 E0.15924
G1 X152.169 Y140.756 Z0.600 E0.15923
G1 X152.934 Y140.970 Z0.600 E0.15923
G1 X153.680 Y141.247 Z0.600 E0.15924
G1 X154.399 Y141.585 Z0.600 E0.15923
G1 X155.088 Y141.983 Z0.600 E0.15923
G1 X155.741 Y142.437 Z0.600 E0.15924
G1 X156.353 Y142.944 Z0.600 E0.15922
G1 X156.921 Y143.500 Z0.600 E0.15924
G1 X157.441 Y144.103 Z0.600 E0.15923
G1 X157.908 Y144.746 Z0.600 E0.15923
G1 X158.321 Y145.425 Z0.600 E0.15924
G1 X158.674 Y146.138 Z0.600 E0.15923
G1 X158.967 Y146.878 Z0.600 E0.15923
G1 X159.196 Y147.639 Z0.600 E0.15924
G1 X159.362 Y148.417 Z0.600 E0.15922
G1 X159.462 Y149.205 Z0.600 E0.15924
G1 X159.495 Y150.000 Z0.600 E0.15923
G1 X159.462 Y150.795 Z0.600 E0.15923
G1 X159.362 Y151.583 Z0.600 E0.15924
G1 X159.196 Y152.361 Z0.600 E0.15923
G1 X158.967 Y153.122 Z0.600 E0.15923
G1 X158.674 Y153.862 Z0.600 E0.15923
G1 X158.321 Y154.575 Z0.600 E0.15924
G1 X157.908 Y155.254 Z0.600 E0.15923
G1 X157.441 Y155.897 Z0.600 E0.15923
G1 X156.921 Y156.500 Z0.600 E0.15924
G1 X156.353 Y157.056 Z0.600 E0.15923
G1 X155.741 Y157.563 Z0.600 E0.15923
G1 X155.088 Y158.017 Z0.600 E0.15924
G1 X154.399 Y158.415 Z0.600 E0.15922
G1 X153.680 Y158.753 Z0.600 E0.15924
G1 X152.934 Y159.030 Z0.600 E0.15923
G1 X152.169 Y159.244 Z0.600 E0.15924
G1 X151.387 Y159.393 Z0.600 E0.15923
G1 X150.596 Y159.476 Z0.600 E0.15923
G1 X149.801 Y159.492 Z0.600 E0.15923
G1 X149.007 Y159.442 Z0.600 E0.15924
G1 X148.221 Y159.327 Z0.600 E0.15923
G1 X147.447 Y159.145 Z0.600 E0.15923
G1 X146.690 Y158.899 Z0.600 E0.15924
G1 X145.957 Y158.591 Z0.600 E0.15923
G1 X145.252 Y158.223 Z0.600 E0.15923
G1 X144.581 Y157.797 Z0.600 E0.15923
G1 X143.948 Y157.316 Z0.600 E0.15924
G1 X143.357 Y156.784 Z0.600 E0.15923
G1 X142.816 Y156.208 Z0.600 E0.15819
G1 X142.320 Y155.583 Z0.600 E0.15970
G1 X141.878 Y154.919 Z0.600 E0.15971
G1 X141.495 Y154.220 Z0.600 E0.15975
G1 X141.170 Y153.490 Z0.600 E0.15982
G1 X140.910 Y152.745 Z0.600 E0.15802
G1 X140.714 Y151.981 Z0.600 E0.15801
G1 X140.581 Y151.194 Z0.600 E0.15980
G1 X140.513 Y150.399 Z0.600 E0.15979
G1 X140.513 Y149.745 Z0.600 E0.13091
M107 ; disable fan
;WIPE_START
M204 S1000 ; adjust acceleration
G1 X141.017 Y149.346 Z0.600
;WIPE_END
;WIPE_START
G1 F6240
G1 X141.057 Y148.867 Z0.600 E-0.16031
G1 X141.184 Y148.119 Z0.600 E-0.25204
G1 X141.371 Y147.394 Z0.600 E-0.24911
G1 X141.618 Y146.687 Z0.600 E-0.24913
G1 X141.925 Y145.994 Z0.600 E-0.25206
G1 X142.290 Y145.330 Z0.600 E-0.25189
G1 X142.710 Y144.700 Z0.600 E-0.25191
G1 X142.968 Y144.373 Z0.600 E-0.13855
;WIPE_END
G1 X142.968 Y144.373 Z0.600 E-0.09500
G1 X142.968 Y144.373 Z0.600
; acceleration to travel
M204 S1500 ; adjust acceleration
G1 X143.910 Y144.542 Z0.600
G1 X144.851 Y144.710 Z0.600
G1 X145.792 Y144.879 Z0.600
G1 X146.734 Y145.048 Z0.600
G1 X147.675 Y145.216 Z0.600
G1 X148.616 Y145.385 Z0.600
G1 X149.557 Y145.554 Z0.625
G1 X150.499 Y145.723 Z0.641
G1 X151.440 Y145.891 Z0.636
G1 X152.381 Y146.060 Z0.610
G1 X153.323 Y146.229 Z0.600
G1 X154.264 Y146.398 Z0.600
G1 X155.205 Y146.566 Z0.600
; decel to extrusion
M204 S500 ; adjust acceleration
G1 X155.944 Y146.699 Z0.600
G1 X156.683 Y146.831 Z0.600
; end travel
G1 X156.683 Y146.831 Z0.600
G1 X156.683 Y146.831 Z0.600 E1.90000
;TYPE:Solid infill
;WIDTH:0.989193
M107 ; disable fan
G1 F600
G1 X156.155 Y146.303 Z0.600 E1.56587
G1 X155.627 Y145.775 Z0.600 E1.23175
G1 X155.099 Y145.247 Z0.600 E0.89762
G1 X154.571 Y144.719 Z0.600 E0.56350
G1 X154.226 Y144.433 Z0.600 E0.08453
G1 X153.745 Y144.099 Z0.600 E0.11042
G1 X153.238 Y143.807 Z0.600 E0.11041
G1 X152.708 Y143.557 Z0.600 E0.11043
G1 X152.160 Y143.353 Z0.600 E0.11042
G1 X151.729 Y143.233 Z0.600 E0.08435
G1 X152.360 Y143.863 Z0.600 E0.24199
G1 X152.990 Y144.494 Z0.600 E0.39964
G1 X153.620 Y145.124 Z0.600 E0.55728
G1 X154.251 Y145.755 Z0.600 E0.71493
G1 X154.881 Y146.385 Z0.600 E0.87257
G1 X155.511 Y147.016 Z0.600 E1.03021
G1 X156.142 Y147.646 Z0.600 E1.18786
G1 X156.772 Y148.276 Z0.600 E1.34550
G1 X156.891 Y148.834 Z0.600 E0.10764
G1 X156.964 Y149.416 Z0.600 E0.11042
G1 X156.983 Y149.842 Z0.600 E0.08061
G1 X156.364 Y149.223 Z0.600 E0.23844
G1 X155.744 Y148.604 Z0.600 E0.39626
G1 X155.125 Y147.985 Z0.600 E0.55409
G1 X154.506 Y147.366 Z0.600 E0.71192
G1 X153.887 Y146.747 Z0.600 E0.86974
G1 X153.268 Y146.128 Z0.600 E1.02757
G1 X152.649 Y145.509 Z0.600 E1.18539
G1 X152.030 Y144.890 Z0.600 E1.34322
G1 X151.411 Y144.271 Z0.600 E1.50105
G1 X150.792 Y143.652 Z0.600 E1.65887
G1 X150.173 Y143.033 Z0.600 E1.81670
G1 X149.248 Y143.052 Z0.600 E0.17438
G1 X148.890 Y143.106 Z0.600 E0.06842
G1 X149.557 Y143.773 Z0.600 E0.24075
G1 X150.224 Y144.440 Z0.600 E0.41308
G1 X150.892 Y145.108 Z0.600 E0.58541
G1 X151.559 Y145.775 Z0.600 E0.75774
G1 X152.227 Y146.442 Z0.600 E0.93007
G1 X152.894 Y147.109 Z0.600 E1.10240
G1 X153.561 Y147.777 Z0.600 E1.27473
G1 X154.229 Y148.444 Z0.600 E1.44706
G1 X154.896 Y149.111 Z0.600 E1.61939
G1 X155.563 Y149.779 Z0.600 E1.79172
G1 X156.231 Y150.446 Z0.600 E1.96405
G1 X156.898 Y151.113 Z0.600 E2.13638
G1 X156.769 Y151.738 Z0.600 E0.12030
G1 X156.630 Y152.201 Z0.600 E0.09126
G1 X155.951 Y151.522 Z0.600 E0.26542
G1 X155.271 Y150.843 Z0.600 E0.43958
G1 X154.592 Y150.164 Z0.600 E0.61374
G1 X153.913 Y149.485 Z0.600 E0.78791
G1 X153.234 Y148.805 Z0.600 E0.96207
G1 X152.555 Y148.126 Z0.600 E1.13623
G1 X151.876 Y147.447 Z0.600 E1.31039
G1 X151.196 Y146.768 Z0.600 E1.48455
G1 X150.517 Y146.089 Z0.600 E1.65871
G1 X149.838 Y145.410 Z0.600 E1.83288
G1 X149.159 Y144.730 Z0.600 E2.00704
G1 X148.480 Y144.051 Z0.600 E2.18120
G1 X147.801 Y143.372 Z0.600 E2.35536
G1 X147.564 Y143.449 Z0.600 E0.04701
G1 X147.024 Y143.676 Z0.600 E0.11041
G1 X146.843 Y143.771 Z0.600 E0.03852
G1 X147.514 Y144.441 Z0.600 E0.21462
G1 X148.184 Y145.112 Z0.600 E0.39072
G1 X148.854 Y145.782 Z0.600 E0.56682
G1 X149.525 Y146.453 Z0.600 E0.74292
G1 X150.195 Y147.123 Z0.600 E0.91902
G1 X150.866 Y147.793 Z0.600 E1.09512
G1 X151.536 Y148.464 Z0.600 E1.27122
G1 X152.207 Y149.134 Z0.600 E1.44732
G1 X152.877 Y149.805 Z0.600 E1.62342
G1 X153.547 Y150.475 Z0.600 E1.79952
G1 X154.218 Y151.146 Z0.600 E1.97562
G1 X154.888 Y151.816 Z0.600 E2.15172
G1 X155.559 Y152.486 Z0.600 E2.32782
G1 X156.229 Y153.157 Z0.600 E2.50392
G1 X156.124 Y153.367 Z0.600 E0.04433
G1 X155.721 Y154.005 Z0.600 E0.14235
G1 X155.073 Y153.356 Z0.600 E0.30590
G1 X154.424 Y152.707 Z0.600 E0.46945
G1 X153.776 Y152.059 Z0.600 E0.63300
G1 X153.127 Y151.410 Z0.600 E0.79656
G1 X152.478 Y150.762 Z0.600 E0.96011
G1 X151.830 Y150.113 Z0.600 E1.12366
G1 X151.181 Y149.464 Z0.600 E1.28721
G1 X150.533 Y148.816 Z0.600 E1.45076
G1 X149.884 Y148.167 Z0.600 E1.61431
G1 X149.235 Y147.519 Z0.600 E1.77786
G1 X148.587 Y146.870 Z0.600 E1.94141
G1 X147.938 Y146.221 Z0.600 E2.10497
G1 X147.290 Y145.573 Z0.600 E2.26852
G1 X146.641 Y144.924 Z0.600 E2.43207
G1 X145.992 Y144.276 Z0.600 E2.59562
G1 X145.546 Y144.614 Z0.600 E0.10570
G1 X145.246 Y144.885 Z0.600 E0.07624
G1 X145.904 Y145.543 Z0.600 E0.24674
G1 X146.562 Y146.201 Z0.600 E0.41724
G1 X147.220 Y146.860 Z0.600 E0.58775
G1 X147.878 Y147.518 Z0.600 E0.75825
G1 X148.536 Y148.176 Z0.600 E0.92875
G1 X149.194 Y148.834 Z0.600 E1.09925
G1 X149.853 Y149.492 Z0.600 E1.26975
