; generated by SuperSlicer 2.5.59.13 on 2025-12-15 at 15:53:49 UTC

; 

; external perimeters extrusion width = 1.05mm
; perimeters extrusion width = 1.05mm
; infill extrusion width = 1.05mm
; solid infill extrusion width = 1.05mm
; top infill extrusion width = 1.05mm
; first layer extrusion width = 1.05mm

; object:{"name":"Test_base3mm_conic","id":"Test_base3mm_conic.stl id:0 copy 0","object_center":[-13.003743,0.000000,0.000000],"boundingbox_center":[-13.003743,0.000000,30.017147],"boundingbox_size":[46.813477,20.801426,60.034294]}
; Total objects to print: 1
M486 T1
; plater:{"center":[-13.003743,0.000000,0.000000],"boundingbox_center":[-13.003743,0.000000,30.017147],"boundingbox_size":[46.813477,20.801426,60.034294]}

M107 ; disable fan
M140 S65 ; set bed temperature
M104 S210 ; set temperature
;TYPE:Custom
; custom gcode: start_gcode
G28 ; home all axes
 M117 Purge extruder
 G92 E0 ; reset extruder
 G1 Z1.0 F3000 ; move z up little to prevent scratching of surface
 G1 X2 Y20 Z0.3 F5000.0 ; move to start-line position
 G1 X2 Y200.0 Z0.3 F1500.0 E15 ; draw 1st line
 G1 X2 Y200.0 Z0.4 F5000.0 ; move to side a little
 G1 X2 Y20 Z0.4 F1500.0 E30 ; draw 2nd line
 G92 E0 ; reset extruder
 G1 Z1.0 F3000 ; move z up little to prevent scratching of surface
; custom gcode end: start_gcode

M107 ; disable fan
G21 ; set units to millimeters
G90 ; use absolute coordinates
M83 ; use relative distances for extrusion
; custom gcode: start_filament_gcode
; Filament gcode
; custom gcode end: start_filament_gcode
M109 S210 ; set temperature and wait for it to be reached
M190 S65 ; set bed temperature and wait for it to be reached
;LAYER_CHANGE
;Z:0.6
;HEIGHT:0.6
; custom gcode: before_layer_gcode
;BEFORE_LAYER_CHANGE
;0.6
G92 E0
; custom gcode end: before_layer_gcode

G1 E-1.9 F2100 ; retract
G1 Z0.6 F7800 ; lift Z
; custom gcode: layer_gcode
;AFTER_LAYER_CHANGE
;0.6
; custom gcode end: layer_gcode

G1 Z1.2 ; lift Z
; printing object Test_base3mm_conic.stl id:0 copy 0
M486 S0
M204 S500 ; adjust acceleration
G1 X-7.197 Y-3.57 ; move to first perimeter point (minimum acceleration)
G1 Z0.6 ; restore layer Z
G1 E1.9 F2100 ; unretract
;TYPE:Internal perimeter
;WIDTH:1.05
M107 ; disable fan
G1 F600
G1 X-6.871 Y-4.162 E0.15521 ; perimeter
G1 X-6.497 Y-4.725 E0.15532 ; perimeter
G1 X-6.083 Y-5.247 E0.15316 ; perimeter
G1 X-5.627 Y-5.733 E0.15328 ; perimeter
G1 X-5.12 Y-6.19 E0.15679 ; perimeter
G1 X-4.585 Y-6.597 E0.15441 ; perimeter
G1 X-4.017 Y-6.957 E0.15461 ; perimeter
G1 X-3.421 Y-7.269 E0.15462 ; perimeter
G1 X-2.8 Y-7.53 E0.15461 ; perimeter
G1 X-2.16 Y-7.737 E0.15463 ; perimeter
G1 X-1.505 Y-7.891 E0.15461 ; perimeter
G1 X-0.84 Y-7.989 E0.15461 ; perimeter
G1 X-0.168 Y-8.032 E0.15462 ; perimeter
G1 X0.194 Y-8.024 E0.08328 ; perimeter
G1 X0.504 Y-8.018 E0.07133 ; perimeter
G1 X1.174 Y-7.947 E0.15462 ; perimeter
G1 X1.834 Y-7.821 E0.15461 ; perimeter
G1 X2.482 Y-7.64 E0.15462 ; perimeter
G1 X3.113 Y-7.406 E0.15462 ; perimeter
G1 X3.722 Y-7.119 E0.15461 ; perimeter
G1 X4.304 Y-6.783 E0.15461 ; perimeter
G1 X4.857 Y-6.399 E0.15462 ; perimeter
G1 X5.375 Y-5.97 E0.15461 ; perimeter
G1 X5.856 Y-5.499 E0.15462 ; perimeter
G1 X6.296 Y-4.99 E0.15462 ; perimeter
G1 X6.691 Y-4.446 E0.15461 ; perimeter
G1 X7.04 Y-3.87 E0.15461 ; perimeter
G1 X7.339 Y-3.268 E0.15462 ; perimeter
G1 X7.587 Y-2.642 E0.15462 ; perimeter
G1 X7.781 Y-1.998 E0.15461 ; perimeter
G1 X7.921 Y-1.34 E0.15462 ; perimeter
G1 X8.005 Y-0.672 E0.15461 ; perimeter
G1 X8.033 Y0.000000 E0.15462 ; perimeter
G1 X8.005 Y0.672 E0.15461 ; perimeter
G1 X7.921 Y1.34 E0.15462 ; perimeter
G1 X7.781 Y1.998 E0.15461 ; perimeter
G1 X7.587 Y2.642 E0.15462 ; perimeter
G1 X7.339 Y3.268 E0.15461 ; perimeter
G1 X7.04 Y3.87 E0.15462 ; perimeter
G1 X6.691 Y4.446 E0.15461 ; perimeter
G1 X6.296 Y4.99 E0.15462 ; perimeter
G1 X5.856 Y5.499 E0.15461 ; perimeter
G1 X5.375 Y5.97 E0.15462 ; perimeter
G1 X4.857 Y6.399 E0.15461 ; perimeter
G1 X4.304 Y6.783 E0.15462 ; perimeter
G1 X3.722 Y7.119 E0.15462 ; perimeter
G1 X3.113 Y7.406 E0.15461 ; perimeter
G1 X2.482 Y7.64 E0.15462 ; perimeter
G1 X1.834 Y7.821 E0.15461 ; perimeter
G1 X1.174 Y7.947 E0.15461 ; perimeter
G1 X0.504 Y8.018 E0.15462 ; perimeter
G1 X-0.168 Y8.032 E0.15462 ; perimeter
G1 X-0.84 Y7.989 E0.15462 ; perimeter
G1 X-1.505 Y7.891 E0.15461 ; perimeter
G1 X-2.16 Y7.737 E0.15461 ; perimeter
G1 X-2.8 Y7.53 E0.15462 ; perimeter
G1 X-3.421 Y7.269 E0.15461 ; perimeter
G1 X-4.017 Y6.957 E0.15462 ; perimeter
G1 X-4.585 Y6.597 E0.15461 ; perimeter
G1 X-5.121 Y6.19 E0.15462 ; perimeter
G1 X-5.621 Y5.739 E0.15467 ; perimeter
G1 X-6.077 Y5.254 E0.15321 ; perimeter
G1 X-6.498 Y4.724 E0.15531 ; perimeter
G1 X-6.871 Y4.162 E0.15516 ; perimeter
G1 X-7.197 Y3.57 E0.15521 ; perimeter
G1 X-7.471 Y2.952 E0.15546 ; perimeter
G1 X-7.69 Y2.323 E0.15303 ; perimeter
G1 X-7.856 Y1.678 E0.15303 ; perimeter
G1 X-7.969 Y1.011 E0.15548 ; perimeter
G1 X-8.026 Y0.338 E0.15524 ; perimeter
G1 X-8.026 Y-0.338 E0.15525 ; perimeter
G1 X-7.969 Y-1.011 E0.15525 ; perimeter
G1 X-7.856 Y-1.678 E0.15548 ; perimeter
G1 X-7.69 Y-2.323 E0.15303 ; perimeter
G1 X-7.471 Y-2.952 E0.15303 ; perimeter
G1 X-7.258 Y-3.433 E0.12099 ; perimeter
M107 ; disable fan
G1 X-8.023 Y-3.98 F7800 ; move to first perimeter point (minimum acceleration)
M107 ; disable fan
G1 F600
G1 X-7.66 Y-4.64 E0.17303 ; perimeter
G1 X-7.243 Y-5.267 E0.17309 ; perimeter
G1 X-6.781 Y-5.849 E0.17084 ; perimeter
G1 X-6.272 Y-6.392 E0.17094 ; perimeter
G1 X-5.708 Y-6.901 E0.17458 ; perimeter
G1 X-5.111 Y-7.354 E0.17224 ; perimeter
G1 X-4.478 Y-7.756 E0.17236 ; perimeter
G1 X-3.813 Y-8.103 E0.17236 ; perimeter
G1 X-3.122 Y-8.394 E0.17236 ; perimeter
G1 X-2.408 Y-8.626 E0.17236 ; perimeter
G1 X-1.678 Y-8.797 E0.17236 ; perimeter
G1 X-0.936 Y-8.906 E0.17236 ; perimeter
G1 X-0.188 Y-8.954 E0.17237 ; perimeter
G1 X0.213 Y-8.945 E0.09215 ; perimeter
G1 X0.562 Y-8.938 E0.08021 ; perimeter
G1 X1.308 Y-8.859 E0.17236 ; perimeter
G1 X2.045 Y-8.719 E0.17236 ; perimeter
G1 X2.767 Y-8.517 E0.17236 ; perimeter
G1 X3.47 Y-8.256 E0.17236 ; perimeter
G1 X4.149 Y-7.936 E0.17236 ; perimeter
G1 X4.799 Y-7.561 E0.17236 ; perimeter
G1 X5.414 Y-7.133 E0.17237 ; perimeter
G1 X5.992 Y-6.655 E0.17235 ; perimeter
G1 X6.528 Y-6.13 E0.17237 ; perimeter
G1 X7.018 Y-5.563 E0.17236 ; perimeter
G1 X7.459 Y-4.956 E0.17236 ; perimeter
G1 X7.848 Y-4.314 E0.17236 ; perimeter
G1 X8.181 Y-3.643 E0.17237 ; perimeter
G1 X8.457 Y-2.945 E0.17235 ; perimeter
G1 X8.674 Y-2.227 E0.17237 ; perimeter
G1 X8.83 Y-1.493 E0.17236 ; perimeter
G1 X8.924 Y-0.749 E0.17236 ; perimeter
G1 X8.955 Y0.000000 E0.17236 ; perimeter
G1 X8.924 Y0.749 E0.17236 ; perimeter
G1 X8.83 Y1.493 E0.17236 ; perimeter
G1 X8.674 Y2.227 E0.17236 ; perimeter
G1 X8.457 Y2.945 E0.17237 ; perimeter
G1 X8.181 Y3.643 E0.17236 ; perimeter
G1 X7.848 Y4.314 E0.17236 ; perimeter
G1 X7.459 Y4.956 E0.17236 ; perimeter
G1 X7.018 Y5.563 E0.17236 ; perimeter
G1 X6.528 Y6.13 E0.17236 ; perimeter
G1 X5.992 Y6.655 E0.17237 ; perimeter
G1 X5.414 Y7.133 E0.17235 ; perimeter
G1 X4.799 Y7.561 E0.17237 ; perimeter
G1 X4.149 Y7.936 E0.17236 ; perimeter
G1 X3.47 Y8.256 E0.17236 ; perimeter
G1 X2.767 Y8.517 E0.17236 ; perimeter
G1 X2.045 Y8.719 E0.17236 ; perimeter
G1 X1.308 Y8.859 E0.17236 ; perimeter
G1 X0.562 Y8.938 E0.17237 ; perimeter
G1 X-0.188 Y8.954 E0.17236 ; perimeter
G1 X-0.936 Y8.906 E0.17236 ; perimeter
G1 X-1.678 Y8.797 E0.17236 ; perimeter
G1 X-2.408 Y8.626 E0.17236 ; perimeter
G1 X-3.122 Y8.394 E0.17237 ; perimeter
G1 X-3.813 Y8.103 E0.17235 ; perimeter
G1 X-4.478 Y7.756 E0.17237 ; perimeter
G1 X-5.111 Y7.354 E0.17236 ; perimeter
G1 X-5.709 Y6.9 E0.17236 ; perimeter
G1 X-6.266 Y6.398 E0.17239 ; perimeter
G1 X-6.775 Y5.856 E0.17089 ; perimeter
G1 X-7.243 Y5.266 E0.17306 ; perimeter
G1 X-7.66 Y4.64 E0.17298 ; perimeter
G1 X-8.023 Y3.98 E0.17304 ; perimeter
G1 X-8.329 Y3.291 E0.17321 ; perimeter
G1 X-8.573 Y2.589 E0.17068 ; perimeter
G1 X-8.758 Y1.87 E0.17068 ; perimeter
G1 X-8.884 Y1.127 E0.1732 ; perimeter
G1 X-8.948 Y0.377 E0.17309 ; perimeter
G1 X-8.948 Y-0.377 E0.17308 ; perimeter
G1 X-8.884 Y-1.127 E0.17308 ; perimeter
G1 X-8.758 Y-1.87 E0.17321 ; perimeter
G1 X-8.573 Y-2.589 E0.17067 ; perimeter
G1 X-8.329 Y-3.291 E0.17069 ; perimeter
G1 X-8.084 Y-3.843 E0.13874 ; perimeter
M107 ; disable fan
G1 X-8.849 Y-4.389 F7800 ; move to first perimeter point (minimum acceleration)
;TYPE:External perimeter
M107 ; disable fan
G1 F600
G1 X-8.449 Y-5.117 E0.19087 ; perimeter
G1 X-7.989 Y-5.809 E0.19084 ; perimeter
G1 X-7.479 Y-6.452 E0.18852 ; perimeter
G1 X-6.918 Y-7.05 E0.1886 ; perimeter
G1 X-6.296 Y-7.611 E0.19237 ; perimeter
G1 X-5.637 Y-8.111 E0.19007 ; perimeter
G1 X-4.939 Y-8.554 E0.1901 ; perimeter
G1 X-4.206 Y-8.937 E0.19011 ; perimeter
G1 X-3.443 Y-9.258 E0.19011 ; perimeter
G1 X-2.656 Y-9.514 E0.19011 ; perimeter
G1 X-1.851 Y-9.703 E0.1901 ; perimeter
G1 X-1.033 Y-9.823 E0.19011 ; perimeter
G1 X-0.207 Y-9.875 E0.19011 ; perimeter
G1 X0.233 Y-9.866 E0.10102 ; perimeter
G1 X0.62 Y-9.858 E0.08908 ; perimeter
G1 X1.443 Y-9.772 E0.19012 ; perimeter
G1 X2.255 Y-9.617 E0.1901 ; perimeter
G1 X3.052 Y-9.394 E0.19011 ; perimeter
G1 X3.828 Y-9.106 E0.19011 ; perimeter
G1 X4.576 Y-8.754 E0.1901 ; perimeter
G1 X5.293 Y-8.34 E0.19011 ; perimeter
G1 X5.972 Y-7.868 E0.19011 ; perimeter
G1 X6.609 Y-7.34 E0.1901 ; perimeter
G1 X7.2 Y-6.762 E0.19012 ; perimeter
G1 X7.741 Y-6.135 E0.1901 ; perimeter
G1 X8.227 Y-5.466 E0.19011 ; perimeter
G1 X8.656 Y-4.759 E0.19011 ; perimeter
G1 X9.024 Y-4.018 E0.1901 ; perimeter
G1 X9.328 Y-3.248 E0.19011 ; perimeter
G1 X9.567 Y-2.456 E0.19011 ; perimeter
G1 X9.739 Y-1.647 E0.19011 ; perimeter
G1 X9.843 Y-0.827 E0.19011 ; perimeter
G1 X9.878 Y0.000000 E0.1901 ; perimeter
G1 X9.843 Y0.827 E0.19011 ; perimeter
G1 X9.739 Y1.647 E0.19011 ; perimeter
G1 X9.567 Y2.456 E0.1901 ; perimeter
G1 X9.328 Y3.248 E0.19011 ; perimeter
G1 X9.024 Y4.018 E0.19011 ; perimeter
G1 X8.656 Y4.759 E0.19011 ; perimeter
G1 X8.227 Y5.466 E0.1901 ; perimeter
G1 X7.741 Y6.135 E0.19011 ; perimeter
G1 X7.2 Y6.762 E0.19011 ; perimeter
G1 X6.609 Y7.34 E0.19011 ; perimeter
G1 X5.972 Y7.868 E0.1901 ; perimeter
G1 X5.293 Y8.34 E0.19011 ; perimeter
G1 X4.576 Y8.754 E0.19011 ; perimeter
G1 X3.828 Y9.106 E0.19011 ; perimeter
G1 X3.052 Y9.394 E0.1901 ; perimeter
G1 X2.256 Y9.617 E0.19011 ; perimeter
G1 X1.443 Y9.772 E0.19011 ; perimeter
G1 X0.62 Y9.858 E0.19011 ; perimeter
G1 X-0.207 Y9.875 E0.1901 ; perimeter
G1 X-1.033 Y9.823 E0.19011 ; perimeter
G1 X-1.851 Y9.703 E0.19011 ; perimeter
G1 X-2.656 Y9.514 E0.19011 ; perimeter
G1 X-3.443 Y9.258 E0.19011 ; perimeter
G1 X-4.206 Y8.937 E0.1901 ; perimeter
G1 X-4.939 Y8.554 E0.19011 ; perimeter
G1 X-5.637 Y8.111 E0.1901 ; perimeter
G1 X-6.296 Y7.611 E0.19011 ; perimeter
G1 X-6.911 Y7.057 E0.19012 ; perimeter
G1 X-7.473 Y6.459 E0.18857 ; perimeter
G1 X-7.989 Y5.809 E0.1908 ; perimeter
G1 X-8.449 Y5.117 E0.19081 ; perimeter
G1 X-8.849 Y4.389 E0.19087 ; perimeter
G1 X-9.186 Y3.63 E0.19095 ; perimeter
G1 X-9.456 Y2.856 E0.18835 ; perimeter
G1 X-9.66 Y2.062 E0.18831 ; perimeter
G1 X-9.799 Y1.243 E0.19094 ; perimeter
G1 X-9.869 Y0.415 E0.19091 ; perimeter
G1 X-9.869 Y-0.415 E0.19093 ; perimeter
G1 X-9.799 Y-1.243 E0.19092 ; perimeter
G1 X-9.66 Y-2.062 E0.19094 ; perimeter
G1 X-9.456 Y-2.856 E0.18831 ; perimeter
G1 X-9.186 Y-3.63 E0.18834 ; perimeter
G1 X-8.91 Y-4.252 E0.15649 ; perimeter
M107 ; disable fan
;WIPE_START
M204 S1000 ; adjust acceleration
G1 X-8.262 Y-4.418 F7800 ; move inwards before wipe
;WIPE_END
;WIPE_START
G1 F6240
G1 X-8.021 Y-4.858 E-0.16044 ; wipe and retract
G1 X-7.584 Y-5.515 E-0.25209 ; wipe and retract
G1 X-7.1 Y-6.125 E-0.24893 ; wipe and retract
G1 X-6.567 Y-6.693 E-0.24905 ; wipe and retract
G1 X-5.977 Y-7.225 E-0.2542 ; wipe and retract
G1 X-5.352 Y-7.7 E-0.25097 ; wipe and retract
G1 X-4.689 Y-8.121 E-0.25108 ; wipe and retract
G1 X-4.305 Y-8.321 E-0.13824 ; wipe and retract
;WIPE_END
G1 E-0.095 F2100 ; retract
G1 Z1.2 F7800 ; lift Z
; acceleration to travel
M204 S1500 ; adjust acceleration
G1 X2.452 Y-7.161 ; move to first Solid infill point (acceleration)
; decel to extrusion
M204 S500 ; adjust acceleration
G1 X3.267 Y-7.021 ; move to first Solid infill point (deceleration)
; end travel
G1 Z0.6 ; restore layer Z
G1 E1.9 F2100 ; unretract
;TYPE:Solid infill
M107 ; disable fan
G1 F600
G1 X5.507 Y-4.781 E0.72781 ; Solid infill
G1 X5.72 Y-4.534 E0.07511 ; Solid infill
G1 X6.08 Y-4.039 E0.14048 ; Solid infill
G1 X6.396 Y-3.516 E0.14048 ; Solid infill
G1 X6.668 Y-2.969 E0.14048 ; Solid infill
G1 X6.893 Y-2.4 E0.14049 ; Solid infill
G1 X7.091 Y-1.713 E0.16432 ; Solid infill
G1 X1.711 Y-7.094 E1.74863 ; Solid infill
G1 X1.076 Y-7.219 E0.14876 ; Solid infill
G1 X0.178 Y-7.289 E0.20705 ; Solid infill
G1 X0.037 Y-7.285 E0.03232 ; Solid infill
G1 X7.298 Y-0.024 E2.3598 ; Solid infill
G1 X7.274 Y0.611 E0.1459 ; Solid infill
G1 X7.172 Y1.334 E0.16771 ; Solid infill
G1 X-1.336 Y-7.175 E2.76506 ; Solid infill
G1 X-1.963 Y-7.03 E0.14786 ; Solid infill
G1 X-2.5 Y-6.856 E0.12981 ; Solid infill
G1 X6.854 Y2.499 E3.04008 ; Solid infill
G1 X6.668 Y2.969 E0.11621 ; Solid infill
G1 X6.393 Y3.521 E0.14172 ; Solid infill
G1 X-3.518 Y-6.39 E3.22105 ; Solid infill
G1 X-4.166 Y-5.994 E0.17459 ; Solid infill
G1 X-4.415 Y-5.804 E0.07192 ; Solid infill
G1 X5.806 Y4.416 E3.32166 ; Solid infill
G1 X5.321 Y4.997 E0.17377 ; Solid infill
G1 X5.11 Y5.203 E0.06792 ; Solid infill
G1 X-5.205 Y-5.111 E3.35209 ; Solid infill
G1 X-5.527 Y-4.767 E0.1083 ; Solid infill
G1 X-5.888 Y-4.312 E0.13364 ; Solid infill
G1 X4.309 Y5.886 E3.31416 ; Solid infill
G1 X3.911 Y6.163 E0.11145 ; Solid infill
G1 X3.399 Y6.459 E0.13595 ; Solid infill
G1 X-6.455 Y-3.395 E3.20249 ; Solid infill
G1 X-6.789 Y-2.682 E0.18099 ; Solid infill
G1 X-6.901 Y-2.358 E0.07875 ; Solid infill
G1 X2.36 Y6.903 E3.0098 ; Solid infill
G1 X1.667 Y7.106 E0.16602 ; Solid infill
G1 X1.174 Y7.2 E0.11525 ; Solid infill
G1 X-7.198 Y-1.172 E2.72085 ; Solid infill
G1 X-7.241 Y-0.918 E0.05905 ; Solid infill
G1 X-7.293 Y-0.307 E0.14104 ; Solid infill
G1 X-7.293 Y0.217 E0.1203 ; Solid infill
G1 X-0.216 Y7.294 E2.29995 ; Solid infill
G1 X-0.763 Y7.259 E0.12603 ; Solid infill
G1 X-1.368 Y7.17 E0.14048 ; Solid infill
G1 X-1.962 Y7.03 E0.14024 ; Solid infill
G1 X-7.622 Y1.371 E1.83933 ; Solid infill
M107 ; disable fan
M106 S127.5 ; set fan for new extruder
;LAYER_CHANGE
;Z:1.1
;HEIGHT:0.5
; custom gcode: before_layer_gcode
;BEFORE_LAYER_CHANGE
;1.1
G92 E0
; custom gcode end: before_layer_gcode

;WIPE_START
G1 F6240
M204 S1000 ; adjust acceleration
G1 X-3.629 Y5.363 E-1.805 ; wipe and retract
;WIPE_END
G1 E-0.095 F2100 ; retract
G1 Z1.2 F7800 ; lift Z
; stop printing object Test_base3mm_conic.stl id:0 copy 0
M486 S-1
; custom gcode: layer_gcode
;AFTER_LAYER_CHANGE
;1.1
; custom gcode end: layer_gcode

M104 S205 ; set temperature
M140 S60 ; set bed temperature
; printing object Test_base3mm_conic.stl id:0 copy 0
M486 S0
; acceleration to travel
M204 S1500 ; adjust acceleration
G1 X-5.645 Y5.255 ; move to first perimeter point (acceleration)
; decel to extrusion
M204 S800 ; adjust acceleration
G1 X-6.038 Y5.233 ; move to first perimeter point (deceleration)
; end travel
G1 Z1.1 ; restore layer Z
G1 E1.9 F2100 ; unretract
;TYPE:Internal perimeter
M106 S127.5 ; set fan for Internal perimeter
G1 F900
G1 X-6.46 Y4.703 E0.13283 ; perimeter
G1 X-6.834 Y4.14 E0.13246 ; perimeter
G1 X-7.16 Y3.547 E0.13255 ; perimeter
G1 X-7.435 Y2.926 E0.13319 ; perimeter
G1 X-7.649 Y2.312 E0.12733 ; perimeter
G1 X-7.811 Y1.683 E0.12733 ; perimeter
G1 X-7.926 Y1.013 E0.13322 ; perimeter
G1 X-7.983 Y0.339 E0.13265 ; perimeter
G1 X-7.983 Y-0.339 E0.13269 ; perimeter
G1 X-7.926 Y-1.013 E0.13265 ; perimeter
G1 X-7.811 Y-1.683 E0.13322 ; perimeter
G1 X-7.649 Y-2.312 E0.12733 ; perimeter
G1 X-7.435 Y-2.926 E0.12733 ; perimeter
G1 X-7.16 Y-3.547 E0.13318 ; perimeter
G1 X-6.834 Y-4.14 E0.13256 ; perimeter
G1 X-6.459 Y-4.705 E0.13285 ; perimeter
G1 X-6.054 Y-5.215 E0.12764 ; perimeter
G1 X-5.608 Y-5.691 E0.12789 ; perimeter
G1 X-5.091 Y-6.158 E0.13643 ; perimeter
