; generated by SuperSlicer 2.5.59.13 on 2025-12-15 at 15:53:49 UTC

; 

; external perimeters extrusion width = 1.05mm
; perimeters extrusion width = 1.05mm
; infill extrusion width = 1.05mm
; solid infill extrusion width = 1.05mm
; top infill extrusion width = 1.05mm
; first layer extrusion width = 1.05mm

; object:{"name":"Test_base3mm_conic","id":"Test_base3mm_conic.stl id:0 copy 0","object_center":[-13.003743,0.000000,0.000000],"boundingbox_center":[-13.003743,0.000000,30.017147],"boundingbox_size":[46.813477,20.801426,60.034294]}
; Total objects to print: 1
M486 T1
; plater:{"center":[-13.003743,0.000000,0.000000],"boundingbox_center":[-13.003743,0.000000,30.017147],"boundingbox_size":[46.813477,20.801426,60.034294]}

M107 ; disable fan
M140 S65 ; set bed temperature
M104 S210 ; set temperature
;TYPE:Custom
; custom gcode: start_gcode
G28 ; home all axes
 M117 Purge extruder
 G92 E0 ; reset extruder
 G1 Z1.0 F3000 ; move z up little to prevent scratching of surface
 G1 X2 Y20 Z0.3 F5000.0 ; move to start-line position
 G1 X2 Y200.0 Z0.3 F1500.0 E15 ; draw 1st line
 G1 X2 Y200.0 Z0.4 F5000.0 ; move to side a little
 G1 X2 Y20 Z0.4 F1500.0 E30 ; draw 2nd line
 G92 E0 ; reset extruder
 G1 Z1.0 F3000 ; move z up little to prevent scratching of surface
; custom gcode end: start_gcode

M107 ; disable fan
G21 ; set units to millimeters
G90 ; use absolute coordinates
M83 ; use relative distances for extrusion
; custom gcode: start_filament_gcode
; Filament gcode
; custom gcode end: start_filament_gcode
M109 S210 ; set temperature and wait for it to be reached
M190 S65 ; set bed temperature and wait for it to be reached
;LAYER_CHANGE
;Z:0.6
;HEIGHT:0.6
; custom gcode: before_layer_gcode
;BEFORE_LAYER_CHANGE
;0.6
G92 E0
; custom gcode end: before_layer_gcode

G1 X150.000 Y150.000 Z0.200 E-1.90000
G1 X150.000 Y150.000 Z0.600
; custom gcode: layer_gcode
;AFTER_LAYER_CHANGE
;0.6
; custom gcode end: layer_gcode

G1 X150.000 Y150.000 Z1.200
; printing object Test_base3mm_conic.stl id:0 copy 0
M486 S0
M204 S500 ; adjust acceleration
G1 X149.231 Y149.619 Z1.102
G1 X148.463 Y149.237 Z1.003
G1 X147.694 Y148.856 Z0.905
G1 X146.925 Y148.475 Z0.806
G1 X146.157 Y148.093 Z0.708
G1 X145.388 Y147.712 Z0.609
G1 X144.619 Y147.331 Z0.600
G1 X143.850 Y146.950 Z0.600
G1 X143.082 Y146.568 Z0.600
G1 X143.082 Y146.568 Z0.600
G1 X143.082 Y146.568 Z0.600 E1.90000
;TYPE:Internal perimeter
;WIDTH:1.05
M107 ; disable fan
G1 F600
G1 X143.395 Y145.999 Z0.600 E0.15521
G1 X143.755 Y145.458 Z0.600 E0.15532
G1 X144.153 Y144.956 Z0.600 E0.15316
G1 X144.591 Y144.489 Z0.600 E0.15328
G1 X145.078 Y144.050 Z0.600 E0.15679
G1 X145.593 Y143.659 Z0.600 E0.15441
G1 X146.139 Y143.313 Z0.600 E0.15461
G1 X146.712 Y143.013 Z0.600 E0.15462
G1 X147.308 Y142.762 Z0.600 E0.15461
G1 X147.924 Y142.563 Z0.600 E0.15463
G1 X148.553 Y142.415 Z0.600 E0.15461
G1 X149.193 Y142.320 Z0.600 E0.15461
G1 X149.839 Y142.279 Z0.600 E0.15462
G1 X150.186 Y142.287 Z0.600 E0.08328
G1 X150.484 Y142.293 Z0.600 E0.07133
G1 X151.129 Y142.361 Z0.600 E0.15462
G1 X151.763 Y142.482 Z0.600 E0.15461
G1 X152.386 Y142.656 Z0.600 E0.15462
G1 X152.992 Y142.881 Z0.600 E0.15462
G1 X153.578 Y143.157 Z0.600 E0.15461
G1 X154.137 Y143.480 Z0.600 E0.15461
G1 X154.669 Y143.849 Z0.600 E0.15462
G1 X155.167 Y144.261 Z0.600 E0.15461
G1 X155.629 Y144.714 Z0.600 E0.15462
G1 X156.052 Y145.203 Z0.600 E0.15462
G1 X156.432 Y145.726 Z0.600 E0.15461
G1 X156.767 Y146.280 Z0.600 E0.15461
G1 X157.055 Y146.859 Z0.600 E0.15462
G1 X157.293 Y147.460 Z0.600 E0.15462
G1 X157.480 Y148.079 Z0.600 E0.15461
G1 X157.614 Y148.712 Z0.600 E0.15462
G1 X157.695 Y149.354 Z0.600 E0.15461
G1 X157.722 Y150.000 Z0.600 E0.15462
G1 X157.695 Y150.646 Z0.600 E0.15461
G1 X157.614 Y151.288 Z0.600 E0.15462
G1 X157.480 Y151.921 Z0.600 E0.15461
G1 X157.293 Y152.540 Z0.600 E0.15462
G1 X157.055 Y153.141 Z0.600 E0.15461
G1 X156.767 Y153.720 Z0.600 E0.15462
G1 X156.432 Y154.274 Z0.600 E0.15461
G1 X156.052 Y154.797 Z0.600 E0.15462
G1 X155.629 Y155.286 Z0.600 E0.15461
G1 X155.167 Y155.739 Z0.600 E0.15462
G1 X154.669 Y156.151 Z0.600 E0.15461
G1 X154.137 Y156.520 Z0.600 E0.15462
G1 X153.578 Y156.843 Z0.600 E0.15462
G1 X152.992 Y157.119 Z0.600 E0.15461
G1 X152.386 Y157.344 Z0.600 E0.15462
G1 X151.763 Y157.518 Z0.600 E0.15461
G1 X151.129 Y157.639 Z0.600 E0.15461
G1 X150.484 Y157.707 Z0.600 E0.15462
G1 X149.839 Y157.721 Z0.600 E0.15462
G1 X149.193 Y157.680 Z0.600 E0.15462
G1 X148.553 Y157.585 Z0.600 E0.15461
G1 X147.924 Y157.437 Z0.600 E0.15461
G1 X147.308 Y157.238 Z0.600 E0.15462
G1 X146.712 Y156.987 Z0.600 E0.15461
G1 X146.139 Y156.687 Z0.600 E0.15462
G1 X145.593 Y156.341 Z0.600 E0.15461
G1 X145.077 Y155.950 Z0.600 E0.15462
G1 X144.597 Y155.517 Z0.600 E0.15467
G1 X144.158 Y155.050 Z0.600 E0.15321
G1 X143.754 Y154.541 Z0.600 E0.15531
G1 X143.395 Y154.001 Z0.600 E0.15516
G1 X143.082 Y153.432 Z0.600 E0.15521
G1 X142.818 Y152.838 Z0.600 E0.15546
G1 X142.608 Y152.233 Z0.600 E0.15303
G1 X142.448 Y151.613 Z0.600 E0.15303
G1 X142.340 Y150.972 Z0.600 E0.15548
G1 X142.285 Y150.325 Z0.600 E0.15524
G1 X142.285 Y149.675 Z0.600 E0.15525
G1 X142.340 Y149.028 Z0.600 E0.15525
G1 X142.448 Y148.387 Z0.600 E0.15548
G1 X142.608 Y147.767 Z0.600 E0.15303
G1 X142.818 Y147.162 Z0.600 E0.15303
G1 X143.023 Y146.700 Z0.600 E0.12099
M107 ; disable fan
G1 X142.288 Y146.174 Z0.600
M107 ; disable fan
G1 F600
G1 X142.637 Y145.540 Z0.600 E0.17303
G1 X143.038 Y144.937 Z0.600 E0.17309
G1 X143.482 Y144.378 Z0.600 E0.17084
G1 X143.971 Y143.856 Z0.600 E0.17094
G1 X144.513 Y143.366 Z0.600 E0.17458
G1 X145.087 Y142.931 Z0.600 E0.17224
G1 X145.695 Y142.544 Z0.600 E0.17236
G1 X146.335 Y142.211 Z0.600 E0.17236
G1 X146.999 Y141.931 Z0.600 E0.17236
G1 X147.685 Y141.708 Z0.600 E0.17236
G1 X148.387 Y141.544 Z0.600 E0.17236
G1 X149.100 Y141.439 Z0.600 E0.17236
G1 X149.819 Y141.393 Z0.600 E0.17237
G1 X150.205 Y141.402 Z0.600 E0.09215
G1 X150.540 Y141.408 Z0.600 E0.08021
G1 X151.257 Y141.484 Z0.600 E0.17236
G1 X151.966 Y141.619 Z0.600 E0.17236
G1 X152.660 Y141.813 Z0.600 E0.17236
G1 X153.336 Y142.064 Z0.600 E0.17236
G1 X153.988 Y142.371 Z0.600 E0.17236
G1 X154.613 Y142.732 Z0.600 E0.17236
G1 X155.204 Y143.143 Z0.600 E0.17237
G1 X155.760 Y143.603 Z0.600 E0.17235
G1 X156.275 Y144.107 Z0.600 E0.17237
G1 X156.746 Y144.653 Z0.600 E0.17236
G1 X157.170 Y145.236 Z0.600 E0.17236
G1 X157.544 Y145.853 Z0.600 E0.17236
G1 X157.864 Y146.498 Z0.600 E0.17237
G1 X158.129 Y147.169 Z0.600 E0.17235
G1 X158.338 Y147.859 Z0.600 E0.17237
G1 X158.488 Y148.565 Z0.600 E0.17236
G1 X158.578 Y149.280 Z0.600 E0.17236
G1 X158.608 Y150.000 Z0.600 E0.17236
G1 X158.578 Y150.720 Z0.600 E0.17236
G1 X158.488 Y151.435 Z0.600 E0.17236
G1 X158.338 Y152.141 Z0.600 E0.17236
G1 X158.129 Y152.831 Z0.600 E0.17237
G1 X157.864 Y153.502 Z0.600 E0.17236
G1 X157.544 Y154.147 Z0.600 E0.17236
G1 X157.170 Y154.764 Z0.600 E0.17236
G1 X156.746 Y155.347 Z0.600 E0.17236
G1 X156.275 Y155.893 Z0.600 E0.17236
G1 X155.760 Y156.397 Z0.600 E0.17237
G1 X155.204 Y156.857 Z0.600 E0.17235
G1 X154.613 Y157.268 Z0.600 E0.17237
G1 X153.988 Y157.629 Z0.600 E0.17236
G1 X153.336 Y157.936 Z0.600 E0.17236
G1 X152.660 Y158.187 Z0.600 E0.17236
G1 X151.966 Y158.381 Z0.600 E0.17236
G1 X151.257 Y158.516 Z0.600 E0.17236
G1 X150.540 Y158.592 Z0.600 E0.17237
G1 X149.819 Y158.607 Z0.600 E0.17236
G1 X149.100 Y158.561 Z0.600 E0.17236
G1 X148.387 Y158.456 Z0.600 E0.17236
G1 X147.685 Y158.292 Z0.600 E0.17236
G1 X146.999 Y158.069 Z0.600 E0.17237
G1 X146.335 Y157.789 Z0.600 E0.17235
G1 X145.695 Y157.456 Z0.600 E0.17237
G1 X145.087 Y157.069 Z0.600 E0.17236
G1 X144.512 Y156.633 Z0.600 E0.17236
G1 X143.977 Y156.150 Z0.600 E0.17239
G1 X143.487 Y155.629 Z0.600 E0.17089
G1 X143.038 Y155.062 Z0.600 E0.17306
G1 X142.637 Y154.460 Z0.600 E0.17298
G1 X142.288 Y153.826 Z0.600 E0.17304
G1 X141.994 Y153.164 Z0.600 E0.17321
G1 X141.759 Y152.489 Z0.600 E0.17068
G1 X141.581 Y151.798 Z0.600 E0.17068
G1 X141.460 Y151.083 Z0.600 E0.17320
G1 X141.399 Y150.362 Z0.600 E0.17309
G1 X141.399 Y149.638 Z0.600 E0.17308
G1 X141.460 Y148.917 Z0.600 E0.17308
G1 X141.581 Y148.202 Z0.600 E0.17321
G1 X141.759 Y147.511 Z0.600 E0.17067
G1 X141.994 Y146.836 Z0.600 E0.17069
G1 X142.229 Y146.306 Z0.600 E0.13874
M107 ; disable fan
G1 X141.494 Y145.781 Z0.600
;TYPE:External perimeter
M107 ; disable fan
G1 F600
G1 X141.878 Y145.081 Z0.600 E0.19087
G1 X142.320 Y144.416 Z0.600 E0.19084
G1 X142.811 Y143.798 Z0.600 E0.18852
G1 X143.350 Y143.223 Z0.600 E0.18860
G1 X143.948 Y142.684 Z0.600 E0.19237
G1 X144.581 Y142.203 Z0.600 E0.19007
G1 X145.252 Y141.777 Z0.600 E0.19010
G1 X145.957 Y141.409 Z0.600 E0.19011
G1 X146.690 Y141.101 Z0.600 E0.19011
G1 X147.447 Y140.855 Z0.600 E0.19011
G1 X148.221 Y140.673 Z0.600 E0.19010
G1 X149.007 Y140.558 Z0.600 E0.19011
G1 X149.801 Y140.508 Z0.600 E0.19011
G1 X150.224 Y140.516 Z0.600 E0.10102
G1 X150.596 Y140.524 Z0.600 E0.08908
G1 X151.387 Y140.607 Z0.600 E0.19012
G1 X152.168 Y140.756 Z0.600 E0.19010
G1 X152.934 Y140.970 Z0.600 E0.19011
G1 X153.680 Y141.247 Z0.600 E0.19011
G1 X154.399 Y141.585 Z0.600 E0.19010
G1 X155.088 Y141.983 Z0.600 E0.19011
G1 X155.741 Y142.437 Z0.600 E0.19011
G1 X156.353 Y142.944 Z0.600 E0.19010
G1 X156.921 Y143.500 Z0.600 E0.19012
G1 X157.441 Y144.103 Z0.600 E0.19010
G1 X157.908 Y144.746 Z0.600 E0.19011
G1 X158.321 Y145.425 Z0.600 E0.19011
G1 X158.674 Y146.138 Z0.600 E0.19010
G1 X158.967 Y146.878 Z0.600 E0.19011
G1 X159.196 Y147.639 Z0.600 E0.19011
G1 X159.362 Y148.417 Z0.600 E0.19011
G1 X159.462 Y149.205 Z0.600 E0.19011
G1 X159.495 Y150.000 Z0.600 E0.19010
G1 X159.462 Y150.795 Z0.600 E0.19011
G1 X159.362 Y151.583 Z0.600 E0.19011
G1 X159.196 Y152.361 Z0.600 E0.19010
G1 X158.967 Y153.122 Z0.600 E0.19011
G1 X158.674 Y153.862 Z0.600 E0.19011
G1 X158.321 Y154.575 Z0.600 E0.19011
G1 X157.908 Y155.254 Z0.600 E0.19010
G1 X157.441 Y155.897 Z0.600 E0.19011
G1 X156.921 Y156.500 Z0.600 E0.19011
G1 X156.353 Y157.056 Z0.600 E0.19011
G1 X155.741 Y157.563 Z0.600 E0.19010
G1 X155.088 Y158.017 Z0.600 E0.19011
G1 X154.399 Y158.415 Z0.600 E0.19011
G1 X153.680 Y158.753 Z0.600 E0.19011
G1 X152.934 Y159.030 Z0.600 E0.19010
G1 X152.169 Y159.244 Z0.600 E0.19011
G1 X151.387 Y159.393 Z0.600 E0.19011
G1 X150.596 Y159.476 Z0.600 E0.19011
G1 X149.801 Y159.492 Z0.600 E0.19010
G1 X149.007 Y159.442 Z0.600 E0.19011
G1 X148.221 Y159.327 Z0.600 E0.19011
G1 X147.447 Y159.145 Z0.600 E0.19011
G1 X146.690 Y158.899 Z0.600 E0.19011
G1 X145.957 Y158.591 Z0.600 E0.19010
G1 X145.252 Y158.223 Z0.600 E0.19011
G1 X144.581 Y157.797 Z0.600 E0.19010
G1 X143.948 Y157.316 Z0.600 E0.19011
G1 X143.357 Y156.784 Z0.600 E0.19012
G1 X142.816 Y156.209 Z0.600 E0.18857
G1 X142.320 Y155.584 Z0.600 E0.19080
G1 X141.878 Y154.919 Z0.600 E0.19081
G1 X141.494 Y154.219 Z0.600 E0.19087
G1 X141.170 Y153.489 Z0.600 E0.19095
G1 X140.910 Y152.745 Z0.600 E0.18835
G1 X140.714 Y151.982 Z0.600 E0.18831
G1 X140.581 Y151.195 Z0.600 E0.19094
G1 X140.513 Y150.399 Z0.600 E0.19091
G1 X140.513 Y149.601 Z0.600 E0.19093
G1 X140.581 Y148.805 Z0.600 E0.19092
G1 X140.714 Y148.018 Z0.600 E0.19094
G1 X140.910 Y147.255 Z0.600 E0.18831
G1 X141.170 Y146.511 Z0.600 E0.18834
G1 X141.435 Y145.913 Z0.600 E0.15649
M107 ; disable fan
;WIPE_START
M204 S1000 ; adjust acceleration
G1 X142.058 Y145.753 Z0.600
;WIPE_END
;WIPE_START
G1 F6240
G1 X142.290 Y145.330 Z0.600 E-0.16044
G1 X142.710 Y144.699 Z0.600 E-0.25209
G1 X143.175 Y144.112 Z0.600 E-0.24893
G1 X143.687 Y143.566 Z0.600 E-0.24905
G1 X144.255 Y143.055 Z0.600 E-0.25420
G1 X144.855 Y142.598 Z0.600 E-0.25097
G1 X145.493 Y142.194 Z0.600 E-0.25108
G1 X145.862 Y142.001 Z0.600 E-0.13824
;WIPE_END
G1 X145.862 Y142.001 Z0.600 E-0.09500
G1 X145.862 Y142.001 Z0.600
; acceleration to travel
M204 S1500 ; adjust acceleration
G1 X146.790 Y142.161 Z0.600
G1 X147.718 Y142.320 Z0.600
G1 X148.645 Y142.479 Z0.600
G1 X149.573 Y142.639 Z0.600
G1 X150.501 Y142.798 Z0.600
G1 X151.429 Y142.957 Z0.600
G1 X152.357 Y143.116 Z0.600
; decel to extrusion
M204 S500 ; adjust acceleration
G1 X153.140 Y143.251 Z0.600
; end travel
G1 X153.140 Y143.251 Z0.600
G1 X153.140 Y143.251 Z0.600 E1.90000
;TYPE:Solid infill
M107 ; disable fan
G1 F600
G1 X153.679 Y143.789 Z0.600 E1.60695
G1 X154.217 Y144.328 Z0.600 E1.31390
G1 X154.755 Y144.866 Z0.600 E1.02086
G1 X155.294 Y145.404 Z0.600 E0.72781
G1 X155.498 Y145.642 Z0.600 E0.07511
G1 X155.844 Y146.117 Z0.600 E0.14048
G1 X156.148 Y146.620 Z0.600 E0.14048
G1 X156.410 Y147.146 Z0.600 E0.14048
G1 X156.626 Y147.693 Z0.600 E0.14049
G1 X156.816 Y148.353 Z0.600 E0.16432
G1 X156.170 Y147.707 Z0.600 E0.36236
G1 X155.523 Y147.060 Z0.600 E0.56040
G1 X154.877 Y146.414 Z0.600 E0.75844
G1 X154.231 Y145.767 Z0.600 E0.95647
G1 X153.584 Y145.121 Z0.600 E1.15451
G1 X152.938 Y144.474 Z0.600 E1.35255
G1 X152.291 Y143.827 Z0.600 E1.55059
G1 X151.645 Y143.181 Z0.600 E1.74863
G1 X151.034 Y143.061 Z0.600 E0.14876
G1 X150.171 Y142.993 Z0.600 E0.20705
G1 X150.036 Y142.997 Z0.600 E0.03232
G1 X150.670 Y143.632 Z0.600 E0.24391
G1 X151.305 Y144.266 Z0.600 E0.45550
G1 X151.939 Y144.901 Z0.600 E0.66709
G1 X152.574 Y145.535 Z0.600 E0.87868
G1 X153.208 Y146.170 Z0.600 E1.09027
G1 X153.843 Y146.804 Z0.600 E1.30185
G1 X154.477 Y147.439 Z0.600 E1.51344
G1 X155.112 Y148.073 Z0.600 E1.72503
G1 X155.746 Y148.708 Z0.600 E1.93662
G1 X156.381 Y149.342 Z0.600 E2.14821
G1 X157.015 Y149.977 Z0.600 E2.35980
G1 X156.992 Y150.587 Z0.600 E0.14590
G1 X156.894 Y151.282 Z0.600 E0.16771
G1 X156.265 Y150.653 Z0.600 E0.36751
G1 X155.636 Y150.024 Z0.600 E0.56730
G1 X155.007 Y149.395 Z0.600 E0.76710
G1 X154.378 Y148.766 Z0.600 E0.96689
G1 X153.749 Y148.136 Z0.600 E1.16669
G1 X153.120 Y147.507 Z0.600 E1.36649
G1 X152.490 Y146.878 Z0.600 E1.56628
G1 X151.861 Y146.249 Z0.600 E1.76608
G1 X151.232 Y145.620 Z0.600 E1.96588
G1 X150.603 Y144.990 Z0.600 E2.16567
G1 X149.974 Y144.361 Z0.600 E2.36547
G1 X149.345 Y143.732 Z0.600 E2.56526
G1 X148.716 Y143.103 Z0.600 E2.76506
G1 X148.113 Y143.242 Z0.600 E0.14786
G1 X147.597 Y143.410 Z0.600 E0.12981
G1 X148.239 Y144.052 Z0.600 E0.33769
G1 X148.881 Y144.694 Z0.600 E0.54556
G1 X149.524 Y145.337 Z0.600 E0.75344
G1 X150.166 Y145.979 Z0.600 E0.96132
G1 X150.808 Y146.621 Z0.600 E1.16919
G1 X151.450 Y147.264 Z0.600 E1.37707
G1 X152.093 Y147.906 Z0.600 E1.58495
G1 X152.735 Y148.548 Z0.600 E1.79282
G1 X153.377 Y149.191 Z0.600 E2.00070
G1 X154.019 Y149.833 Z0.600 E2.20857
G1 X154.662 Y150.475 Z0.600 E2.41645
G1 X155.304 Y151.118 Z0.600 E2.62433
G1 X155.946 Y151.760 Z0.600 E2.83220
G1 X156.588 Y152.402 Z0.600 E3.04008
G1 X156.410 Y152.854 Z0.600 E0.11621
G1 X156.145 Y153.385 Z0.600 E0.14172
G1 X155.510 Y152.749 Z0.600 E0.34701
G1 X154.875 Y152.114 Z0.600 E0.55230
G1 X154.240 Y151.479 Z0.600 E0.75759
G1 X153.605 Y150.844 Z0.600 E0.96287
G1 X152.970 Y150.209 Z0.600 E1.16816
G1 X152.335 Y149.574 Z0.600 E1.37345
G1 X151.699 Y148.939 Z0.600 E1.57874
G1 X151.064 Y148.304 Z0.600 E1.78403
G1 X150.429 Y147.668 Z0.600 E1.98932
G1 X149.794 Y147.033 Z0.600 E2.19461
G1 X149.159 Y146.398 Z0.600 E2.39990
G1 X148.524 Y145.763 Z0.600 E2.60518
G1 X147.889 Y145.128 Z0.600 E2.81047
G1 X147.253 Y144.493 Z0.600 E3.01576
G1 X146.618 Y143.858 Z0.600 E3.22105
G1 X145.995 Y144.238 Z0.600 E0.17459
G1 X145.756 Y144.421 Z0.600 E0.07192
G1 X146.411 Y145.076 Z0.600 E0.28857
G1 X147.066 Y145.731 Z0.600 E0.50522
G1 X147.721 Y146.386 Z0.600 E0.72187
G1 X148.376 Y147.041 Z0.600 E0.93852
G1 X149.031 Y147.696 Z0.600 E1.15517
G1 X149.686 Y148.350 Z0.600 E1.37182
G1 X150.341 Y149.005 Z0.600 E1.58847
G1 X150.996 Y149.660 Z0.600 E1.80511
G1 X151.651 Y150.315 Z0.600 E2.02176
G1 X152.306 Y150.970 Z0.600 E2.23841
G1 X152.961 Y151.625 Z0.600 E2.45506
G1 X153.616 Y152.280 Z0.600 E2.67171
G1 X154.271 Y152.935 Z0.600 E2.88836
G1 X154.926 Y153.590 Z0.600 E3.10501
G1 X155.581 Y154.245 Z0.600 E3.32166
G1 X155.115 Y154.803 Z0.600 E0.17377
G1 X154.912 Y155.001 Z0.600 E0.06792
G1 X154.251 Y154.340 Z0.600 E0.28686
G1 X153.590 Y153.680 Z0.600 E0.50581
G1 X152.929 Y153.019 Z0.600 E0.72475
G1 X152.268 Y152.358 Z0.600 E0.94370
G1 X151.607 Y151.697 Z0.600 E1.16264
G1 X150.946 Y151.036 Z0.600 E1.38159
G1 X150.285 Y150.375 Z0.600 E1.60053
G1 X149.624 Y149.714 Z0.600 E1.81948
