; HEADER_BLOCK_START
; generated by OrcaSlicer 2.3.0 on 2025-12-15 at 12:00:36
; total layer number: 138
;_GP_TOTAL_LAYER_NUMBER_PLACEHOLDER
; filament_density: 1.24
; filament_diameter: 1.75
; max_z_height: 27.60
; HEADER_BLOCK_END

; THUMBNAIL_BLOCK_START

;
; THUMBNAIL_BLOCK_END

; THUMBNAIL_BLOCK_START

;
; THUMBNAIL_BLOCK_END

; external perimeters extrusion width = 0.45mm
; perimeters extrusion width = 0.45mm
; infill extrusion width = 0.45mm
; solid infill extrusion width = 0.45mm
; top infill extrusion width = 0.40mm

; EXECUTABLE_BLOCK_START
M73 P0 R27
M201 X10000 Y10000 Z500 E5000
M203 X500 Y500 Z10 E60
M204 P10000 R1000 T10000
M205 X8.00 Y8.00 Z0.40 E5.00 ; sets the jerk limits, mm/sec
;TYPE:Custom
G90 ; use absolute coordinates
M83 ; extruder relative mode
M204 S10000 T1000
M104 S220 ; set extruder temp
M140 S55 ; set bed temp
G28 ; home all
G1 Y1.0 Z0.3 F1000 ; move print head up
M190 S55 ; wait for bed temp
M109 S220 ; wait for extruder temp
G92 E0.0
; initial load
G1 X205.0 E19 F1000
G1 Y1.6
G1 X5.0 E19 F1000
G92 E0.0
; intro line
G1 Y2.0 Z0.2 F1000
M73 P1 R27
G1 X65.0 E9.0 F1000
G1 X105.0 E12.5 F1000
G92 E0.0
G90
G21
M83 ; use relative distances for extrusion
; Filament gcode
M106 S0
;LAYER_CHANGE
;Z:0.2
;HEIGHT:0.2
;BEFORE_LAYER_CHANGE
;0.2
G92 E0

G1 E-.9 F2700
;AFTER_LAYER_CHANGE
;0.2
;_SET_FAN_SPEED_CHANGING_LAYER
M204 S300
G1 X124.358 Y122.411 F7200
G1 Z.6
G1 Z.2
G1 E.9 F2100
;TYPE:Skirt
;WIDTH:0.45
G1 F600
G1 X124.503 Y122.221 E.00793
G1 X125.39 Y121.659 E.03484
G1 X126.701 Y121.438 E.04409
G1 X127.636 Y121.636 E.03174
G1 X128.298 Y121.948 E.02426
G1 X128.87 Y122.346 E.02309
G1 X129.534 Y123.159 E.03484
G1 X129.82 Y123.873 E.02552
G1 X129.891 Y124.986 E.037
G1 X129.708 Y125.749 E.02602
G1 X129.334 Y126.681 E.03332
G1 X129.01 Y127.267 E.02222
G1 X128.495 Y127.839 E.02552
G1 X127.592 Y128.375 E.03484
M73 P2 R27
G1 X126.275 Y128.556 E.04409
G1 X125.261 Y128.284 E.03484
G1 X124.611 Y127.873 E.02552
G1 X123.933 Y127.071 E.03484
G1 X123.578 Y126.136 E.03316
G1 X123.516 Y124.441 E.05624
G1 X123.599 Y123.777 E.02222
G1 X123.864 Y123.055 E.02552
G1 X124.333 Y122.443 E.02559
; printing object Test Conico v1_conic_12.0.stl_1 id:105553134621760 copy 0
G1 E-.9 F2700
G1 X126.07 Y124.049 Z.6 F7200
G1 Z.2
G1 E.9 F2100
;TYPE:Brim
G1 F600
G1 X126.233 Y123.914 E.00703
G1 X126.432 Y123.843 E.00703
G1 X126.648 Y123.844 E.00716
G1 X126.86 Y123.915 E.00738
G1 X127.179 Y124.079 E.01191
G1 X127.359 Y124.22 E.0076
G1 X127.471 Y124.4 E.00703
G1 X127.514 Y124.605 E.00693
G1 X127.466 Y124.873 E.00904
G1 X127.107 Y125.769 E.03203
G1 X126.985 Y125.965 E.00764
G1 X126.818 Y126.095 E.00703
G1 X126.616 Y126.16 E.00703
G1 X126.404 Y126.152 E.00703
G1 X126.208 Y126.072 E.00703
G1 X126.052 Y125.928 E.00703
G1 X125.953 Y125.738 E.00712
G1 X125.923 Y125.543 E.00655
G1 X125.923 Y124.459 E.03595
G1 X125.963 Y124.233 E.00764
G1 X126.05 Y124.084 E.00571
G1 X126.378 Y124.31 F7200
G1 F600
G1 X126.501 Y124.241 E.00466
G1 X126.624 Y124.259 E.00412
G1 X126.997 Y124.444 E.01383
G1 X127.094 Y124.546 E.00466
G1 X127.096 Y124.702 E.00519
G1 X126.722 Y125.634 E.03332
G1 X126.628 Y125.739 E.00466
G1 X126.489 Y125.757 E.00466
G1 X126.371 Y125.681 E.00466
G1 X126.33 Y125.558 E.00429
G1 X126.33 Y124.441 E.03705
G1 X126.365 Y124.347 E.00333
G1 X126.722 Y124.667 F7200
;TYPE:Outer wall
;WIDTH:0.38292
G1 F600
G1 X126.659 Y124.704 E.00204
G1 X126.722 Y124.741 E.00204
G1 X126.744 Y124.704 E.00118
; stop printing object Test Conico v1_conic_12.0.stl_1 id:105553134621760 copy 0
M106 S255
;LAYER_CHANGE
;Z:0.4
;HEIGHT:0.2
;BEFORE_LAYER_CHANGE
;0.4
G92 E0

G1 E-.9 F2700
;AFTER_LAYER_CHANGE
;0.4
;_SET_FAN_SPEED_CHANGING_LAYER
M204 S500
; printing object Test Conico v1_conic_12.0.stl_1 id:105553134621760 copy 0
M204 S10000
G1 X126.791 Y125.341 Z.8 F7200
G1 Z.4
G1 E.9 F2100
M204 S500
;WIDTH:0.515113
G1 F600
G1 X126.791 Y124.338 E.03859
M204 S250
;TYPE:Overhang wall
G1 X126.791 Y123.737 E.02313
G1 X127.327 Y124.003 E.02304
G1 X127.123 Y124.514 E.02118
M204 S500
;TYPE:Outer wall
M106 S255
G1 X126.806 Y125.304 E.03274
M204 S10000
G1 E-.9 F2700
G1 X122.469 Y125.059 Z.8 F7200
G1 Z.4
G1 E.9 F2100
M204 S250
;TYPE:Overhang wall
;WIDTH:0.53884
G1 F600
G1 X121.928 Y125.306 E.02403
G1 X121.717 Y125.344 E.00866
G1 X121.365 Y124.901 E.02285
G1 X121.49 Y124.689 E.00992
G1 X122.431 Y125.045 E.04069
M204 S10000
G1 E-.9 F2700
G1 X123.641 Y125.02 Z.8 F7200
G1 Z.4
G1 E.9 F2100
M204 S250
;WIDTH:0.449999
G1 F600
G1 X122.015 Y125.763 E.05931
G1 X121.52 Y125.822 E.01654
G1 X120.842 Y124.967 E.0362
G1 X121.094 Y124.4 E.02059
G1 X121.444 Y124.189 E.01356
G1 X123.604 Y125.005 E.07659
; stop printing object Test Conico v1_conic_12.0.stl_1 id:105553134621760 copy 0
;LAYER_CHANGE
;Z:0.6
;HEIGHT:0.2
;BEFORE_LAYER_CHANGE
;0.6
G92 E0

G1 E-.9 F2700
M73 P2 R26
;AFTER_LAYER_CHANGE
;0.6
;_SET_FAN_SPEED_CHANGING_LAYER
; printing object Test Conico v1_conic_12.0.stl_1 id:105553134621760 copy 0
M204 S10000
G1 X127.161 Y124.227 Z1 F7200
G1 Z.6
G1 E.9 F2100
;TYPE:Inner wall
;WIDTH:0.440346
G1 F974
M106 S255
G1 X127.161 Y123.39 E.0271
M204 S250
;TYPE:Overhang wall
G1 X127.161 Y123.182 E.00674
G1 X127.61 Y123.421 E.01647
G1 X127.542 Y123.592 E.00596
M204 S10000
;TYPE:Inner wall
M106 S255
G1 X127.271 Y124.268 E.02359
G1 X127.198 Y124.241 E.00251
G1 X126.992 Y124.593 F7200
M204 S500
;TYPE:Outer wall
;WIDTH:0.449999
G1 F974
G1 X126.759 Y124.505 E.00827
G1 X126.759 Y123.199 E.04332
M204 S250
;TYPE:Overhang wall
G1 X126.759 Y122.54 E.02186
G1 X126.956 Y122.618 E.00703
G1 X128.118 Y123.235 E.04364
G1 X127.899 Y123.782 E.01955
M204 S500
;TYPE:Outer wall
M106 S255
G1 X127.67 Y124.354 E.02045
;WIDTH:0.453783
G1 X127.662 Y124.399 E.00153
M204 S250
;TYPE:Overhang wall
G1 X127.607 Y124.705 E.01041
;WIDTH:0.418352
G1 X127.553 Y125.012 E.00954
;WIDTH:0.406632
G1 X127.529 Y124.89 E.00369
;WIDTH:0.436277
G1 X127.477 Y124.86 E.00192
M204 S500
;TYPE:Outer wall
;WIDTH:0.449999
M106 S255
G1 X127.064 Y124.62 E.01584
G1 X127.029 Y124.607 E.00123
M204 S10000
G1 X126.749 Y125.549 F7200
M204 S500
;WIDTH:0.430438
G1 F974
G1 X127.302 Y125.296 E.01921
M204 S250
;TYPE:Overhang wall
G1 X127.303 Y125.296 E.00003
G1 X126.749 Y126.676 E.04696
M204 S500
;TYPE:Outer wall
M106 S255
G1 X126.749 Y125.589 E.03433
M204 S10000
G1 E-.9 F2700
G1 X125.791 Y125.055 Z1 F7200
G1 Z.6
G1 E.9 F2100
M204 S250
;TYPE:Overhang wall
;WIDTH:0.449999
G1 F974
G1 X122.652 Y126.489 E.11445
G1 X121.698 Y126.603 E.0319
G1 X121.426 Y126.261 E.01448
M204 S10000
;TYPE:Inner wall
M106 S255
G1 X120.385 Y124.948 E.05558
M204 S250
;TYPE:Overhang wall
G1 X120.352 Y124.907 E.00175
G1 X120.837 Y123.817 E.03957
G1 X121.485 Y123.427 E.02509
G1 X122.81 Y123.928 E.04699
G1 X124.182 Y124.447 E.04866
G1 X125.753 Y125.041 E.05571
M204 S10000
G1 X126.309 Y124.816 F7200
M204 S250
G1 F974
G1 X126.309 Y125.266 E.01493
G1 X122.764 Y126.886 E.12929
G1 X121.52 Y127.034 E.04156
G1 X119.88 Y124.967 E.08753
G1 X120.518 Y123.535 E.052
G1 X121.444 Y122.977 E.03586
G1 X123.187 Y123.636 E.06181
G1 X125.184 Y124.391 E.07082
G1 X126.271 Y124.802 E.03855
M204 S10000
G1 E-.9 F2700
G1 X125.024 Y125.227 Z1 F7200
G1 Z.6
G1 E.9 F2100
M204 S250
;TYPE:Bridge
;WIDTH:0.45
G1 F974
G1 X121.426 Y123.867 E.12757
G1 X121.109 Y124.058 E.01229
G1 X121.062 Y124.164 E.00386
G1 X124.261 Y125.374 E.11347
G1 X123.74 Y125.612 E.01901
G1 X120.896 Y124.536 E.10087
G1 X120.753 Y124.856 E.01162
G1 X120.823 Y124.944 E.00371
G1 X123.219 Y125.85 E.08497
G1 X122.698 Y126.088 E.01901
G1 X121.316 Y125.566 E.04899
G1 X121.81 Y126.188 E.02633
G1 X122.288 Y126.369 E.01698
; stop printing object Test Conico v1_conic_12.0.stl_1 id:105553134621760 copy 0
;LAYER_CHANGE
;Z:0.8
;HEIGHT:0.2
;BEFORE_LAYER_CHANGE
;0.8
G92 E0

G1 E-.9 F2700
;AFTER_LAYER_CHANGE
;0.8
;_SET_FAN_SPEED_CHANGING_LAYER
; printing object Test Conico v1_conic_12.0.stl_1 id:105553134621760 copy 0
M204 S10000
G1 X127.269 Y122.94 Z1.2 F7200
G1 Z.8
G1 E.9 F2100
;TYPE:Inner wall
;WIDTH:0.656435
G1 F3600
M106 S255
G1 X127.269 Y122.303 E.03183
M204 S250
;TYPE:Overhang wall
G1 F1500
G1 X127.269 Y122.218 E.00425
G1 F3600
G1 X128.234 Y122.719 E.05436
;WIDTH:0.636798
G1 X128.202 Y122.798 E.00412
M204 S10000
;TYPE:Inner wall
M106 S255
G1 X128.026 Y123.237 E.02286
G1 X127.754 Y123.134 E.01409
;WIDTH:0.656435
G1 X127.306 Y122.955 E.02412
G1 X126.759 Y123.293 F7200
M204 S500
;TYPE:Outer wall
;WIDTH:0.449999
G1 F3600
G1 X126.759 Y122.082 E.04016
M204 S250
;TYPE:Overhang wall
G1 F1500
G1 X126.759 Y121.423 E.02187
G1 X127.163 Y121.584 E.01444
G1 X128.882 Y122.496 E.06457
G1 X128.846 Y122.538 E.00183
G1 X128.647 Y123.034 E.01775
M204 S500
;TYPE:Outer wall
G1 F3600
M106 S255
G1 X128.308 Y123.878 E.03017
G1 X126.796 Y123.307 E.05363
M204 S10000
G1 E-.9 F2700
G1 X126.719 Y126.995 Z1.2 F7200
G1 Z.8
G1 E.9 F2100
M204 S500
;WIDTH:0.370646
G1 F3600
G1 X127.147 Y126.799 E.01258
M204 S250
;TYPE:Overhang wall
G1 X127.187 Y126.781 E.00117
G1 F1500
G1 X126.719 Y127.949 E.0336
G1 X126.719 Y127.868 E.00218
M204 S500
;TYPE:Outer wall
G1 F3600
M106 S255
G1 X126.719 Y127.035 E.02224
M204 S10000
G1 X125.901 Y126.47 F7200
M204 S250
;TYPE:Overhang wall
;WIDTH:0.449999
G1 F1500
G1 X123.401 Y127.612 E.09119
G1 X121.698 Y127.815 E.05691
G1 X121.426 Y127.473 E.01448
M204 S10000
;TYPE:Inner wall
G1 F3600
M106 S255
G1 X119.423 Y124.948 E.10691
M204 S250
;TYPE:Overhang wall
G1 F1500
G1 X119.39 Y124.907 E.00175
G1 X120.261 Y122.952 E.071
G1 X121.485 Y122.215 E.04739
G1 X122.81 Y122.716 E.04699
G1 X124.59 Y123.389 E.06313
G1 X125.901 Y123.885 E.0465
G1 F3600
G1 X125.901 Y124.207 E.01068
M204 S10000
;TYPE:Inner wall
M106 S255
G1 X125.901 Y125.919 E.05679
M204 S250
;TYPE:Overhang wall
G1 X125.901 Y126.43 E.01695
M204 S10000
G1 X126.309 Y125.733 F7200
M204 S250
G1 F3600
G1 X126.309 Y126.731 E.03311
G1 F1500
G1 X123.512 Y128.009 E.10201
G1 X121.52 Y128.246 E.06654
G1 X120.352 Y126.774 E.06233
G1 X119.913 Y126.222 E.0234
G1 X118.918 Y124.967 E.05313
G1 X119.941 Y122.67 E.08341
G1 X121.444 Y121.765 E.0582
G1 X123.187 Y122.424 E.06181
G1 X125.256 Y123.206 E.07337
G1 X126.309 Y123.604 E.03734
G1 F3600
G1 X126.309 Y124.361 E.02511
M204 S500
;TYPE:Outer wall
M106 S255
G1 X126.309 Y125.693 E.04418
M204 S10000
G1 E-.9 F2700
G1 X123.087 Y125.146 Z1.2 F7200
G1 Z.8
G1 E.9 F2100
M204 S500
;TYPE:Internal solid infill
G1 F6000
G1 X121.63 Y124.595 E.05165
G1 X121.173 Y125.622 E.03727
G1 X122.367 Y125.475 E.03991
G1 X123.051 Y125.163 E.02492
M204 S10000
G1 E-.9 F2700
G1 X121.876 Y125.076 Z1.2 F7200
G1 Z.8
G1 E.9 F2100
M204 S500
;WIDTH:0.464404
G1 F6000
G1 X121.823 Y125.076 E.00181
G1 X121.797 Y125.121 E.00181
G1 X121.823 Y125.167 E.00181
G1 X121.882 Y125.156 E.00206
M204 S10000
G1 E-.9 F2700
G1 X121.741 Y127.608 Z1.2 F7200
G1 Z.8
G1 E.9 F2100
M204 S250
;TYPE:Bridge
;WIDTH:0.45
G1 F1500
G1 X125.555 Y125.865 E.13911
G1 X125.555 Y125.417 E.01485
G1 X121.652 Y127.201 E.14236
G1 X121.391 Y126.873 E.01391
G1 X125.555 Y124.97 E.15187
G1 X125.555 Y124.522 E.01485
G1 X121.131 Y126.544 E.16137
G1 X120.87 Y126.216 E.01391
G1 X121.322 Y126.009 E.01649
G1 X122.479 Y125.871 E.03864
G1 X124.144 Y125.11 E.06073
G1 X123.676 Y124.934 E.0166
G1 X125.497 Y124.102 E.06639
G1 X124.961 Y123.899 E.01901
G1 X123.14 Y124.731 E.06639
G1 X122.604 Y124.528 E.01901
G1 X124.425 Y123.696 E.06639
G1 X123.889 Y123.494 E.01901
G1 X121.834 Y124.433 E.07495
M204 S10000
G1 E-.9 F2700
G1 X121.111 Y125.21 Z1.2 F7200
G1 Z.8
G1 E.9 F2100
M204 S250
G1 F1500
G1 X120.349 Y125.559 E.02781
G1 X120.088 Y125.23 E.01391
G1 X121.362 Y124.648 E.04645
M204 S10000
G1 E-.9 F2700
G1 X119.656 Y124.98 Z1.2 F7200
G1 Z.8
G1 E.9 F2100
M204 S250
G1 F1500
G1 X123.353 Y123.291 E.13482
G1 X122.817 Y123.088 E.01901
G1 X120.007 Y124.372 E.10247
G1 X120.257 Y123.81 E.02041
G1 X122.281 Y122.886 E.07379
G1 X121.745 Y122.683 E.01901
M73 P3 R26
G1 X120.256 Y123.364 E.0543
M204 S10000
G1 E-.9 F2700
G1 X127.823 Y124.358 Z1.2 F7200
G1 X128.562 Y124.455 Z1.2
G1 Z.8
G1 E.9 F2100
M204 S250
;TYPE:Overhang wall
;WIDTH:0.449999
G1 F1500
G1 X130.054 Y125.02 E.05292
G1 X127.95 Y125.981 E.07673
G1 F3600
G1 X128.547 Y124.492 E.05321
M204 S10000
G1 X128.895 Y125.061 F7200
M204 S250
;WIDTH:0.580414
G1 F3600
G1 X128.861 Y125.119 E.00294
G1 X128.794 Y125.119 E.00293
G1 X128.761 Y125.061 E.00292
G1 X128.794 Y125.003 E.00292
G1 X128.861 Y125.003 E.00293
; stop printing object Test Conico v1_conic_12.0.stl_1 id:105553134621760 copy 0
;LAYER_CHANGE
;Z:1
;HEIGHT:0.2
;BEFORE_LAYER_CHANGE
;1
G92 E0

G1 E-.9 F2700
;AFTER_LAYER_CHANGE
;1
;_SET_FAN_SPEED_CHANGING_LAYER
; printing object Test Conico v1_conic_12.0.stl_1 id:105553134621760 copy 0
M204 S10000
G1 X129.154 Y125.188 Z1.4 F7200
G1 Z1
G1 E.9 F2100
;TYPE:Inner wall
;WIDTH:0.449999
G1 F3600
M106 S255
G1 X129.441 Y124.859 E.01446
G1 X130.249 Y124.639 E.02778
M204 S250
;TYPE:Overhang wall
G1 F1500
G1 X130.694 Y124.517 E.01532
G1 X131.013 Y124.542 E.01061
G1 X131.013 Y124.928 E.01278
M204 S10000
;TYPE:Inner wall
G1 F3600
M106 S255
G1 X131.013 Y125.049 E.00401
M204 S250
;TYPE:Overhang wall
G1 F1500
G1 X131.013 Y125.599 E.01826
G1 X128.536 Y126.731 E.09036
G1 X128.806 Y126.057 E.02408
M204 S10000
;TYPE:Inner wall
G1 F3600
M106 S255
G1 X129.14 Y125.225 E.02975
G1 X128.802 Y124.973 F7200
M204 S500
;TYPE:Outer wall
G1 F3600
G1 X129.214 Y124.499 E.02084
G1 X129.6 Y124.394 E.01326
M204 S250
;TYPE:Overhang wall
G1 F1500
G1 X130.631 Y124.113 E.03546
G1 X130.68 Y124.044 E.00279
G1 X130.866 Y124.11 E.00653
G1 X131.42 Y124.19 E.01857
G1 X131.42 Y125.861 E.05543
G1 X127.779 Y127.525 E.1328
G1 X128.269 Y126.303 E.04367
M204 S500
;TYPE:Outer wall
G1 F3600
M106 S255
G1 X128.787 Y125.01 E.04621
M204 S10000
G1 E-.9 F2700
G1 X126.856 Y128.469 Z1.4 F7200
G1 Z1
G1 E.9 F2100
M204 S500
;WIDTH:0.57879
G1 F3600
G1 X126.789 Y128.469 E.00292
G1 X126.756 Y128.527 E.00292
G1 X126.789 Y128.585 E.00292
G1 X126.856 Y128.585 E.00292
G1 X126.89 Y128.527 E.00292
M204 S10000
G1 E-.9 F2700
G1 X127.254 Y121.731 Z1.4 F7200
G1 Z1
G1 E.9 F2100
;TYPE:Inner wall
;WIDTH:0.627432
G1 F3600
G1 X127.254 Y121.163 E.02705
M204 S250
;TYPE:Overhang wall
G1 F1500
G1 X127.254 Y121.05 E.00539
G1 X127.684 Y121.278 E.02315
G1 X128.237 Y121.55 E.02939
;WIDTH:0.590894
G1 X128.791 Y121.821 E.02755
;WIDTH:0.554356
G1 X128.885 Y122.017 E.00902
M204 S10000
;TYPE:Inner wall
G1 F3600
M106 S255
G1 X129.105 Y122.477 E.02126
G1 X128.509 Y122.251 E.02659
;WIDTH:0.590894
G1 X127.881 Y121.991 E.03031
;WIDTH:0.627432
G1 X127.291 Y121.746 E.03043
G1 X126.759 Y122.08 F7200
M204 S500
;TYPE:Outer wall
;WIDTH:0.449999
G1 F3600
G1 X126.759 Y120.965 E.037
M204 S250
;TYPE:Overhang wall
G1 F1500
G1 X126.759 Y120.306 E.02187
G1 X127.37 Y120.55 E.02183
G1 X129.142 Y121.491 E.06656
G1 X130.015 Y123.311 E.06698
G1 X129.128 Y122.976 E.03145
M204 S500
;TYPE:Outer wall
G1 F3600
M106 S255
G1 X126.796 Y122.094 E.0827
M204 S10000
G1 E-.9 F2700
G1 X125.901 Y127.935 Z1.4 F7200
G1 Z1
G1 E.9 F2100
M204 S250
;TYPE:Overhang wall
G1 F1500
G1 X124.15 Y128.735 E.06388
G1 X121.698 Y129.027 E.08192
G1 X121.426 Y128.685 E.01448
M204 S10000
;TYPE:Inner wall
G1 F3600
M106 S255
G1 X118.461 Y124.948 E.15825
M204 S250
;TYPE:Overhang wall
G1 F1500
G1 X118.428 Y124.907 E.00175
G1 X119.684 Y122.087 E.1024
G1 X121.485 Y121.003 E.06974
G1 X125.901 Y122.673 E.15662
G1 X125.901 Y122.995 E.0107
M204 S10000
;TYPE:Inner wall
G1 F3600
M106 S255
G1 X125.901 Y127.385 E.1456
M204 S250
;TYPE:Overhang wall
G1 X125.901 Y127.895 E.01692
M204 S10000
G1 X126.309 Y127.199 F7200
M204 S250
G1 F3600
G1 X126.309 Y128.197 E.03311
G1 F1500
G1 X124.261 Y129.132 E.07468
G1 X121.52 Y129.458 E.09156
G1 X120.352 Y127.987 E.06231
G1 X118.951 Y126.222 E.07475
G1 X117.956 Y124.967 E.05313
G1 X119.364 Y121.805 E.11483
G1 X121.444 Y120.552 E.08054
G1 X126.309 Y122.391 E.1725
G1 X126.309 Y123.149 E.02514
M204 S500
;TYPE:Outer wall
G1 F3600
M106 S255
G1 X126.309 Y127.159 E.133
M204 S10000
G1 E-.9 F2700
G1 X125.276 Y128.042 Z1.4 F7200
G1 Z1
G1 E.9 F2100
M204 S250
;TYPE:Bridge
;WIDTH:0.45
G1 F1500
G1 X121.695 Y128.468 E.11963
G1 X121.398 Y128.094 E.01584
G1 X124.739 Y127.696 E.11161
G1 F3600
G1 X125.555 Y127.599 E.02726
G1 X125.555 Y127.323 E.00916
G1 X125.555 Y127.189 E.00445
G1 F1500
