; HEADER_BLOCK_START
; generated by OrcaSlicer 2.3.0 on 2025-12-15 at 12:04:24
; total layer number: 137
;_GP_TOTAL_LAYER_NUMBER_PLACEHOLDER
; filament_density: 1.24
; filament_diameter: 1.75
; max_z_height: 27.40
; HEADER_BLOCK_END

; THUMBNAIL_BLOCK_START

;
; THUMBNAIL_BLOCK_END

; THUMBNAIL_BLOCK_START

;
; THUMBNAIL_BLOCK_END

; external perimeters extrusion width = 0.45mm
; perimeters extrusion width = 0.45mm
; infill extrusion width = 0.45mm
; solid infill extrusion width = 0.45mm
; top infill extrusion width = 0.40mm

; EXECUTABLE_BLOCK_START
M73 P0 R27
M201 X10000 Y10000 Z500 E5000
M203 X500 Y500 Z10 E60
M204 P10000 R1000 T10000
M205 X8.00 Y8.00 Z0.40 E5.00 ; sets the jerk limits, mm/sec
;TYPE:Custom
G90 ; use absolute coordinates
M83 ; extruder relative mode
M204 S10000 T1000
M104 S220 ; set extruder temp
M140 S55 ; set bed temp
G28 ; home all
G1 X0.000 Y0.961 Z0.024
M190 S55 ; wait for bed temp
M109 S220 ; wait for extruder temp
G92 E0.0
; initial load
G1 X0.961 Y0.961 Z-0.090
G1 X1.923 Y0.961 Z-0.316
G1 X2.884 Y0.961 Z-0.572
G1 X3.845 Y0.961 Z-0.836
G1 X4.806 Y0.961 Z-1.105
G1 X5.768 Y0.961 Z-1.377
G1 X6.729 Y0.961 Z-1.649
G1 X7.690 Y0.961 Z-1.922
G1 X8.651 Y0.961 Z-2.196
G1 X9.613 Y0.961 Z-2.470
G1 X10.574 Y0.961 Z-2.745
G1 X11.535 Y0.961 Z-3.019
G1 X12.496 Y0.961 Z-3.294
G1 X13.458 Y0.961 Z-3.569
G1 X14.419 Y0.961 Z-3.844
G1 X15.380 Y0.961 Z-4.119
G1 X16.341 Y0.961 Z-4.394
G1 X17.303 Y0.961 Z-4.669
G1 X18.264 Y0.961 Z-4.944
G1 X19.225 Y0.961 Z-5.220
G1 X20.186 Y0.961 Z-5.495
G1 X21.148 Y0.961 Z-5.770
G1 X22.109 Y0.961 Z-6.046
G1 X23.070 Y0.961 Z-6.321
G1 X24.032 Y0.961 Z-6.596
G1 X24.993 Y0.961 Z-6.872
G1 X25.954 Y0.961 Z-7.147
G1 X26.915 Y0.961 Z-7.423
G1 X27.877 Y0.961 Z-7.698
G1 X28.838 Y0.961 Z-7.974
G1 X29.799 Y0.961 Z-8.249
G1 X30.760 Y0.961 Z-8.525
G1 X31.722 Y0.961 Z-8.800
G1 X32.683 Y0.961 Z-9.076
G1 X33.644 Y0.961 Z-9.351
G1 X34.605 Y0.961 Z-9.627
G1 X35.567 Y0.961 Z-9.902
G1 X36.528 Y0.961 Z-10.178
G1 X37.489 Y0.961 Z-10.453
G1 X38.450 Y0.961 Z-10.729
G1 X39.412 Y0.961 Z-11.004
G1 X40.373 Y0.961 Z-11.280
G1 X41.334 Y0.961 Z-11.556
G1 X42.296 Y0.961 Z-11.831
G1 X43.257 Y0.961 Z-12.107
G1 X44.218 Y0.961 Z-12.382
G1 X45.179 Y0.961 Z-12.658
G1 X46.141 Y0.961 Z-12.933
G1 X47.102 Y0.961 Z-13.209
G1 X48.063 Y0.961 Z-13.485
G1 X49.024 Y0.961 Z-13.760
G1 X49.986 Y0.961 Z-14.036
G1 X50.947 Y0.961 Z-14.311
G1 X51.908 Y0.961 Z-14.587
G1 X52.869 Y0.961 Z-14.863
G1 X53.831 Y0.961 Z-15.138
G1 X54.792 Y0.961 Z-15.414
G1 X55.753 Y0.961 Z-15.689
G1 X56.714 Y0.961 Z-15.965
G1 X57.676 Y0.961 Z-16.241
G1 X58.637 Y0.961 Z-16.516
G1 X59.598 Y0.961 Z-16.792
G1 X60.559 Y0.961 Z-17.067
G1 X61.521 Y0.961 Z-17.343
G1 X62.482 Y0.961 Z-17.619
G1 X63.443 Y0.961 Z-17.894
G1 X64.405 Y0.961 Z-18.170
G1 X65.366 Y0.961 Z-18.445
G1 X66.327 Y0.961 Z-18.721
G1 X67.288 Y0.961 Z-18.997
G1 X68.250 Y0.961 Z-19.272
G1 X69.211 Y0.961 Z-19.548
G1 X70.172 Y0.961 Z-19.823
G1 X71.133 Y0.961 Z-20.099
G1 X72.095 Y0.961 Z-20.375
G1 X73.056 Y0.961 Z-20.650
G1 X74.017 Y0.961 Z-20.926
G1 X74.978 Y0.961 Z-21.201
G1 X75.940 Y0.961 Z-21.477
G1 X76.901 Y0.961 Z-21.753
G1 X77.862 Y0.961 Z-22.028
G1 X78.823 Y0.961 Z-22.304
G1 X79.785 Y0.961 Z-22.580
G1 X80.746 Y0.961 Z-22.855
G1 X81.707 Y0.961 Z-23.131
G1 X82.669 Y0.961 Z-23.406
G1 X83.630 Y0.961 Z-23.682
G1 X84.591 Y0.961 Z-23.958
G1 X85.552 Y0.961 Z-24.233
G1 X86.514 Y0.961 Z-24.509
G1 X87.475 Y0.961 Z-24.785
G1 X88.436 Y0.961 Z-25.060
G1 X89.397 Y0.961 Z-25.336
G1 X90.359 Y0.961 Z-25.611
G1 X91.320 Y0.961 Z-25.887
G1 X92.281 Y0.961 Z-26.163
G1 X93.242 Y0.961 Z-26.438
G1 X94.204 Y0.961 Z-26.714
G1 X95.165 Y0.961 Z-26.989
G1 X96.126 Y0.961 Z-27.265
G1 X97.087 Y0.961 Z-27.541
G1 X98.049 Y0.961 Z-27.816
G1 X99.010 Y0.961 Z-28.092
G1 X99.971 Y0.961 Z-28.368
G1 X100.932 Y0.961 Z-28.643
G1 X101.894 Y0.961 Z-28.919
G1 X102.855 Y0.961 Z-29.194
G1 X103.816 Y0.961 Z-29.470
G1 X104.778 Y0.961 Z-29.746
G1 X105.739 Y0.961 Z-30.021
G1 X106.700 Y0.961 Z-30.297
G1 X107.661 Y0.961 Z-30.573
G1 X108.623 Y0.961 Z-30.848
G1 X109.584 Y0.961 Z-31.124
G1 X110.545 Y0.961 Z-31.399
G1 X111.506 Y0.961 Z-31.675
G1 X112.468 Y0.961 Z-31.951
G1 X113.429 Y0.961 Z-32.226
G1 X114.390 Y0.961 Z-32.502
G1 X115.351 Y0.961 Z-32.778
G1 X116.313 Y0.961 Z-33.053
G1 X117.274 Y0.961 Z-33.329
G1 X118.235 Y0.961 Z-33.605
G1 X119.196 Y0.961 Z-33.880
G1 X120.158 Y0.961 Z-34.156
G1 X121.119 Y0.961 Z-34.431
G1 X122.080 Y0.961 Z-34.707
G1 X123.041 Y0.961 Z-34.983
G1 X124.003 Y0.961 Z-35.258
G1 X124.964 Y0.961 Z-35.534
G1 X125.925 Y0.961 Z-35.810
G1 X126.887 Y0.961 Z-36.085
G1 X127.848 Y0.961 Z-36.361
G1 X128.809 Y0.961 Z-36.636
G1 X129.770 Y0.961 Z-36.912
G1 X130.732 Y0.961 Z-37.188
G1 X131.693 Y0.961 Z-37.463
G1 X132.654 Y0.961 Z-37.739
G1 X133.615 Y0.961 Z-38.015
G1 X134.577 Y0.961 Z-38.290
G1 X135.538 Y0.961 Z-38.566
G1 X136.499 Y0.961 Z-38.841
G1 X137.460 Y0.961 Z-39.117
G1 X138.422 Y0.961 Z-39.393
G1 X139.383 Y0.961 Z-39.668
G1 X140.344 Y0.961 Z-39.944
G1 X141.305 Y0.961 Z-40.220
G1 X142.267 Y0.961 Z-40.495
G1 X143.228 Y0.961 Z-40.771
G1 X144.189 Y0.961 Z-41.047
G1 X145.151 Y0.961 Z-41.322
G1 X146.112 Y0.961 Z-41.598
G1 X147.073 Y0.961 Z-41.873
G1 X148.034 Y0.961 Z-42.149
G1 X148.996 Y0.961 Z-42.425
G1 X149.957 Y0.961 Z-42.700
G1 X150.918 Y0.961 Z-42.976
G1 X151.879 Y0.961 Z-43.252
G1 X152.841 Y0.961 Z-43.527
G1 X153.802 Y0.961 Z-43.803
G1 X154.763 Y0.961 Z-44.078
G1 X155.724 Y0.961 Z-44.354
G1 X156.686 Y0.961 Z-44.630
G1 X157.647 Y0.961 Z-44.905
G1 X158.608 Y0.961 Z-45.181
G1 X159.569 Y0.961 Z-45.457
G1 X160.531 Y0.961 Z-45.732
G1 X161.492 Y0.961 Z-46.008
G1 X162.453 Y0.961 Z-46.284
G1 X163.414 Y0.961 Z-46.559
G1 X164.376 Y0.961 Z-46.835
G1 X165.337 Y0.961 Z-47.110
G1 X166.298 Y0.961 Z-47.386
G1 X167.260 Y0.961 Z-47.662
G1 X168.221 Y0.961 Z-47.937
G1 X169.182 Y0.961 Z-48.213
G1 X170.143 Y0.961 Z-48.489
G1 X171.105 Y0.961 Z-48.764
G1 X172.066 Y0.961 Z-49.040
G1 X173.027 Y0.961 Z-49.315
G1 X173.988 Y0.961 Z-49.591
G1 X174.950 Y0.961 Z-49.867
G1 X175.911 Y0.961 Z-50.142
G1 X176.872 Y0.961 Z-50.418
G1 X177.833 Y0.961 Z-50.694
G1 X178.795 Y0.961 Z-50.969
G1 X179.756 Y0.961 Z-51.245
G1 X180.717 Y0.961 Z-51.521
G1 X181.678 Y0.961 Z-51.796
G1 X182.640 Y0.961 Z-52.072
G1 X183.601 Y0.961 Z-52.347
G1 X184.562 Y0.961 Z-52.623
G1 X185.524 Y0.961 Z-52.899
G1 X186.485 Y0.961 Z-53.174
G1 X187.446 Y0.961 Z-53.450
G1 X188.407 Y0.961 Z-53.726
G1 X189.369 Y0.961 Z-54.001
G1 X190.330 Y0.961 Z-54.277
G1 X191.291 Y0.961 Z-54.553
G1 X192.252 Y0.961 Z-54.828
G1 X193.214 Y0.961 Z-55.104
G1 X194.175 Y0.961 Z-55.379
G1 X195.136 Y0.961 Z-55.655
G1 X196.097 Y0.961 Z-55.931
G1 X197.059 Y0.961 Z-56.206
G1 X197.059 Y1.538 Z-56.207
G1 X196.097 Y1.538 Z-55.932
G1 X195.136 Y1.538 Z-55.656
G1 X194.175 Y1.538 Z-55.380
G1 X193.214 Y1.538 Z-55.105
G1 X192.252 Y1.538 Z-54.829
G1 X191.291 Y1.538 Z-54.554
G1 X190.330 Y1.538 Z-54.278
G1 X189.369 Y1.538 Z-54.002
G1 X188.407 Y1.538 Z-53.727
G1 X187.446 Y1.538 Z-53.451
G1 X186.485 Y1.538 Z-53.175
G1 X185.524 Y1.538 Z-52.900
G1 X184.562 Y1.538 Z-52.624
G1 X183.601 Y1.538 Z-52.349
G1 X182.640 Y1.538 Z-52.073
G1 X181.678 Y1.538 Z-51.797
G1 X180.717 Y1.538 Z-51.522
G1 X179.756 Y1.538 Z-51.246
G1 X178.795 Y1.538 Z-50.970
G1 X177.833 Y1.538 Z-50.695
G1 X176.872 Y1.538 Z-50.419
G1 X175.911 Y1.538 Z-50.144
G1 X174.950 Y1.538 Z-49.868
G1 X173.988 Y1.538 Z-49.592
G1 X173.027 Y1.538 Z-49.317
G1 X172.066 Y1.538 Z-49.041
G1 X171.105 Y1.538 Z-48.765
G1 X170.143 Y1.538 Z-48.490
G1 X169.182 Y1.538 Z-48.214
G1 X168.221 Y1.538 Z-47.939
G1 X167.260 Y1.538 Z-47.663
G1 X166.298 Y1.538 Z-47.387
G1 X165.337 Y1.538 Z-47.112
G1 X164.376 Y1.538 Z-46.836
G1 X163.414 Y1.538 Z-46.560
G1 X162.453 Y1.538 Z-46.285
G1 X161.492 Y1.538 Z-46.009
G1 X160.531 Y1.538 Z-45.734
G1 X159.569 Y1.538 Z-45.458
G1 X158.608 Y1.538 Z-45.182
G1 X157.647 Y1.538 Z-44.907
G1 X156.686 Y1.538 Z-44.631
G1 X155.724 Y1.538 Z-44.355
G1 X154.763 Y1.538 Z-44.080
G1 X153.802 Y1.538 Z-43.804
G1 X152.841 Y1.538 Z-43.529
G1 X151.879 Y1.538 Z-43.253
G1 X150.918 Y1.538 Z-42.977
G1 X149.957 Y1.538 Z-42.702
G1 X148.996 Y1.538 Z-42.426
G1 X148.034 Y1.538 Z-42.150
G1 X147.073 Y1.538 Z-41.875
G1 X146.112 Y1.538 Z-41.599
G1 X145.151 Y1.538 Z-41.324
G1 X144.189 Y1.538 Z-41.048
G1 X143.228 Y1.538 Z-40.772
G1 X142.267 Y1.538 Z-40.497
G1 X141.305 Y1.538 Z-40.221
G1 X140.344 Y1.538 Z-39.945
G1 X139.383 Y1.538 Z-39.670
G1 X138.422 Y1.538 Z-39.394
G1 X137.460 Y1.538 Z-39.119
G1 X136.499 Y1.538 Z-38.843
G1 X135.538 Y1.538 Z-38.567
G1 X134.577 Y1.538 Z-38.292
G1 X133.615 Y1.538 Z-38.016
G1 X132.654 Y1.538 Z-37.741
G1 X131.693 Y1.538 Z-37.465
G1 X130.732 Y1.538 Z-37.189
G1 X129.770 Y1.538 Z-36.914
G1 X128.809 Y1.538 Z-36.638
G1 X127.848 Y1.538 Z-36.362
G1 X126.887 Y1.538 Z-36.087
G1 X125.925 Y1.538 Z-35.811
G1 X124.964 Y1.538 Z-35.536
G1 X124.003 Y1.538 Z-35.260
G1 X123.041 Y1.538 Z-34.984
G1 X122.080 Y1.538 Z-34.709
G1 X121.119 Y1.538 Z-34.433
G1 X120.158 Y1.538 Z-34.157
G1 X119.196 Y1.538 Z-33.882
G1 X118.235 Y1.538 Z-33.606
G1 X117.274 Y1.538 Z-33.331
G1 X116.313 Y1.538 Z-33.055
G1 X115.351 Y1.538 Z-32.779
G1 X114.390 Y1.538 Z-32.504
G1 X113.429 Y1.538 Z-32.228
G1 X112.468 Y1.538 Z-31.953
G1 X111.506 Y1.538 Z-31.677
G1 X110.545 Y1.538 Z-31.401
G1 X109.584 Y1.538 Z-31.126
G1 X108.623 Y1.538 Z-30.850
G1 X107.661 Y1.538 Z-30.575
G1 X106.700 Y1.538 Z-30.299
G1 X105.739 Y1.538 Z-30.023
G1 X104.778 Y1.538 Z-29.748
G1 X103.816 Y1.538 Z-29.472
G1 X102.855 Y1.538 Z-29.196
G1 X101.894 Y1.538 Z-28.921
G1 X100.932 Y1.538 Z-28.645
G1 X99.971 Y1.538 Z-28.370
G1 X99.010 Y1.538 Z-28.094
G1 X98.049 Y1.538 Z-27.818
G1 X97.087 Y1.538 Z-27.543
G1 X96.126 Y1.538 Z-27.267
G1 X95.165 Y1.538 Z-26.992
G1 X94.204 Y1.538 Z-26.716
G1 X93.242 Y1.538 Z-26.440
G1 X92.281 Y1.538 Z-26.165
G1 X91.320 Y1.538 Z-25.889
G1 X90.359 Y1.538 Z-25.614
G1 X89.397 Y1.538 Z-25.338
G1 X88.436 Y1.538 Z-25.062
G1 X87.475 Y1.538 Z-24.787
G1 X86.514 Y1.538 Z-24.511
G1 X85.552 Y1.538 Z-24.236
G1 X84.591 Y1.538 Z-23.960
G1 X83.630 Y1.538 Z-23.685
G1 X82.669 Y1.538 Z-23.409
G1 X81.707 Y1.538 Z-23.133
G1 X80.746 Y1.538 Z-22.858
G1 X79.785 Y1.538 Z-22.582
G1 X78.823 Y1.538 Z-22.307
G1 X77.862 Y1.538 Z-22.031
G1 X76.901 Y1.538 Z-21.755
G1 X75.940 Y1.538 Z-21.480
G1 X74.978 Y1.538 Z-21.204
G1 X74.017 Y1.538 Z-20.929
G1 X73.056 Y1.538 Z-20.653
G1 X72.095 Y1.538 Z-20.378
G1 X71.133 Y1.538 Z-20.102
G1 X70.172 Y1.538 Z-19.826
G1 X69.211 Y1.538 Z-19.551
G1 X68.250 Y1.538 Z-19.275
G1 X67.288 Y1.538 Z-19.000
G1 X66.327 Y1.538 Z-18.724
G1 X65.366 Y1.538 Z-18.449
G1 X64.405 Y1.538 Z-18.173
G1 X63.443 Y1.538 Z-17.897
G1 X62.482 Y1.538 Z-17.622
G1 X61.521 Y1.538 Z-17.346
G1 X60.559 Y1.538 Z-17.071
G1 X59.598 Y1.538 Z-16.795
G1 X58.637 Y1.538 Z-16.520
G1 X57.676 Y1.538 Z-16.244
G1 X56.714 Y1.538 Z-15.969
G1 X55.753 Y1.538 Z-15.693
G1 X54.792 Y1.538 Z-15.418
G1 X53.831 Y1.538 Z-15.142
G1 X52.869 Y1.538 Z-14.866
G1 X51.908 Y1.538 Z-14.591
G1 X50.947 Y1.538 Z-14.315
G1 X49.986 Y1.538 Z-14.040
G1 X49.024 Y1.538 Z-13.764
G1 X48.063 Y1.538 Z-13.489
G1 X47.102 Y1.538 Z-13.213
G1 X46.141 Y1.538 Z-12.938
G1 X45.179 Y1.538 Z-12.662
G1 X44.218 Y1.538 Z-12.387
G1 X43.257 Y1.538 Z-12.112
G1 X42.296 Y1.538 Z-11.836
G1 X41.334 Y1.538 Z-11.561
G1 X40.373 Y1.538 Z-11.285
G1 X39.412 Y1.538 Z-11.010
G1 X38.450 Y1.538 Z-10.734
G1 X37.489 Y1.538 Z-10.459
G1 X36.528 Y1.538 Z-10.184
G1 X35.567 Y1.538 Z-9.908
G1 X34.605 Y1.538 Z-9.633
G1 X33.644 Y1.538 Z-9.357
G1 X32.683 Y1.538 Z-9.082
G1 X31.722 Y1.538 Z-8.807
G1 X30.760 Y1.538 Z-8.531
G1 X29.799 Y1.538 Z-8.256
G1 X28.838 Y1.538 Z-7.981
G1 X27.877 Y1.538 Z-7.706
G1 X26.915 Y1.538 Z-7.430
G1 X25.954 Y1.538 Z-7.155
G1 X24.993 Y1.538 Z-6.880
G1 X24.032 Y1.538 Z-6.605
G1 X23.070 Y1.538 Z-6.330
G1 X22.109 Y1.538 Z-6.055
G1 X21.148 Y1.538 Z-5.780
G1 X20.186 Y1.538 Z-5.505
G1 X19.225 Y1.538 Z-5.230
G1 X18.264 Y1.538 Z-4.956
G1 X17.303 Y1.538 Z-4.681
G1 X16.341 Y1.538 Z-4.407
G1 X15.380 Y1.538 Z-4.132
G1 X14.419 Y1.538 Z-3.858
G1 X13.458 Y1.538 Z-3.584
G1 X12.496 Y1.538 Z-3.310
G1 X11.535 Y1.538 Z-3.037
G1 X10.574 Y1.538 Z-2.764
G1 X9.613 Y1.538 Z-2.491
G1 X8.651 Y1.538 Z-2.220
G1 X7.690 Y1.538 Z-1.949
G1 X6.729 Y1.538 Z-1.679
G1 X5.768 Y1.538 Z-1.412
G1 X4.806 Y1.538 Z-1.147
G92 E0.0
; intro line
G1 X4.806 Y1.923 Z-1.284
M73 P1 R27
G1 X5.768 Y1.923 Z-1.543
G1 X6.729 Y1.923 Z-1.807
G1 X7.690 Y1.923 Z-2.073
G1 X8.651 Y1.923 Z-2.341
G1 X9.613 Y1.923 Z-2.611
G1 X10.574 Y1.923 Z-2.882
G1 X11.535 Y1.923 Z-3.153
G1 X12.496 Y1.923 Z-3.425
G1 X13.458 Y1.923 Z-3.698
G1 X14.419 Y1.923 Z-3.971
G1 X15.380 Y1.923 Z-4.245
G1 X16.341 Y1.923 Z-4.518
G1 X17.303 Y1.923 Z-4.792
G1 X18.264 Y1.923 Z-5.066
G1 X19.225 Y1.923 Z-5.340
G1 X20.186 Y1.923 Z-5.615
G1 X21.148 Y1.923 Z-5.889
G1 X22.109 Y1.923 Z-6.164
G1 X23.070 Y1.923 Z-6.438
G1 X24.032 Y1.923 Z-6.713
G1 X24.993 Y1.923 Z-6.988
G1 X25.954 Y1.923 Z-7.263
G1 X26.915 Y1.923 Z-7.538
G1 X27.877 Y1.923 Z-7.812
G1 X28.838 Y1.923 Z-8.087
G1 X29.799 Y1.923 Z-8.363
G1 X30.760 Y1.923 Z-8.638
G1 X31.722 Y1.923 Z-8.913
G1 X32.683 Y1.923 Z-9.188
G1 X33.644 Y1.923 Z-9.463
G1 X34.605 Y1.923 Z-9.738
G1 X35.567 Y1.923 Z-10.013
G1 X36.528 Y1.923 Z-10.289
G1 X37.489 Y1.923 Z-10.564
G1 X38.450 Y1.923 Z-10.839
G1 X39.412 Y1.923 Z-11.115
G1 X40.373 Y1.923 Z-11.390
G1 X41.334 Y1.923 Z-11.665
G1 X42.296 Y1.923 Z-11.941
G1 X43.257 Y1.923 Z-12.216
G1 X44.218 Y1.923 Z-12.491
G1 X45.179 Y1.923 Z-12.767
G1 X46.141 Y1.923 Z-13.042
G1 X47.102 Y1.923 Z-13.317
G1 X48.063 Y1.923 Z-13.593
G1 X49.024 Y1.923 Z-13.868
G1 X49.986 Y1.923 Z-14.144
G1 X50.947 Y1.923 Z-14.419
G1 X51.908 Y1.923 Z-14.695
G1 X52.869 Y1.923 Z-14.970
G1 X53.831 Y1.923 Z-15.246
G1 X54.792 Y1.923 Z-15.521
G1 X55.753 Y1.923 Z-15.796
G1 X56.714 Y1.923 Z-16.072
G1 X57.676 Y1.923 Z-16.347
G1 X58.637 Y1.923 Z-16.623
G1 X59.598 Y1.923 Z-16.898
G1 X60.559 Y1.923 Z-17.174
G1 X61.521 Y1.923 Z-17.449
G1 X62.482 Y1.923 Z-17.725
G1 X63.443 Y1.923 Z-18.000
G1 X64.405 Y1.923 Z-18.276
G1 X65.366 Y1.923 Z-18.551
G1 X66.327 Y1.923 Z-18.827
G1 X67.288 Y1.923 Z-19.102
G1 X68.250 Y1.923 Z-19.378
G1 X69.211 Y1.923 Z-19.654
G1 X70.172 Y1.923 Z-19.929
G1 X71.133 Y1.923 Z-20.205
G1 X72.095 Y1.923 Z-20.480
G1 X73.056 Y1.923 Z-20.756
G1 X74.017 Y1.923 Z-21.031
G1 X74.978 Y1.923 Z-21.307
G1 X75.940 Y1.923 Z-21.582
G1 X76.901 Y1.923 Z-21.858
G1 X77.862 Y1.923 Z-22.133
G1 X78.823 Y1.923 Z-22.409
G1 X79.785 Y1.923 Z-22.685
G1 X80.746 Y1.923 Z-22.960
G1 X81.707 Y1.923 Z-23.236
G1 X82.669 Y1.923 Z-23.511
G1 X83.630 Y1.923 Z-23.787
G1 X84.591 Y1.923 Z-24.062
G1 X85.552 Y1.923 Z-24.338
G1 X86.514 Y1.923 Z-24.613
G1 X87.475 Y1.923 Z-24.889
G1 X88.436 Y1.923 Z-25.165
G1 X89.397 Y1.923 Z-25.440
G1 X90.359 Y1.923 Z-25.716
G1 X91.320 Y1.923 Z-25.991
G1 X92.281 Y1.923 Z-26.267
G1 X93.242 Y1.923 Z-26.543
G1 X94.204 Y1.923 Z-26.818
G1 X95.165 Y1.923 Z-27.094
G1 X96.126 Y1.923 Z-27.369
G1 X97.087 Y1.923 Z-27.645
G1 X98.049 Y1.923 Z-27.920
G1 X99.010 Y1.923 Z-28.196
G1 X99.971 Y1.923 Z-28.472
G1 X100.932 Y1.923 Z-28.747
G92 E0.0
G90
G21
M83 ; use relative distances for extrusion
; Filament gcode
M106 S0
;LAYER_CHANGE
;Z:0.2
;HEIGHT:0.2
;BEFORE_LAYER_CHANGE
;0.2
G92 E0

G1 E-.9 F2700
;AFTER_LAYER_CHANGE
;0.2
;_SET_FAN_SPEED_CHANGING_LAYER
M204 S300
G1 X101.017 Y2.874 Z-28.778
G1 X101.102 Y3.825 Z-28.811
G1 X101.186 Y4.776 Z-28.847
G1 X101.271 Y5.728 Z-28.885
G1 X101.356 Y6.679 Z-28.926
G1 X101.440 Y7.630 Z-28.970
G1 X101.525 Y8.581 Z-29.016
G1 X101.609 Y9.533 Z-29.064
G1 X101.694 Y10.484 Z-29.115
G1 X101.779 Y11.435 Z-29.168
G1 X101.863 Y12.386 Z-29.224
G1 X101.948 Y13.338 Z-29.282
G1 X102.032 Y14.289 Z-29.343
G1 X102.117 Y15.240 Z-29.406
G1 X102.202 Y16.191 Z-29.471
G1 X102.286 Y17.143 Z-29.539
G1 X102.371 Y18.094 Z-29.609
G1 X102.455 Y19.045 Z-29.682
G1 X102.540 Y19.997 Z-29.757
G1 X102.625 Y20.948 Z-29.834
G1 X102.709 Y21.899 Z-29.913
G1 X102.794 Y22.850 Z-29.995
G1 X102.878 Y23.802 Z-30.079
G1 X102.963 Y24.753 Z-30.165
G1 X103.048 Y25.704 Z-30.254
G1 X103.132 Y26.655 Z-30.344
G1 X103.217 Y27.607 Z-30.437
G1 X103.301 Y28.558 Z-30.532
G1 X103.386 Y29.509 Z-30.629
G1 X103.471 Y30.460 Z-30.729
G1 X103.555 Y31.412 Z-30.830
G1 X103.640 Y32.363 Z-30.933
G1 X103.725 Y33.314 Z-31.039
G1 X103.809 Y34.265 Z-31.146
