; generated by SuperSlicer 2.5.59.13 on 2025-12-16 at 13:20:39 UTC

; 

; external perimeters extrusion width = 1.00mm
; perimeters extrusion width = 1.00mm
; infill extrusion width = 1.00mm
; solid infill extrusion width = 1.00mm
; top infill extrusion width = 1.00mm
; first layer extrusion width = 1.00mm

; object:{"name":"Test_base3mm_conic","id":"Test_base3mm_conic.stl id:0 copy 0","object_center":[-13.003743,0.000000,0.000000],"boundingbox_center":[-13.003743,0.000000,30.017147],"boundingbox_size":[46.813477,20.801426,60.034294]}
; Total objects to print: 1
M486 T1
; plater:{"center":[-13.003743,0.000000,0.000000],"boundingbox_center":[-13.003743,0.000000,30.017147],"boundingbox_size":[46.813477,20.801426,60.034294]}

M107 ; disable fan
M140 S65 ; set bed temperature
M104 S210 ; set temperature
;TYPE:Custom
; custom gcode: start_gcode
G28 ; home all axes
 M117 Purge extruder
 G92 E0 ; reset extruder
 G1 Z1.0 F3000 ; move z up little to prevent scratching of surface
 G1 X2 Y20 Z0.3 F5000.0 ; move to start-line position
 G1 X2 Y200.0 Z0.3 F1500.0 E15 ; draw 1st line
 G1 X2 Y200.0 Z0.4 F5000.0 ; move to side a little
 G1 X2 Y20 Z0.4 F1500.0 E30 ; draw 2nd line
 G92 E0 ; reset extruder
 G1 Z1.0 F3000 ; move z up little to prevent scratching of surface
; custom gcode end: start_gcode

M107 ; disable fan
G21 ; set units to millimeters
G90 ; use absolute coordinates
M83 ; use relative distances for extrusion
; custom gcode: start_filament_gcode
; Filament gcode
; custom gcode end: start_filament_gcode
M109 S210 ; set temperature and wait for it to be reached
M190 S65 ; set bed temperature and wait for it to be reached
;LAYER_CHANGE
;Z:0.4
;HEIGHT:0.4
; custom gcode: before_layer_gcode
;BEFORE_LAYER_CHANGE
;0.4
G92 E0
; custom gcode end: before_layer_gcode

G1 E-1.9 F2100 ; retract
G1 Z0.7 F7800 ; lift Z
; custom gcode: layer_gcode
;AFTER_LAYER_CHANGE
;0.4
; custom gcode end: layer_gcode

G1 Z1.1 ; lift Z
; printing object Test_base3mm_conic.stl id:0 copy 0
M486 S0
M204 S500 ; adjust acceleration
G1 X-9.894 Y-0.416 ; move to first perimeter point (minimum acceleration)
G1 Z0.5 ; restore layer Z
G1 E1.9 F2100 ; unretract
;TYPE:External perimeter
;WIDTH:1.000000
M107 ; disable fan
G1 F900
G1 X-9.824 Y-1.245 E0.0569 ; perimeter
G1 X-9.685 Y-2.065 E0.0569 ; perimeter
G1 X-9.48 Y-2.863 E0.05638 ; perimeter
G1 X-9.209 Y-3.641 E0.05639 ; perimeter
G1 X-8.871 Y-4.401 E0.0569 ; perimeter
G1 X-8.47 Y-5.13 E0.05689 ; perimeter
G1 X-8.01 Y-5.823 E0.05688 ; perimeter
G1 X-7.498 Y-6.469 E0.05643 ; perimeter
G1 X-6.933 Y-7.07 E0.05643 ; perimeter
G1 X-6.312 Y-7.63 E0.05719 ; perimeter
G1 X-5.652 Y-8.131 E0.05673 ; perimeter
G1 X-4.951 Y-8.576 E0.05674 ; perimeter
G1 X-4.216 Y-8.96 E0.05673 ; perimeter
G1 X-3.452 Y-9.281 E0.05674 ; perimeter
G1 X-2.663 Y-9.538 E0.05674 ; perimeter
G1 X-1.856 Y-9.727 E0.05674 ; perimeter
G1 X-1.035 Y-9.848 E0.05673 ; perimeter
G1 X-0.207 Y-9.9 E0.05674 ; perimeter
G1 X0.622 Y-9.883 E0.05674 ; perimeter
G1 X1.447 Y-9.796 E0.05673 ; perimeter
G1 X2.261 Y-9.641 E0.05674 ; perimeter
G1 X3.06 Y-9.418 E0.05674 ; perimeter
G1 X3.837 Y-9.129 E0.05674 ; perimeter
G1 X4.588 Y-8.776 E0.05673 ; perimeter
G1 X5.306 Y-8.361 E0.05674 ; perimeter
G1 X5.987 Y-7.888 E0.05674 ; perimeter
G1 X6.626 Y-7.359 E0.05673 ; perimeter
G1 X7.219 Y-6.779 E0.05674 ; perimeter
G1 X7.761 Y-6.151 E0.05674 ; perimeter
G1 X8.248 Y-5.48 E0.05674 ; perimeter
G1 X8.678 Y-4.771 E0.05673 ; perimeter
G1 X9.046 Y-4.028 E0.05674 ; perimeter
G1 X9.352 Y-3.257 E0.05674 ; perimeter
G1 X9.591 Y-2.463 E0.05674 ; perimeter
G1 X9.764 Y-1.651 E0.05673 ; perimeter
G1 X9.868 Y-0.829 E0.05674 ; perimeter
G1 X9.903 Y0.000000 E0.05674 ; perimeter
G1 X9.868 Y0.829 E0.05673 ; perimeter
G1 X9.764 Y1.651 E0.05674 ; perimeter
G1 X9.591 Y2.463 E0.05674 ; perimeter
G1 X9.352 Y3.257 E0.05674 ; perimeter
G1 X9.046 Y4.028 E0.05673 ; perimeter
G1 X8.678 Y4.771 E0.05674 ; perimeter
G1 X8.248 Y5.48 E0.05674 ; perimeter
G1 X7.761 Y6.151 E0.05674 ; perimeter
G1 X7.219 Y6.779 E0.05673 ; perimeter
G1 X6.626 Y7.359 E0.05674 ; perimeter
G1 X5.987 Y7.888 E0.05674 ; perimeter
G1 X5.306 Y8.361 E0.05674 ; perimeter
G1 X4.588 Y8.776 E0.05673 ; perimeter
G1 X3.837 Y9.129 E0.05674 ; perimeter
G1 X3.06 Y9.418 E0.05674 ; perimeter
G1 X2.261 Y9.641 E0.05673 ; perimeter
G1 X1.447 Y9.796 E0.05674 ; perimeter
G1 X0.622 Y9.883 E0.05674 ; perimeter
G1 X-0.207 Y9.9 E0.05674 ; perimeter
G1 X-1.035 Y9.848 E0.05673 ; perimeter
G1 X-1.856 Y9.727 E0.05674 ; perimeter
G1 X-2.663 Y9.538 E0.05674 ; perimeter
G1 X-3.452 Y9.281 E0.05674 ; perimeter
G1 X-4.216 Y8.96 E0.05673 ; perimeter
G1 X-4.951 Y8.576 E0.05674 ; perimeter
G1 X-5.652 Y8.131 E0.05674 ; perimeter
G1 X-6.312 Y7.63 E0.05673 ; perimeter
G1 X-6.929 Y7.075 E0.05674 ; perimeter
G1 X-7.493 Y6.474 E0.05644 ; perimeter
G1 X-8.01 Y5.822 E0.05687 ; perimeter
G1 X-8.47 Y5.13 E0.05688 ; perimeter
G1 X-8.871 Y4.401 E0.05688 ; perimeter
G1 X-9.209 Y3.641 E0.05691 ; perimeter
G1 X-9.48 Y2.863 E0.05639 ; perimeter
G1 X-9.685 Y2.065 E0.05638 ; perimeter
G1 X-9.824 Y1.245 E0.0569 ; perimeter
G1 X-9.894 Y0.416 E0.0569 ; perimeter
G1 X-9.894 Y-0.266 E0.04664 ; perimeter
M107 ; disable fan
;WIPE_START
M204 S1000 ; adjust acceleration
G1 X-9.37 Y-0.68 F7800 ; move inwards before wipe
;WIPE_END
;WIPE_START
G1 F6240
G1 X-9.328 Y-1.182 E-0.16081 ; wipe and retract
G1 X-9.195 Y-1.96 E-0.25254 ; wipe and retract
G1 X-9.001 Y-2.718 E-0.25014 ; wipe and retract
G1 X-8.743 Y-3.457 E-0.25016 ; wipe and retract
G1 X-8.422 Y-4.179 E-0.25254 ; wipe and retract
G1 X-8.042 Y-4.871 E-0.25241 ; wipe and retract
G1 X-7.605 Y-5.528 E-0.25244 ; wipe and retract
G1 X-7.345 Y-5.857 E-0.13396 ; wipe and retract
;WIPE_END
G1 E-0.095 F2100 ; retract
G1 Z1.1 F7800 ; lift Z
; acceleration to travel
M204 S1500 ; adjust acceleration
G1 X6.491 Y-4.509 ; move to first Solid infill point (acceleration)
; decel to extrusion
M204 S500 ; adjust acceleration
G1 X8.384 Y-4.325 ; move to first Solid infill point (deceleration)
; end travel
G1 Z0.5 ; restore layer Z
G1 E1.9 F2100 ; unretract
;TYPE:Solid infill
M107 ; disable fan
G1 F1641
G1 X5.932 Y-6.777 E0.23725 ; Solid infill
G1 X5.448 Y-7.177 E0.04294 ; Solid infill
G1 X4.828 Y-7.608 E0.05163 ; Solid infill
G1 X4.175 Y-7.985 E0.05163 ; Solid infill
G1 X3.492 Y-8.307 E0.05163 ; Solid infill
G1 X2.703 Y-8.592 E0.05736 ; Solid infill
G1 X8.586 Y-2.71 E0.56915 ; Solid infill
G1 X8.728 Y-2.241 E0.0335 ; Solid infill
G1 X8.885 Y-1.503 E0.05163 ; Solid infill
G1 X8.958 Y-0.925 E0.03981 ; Solid infill
G1 X0.928 Y-8.955 E0.77686 ; Solid infill
G1 X0.566 Y-8.993 E0.02492 ; Solid infill
G1 X-0.189 Y-9.009 E0.05162 ; Solid infill
G1 X-0.518 Y-8.988 E0.02259 ; Solid infill
G1 X8.989 Y0.519 E0.91981 ; Solid infill
G1 X8.979 Y0.754 E0.01608 ; Solid infill
G1 X8.885 Y1.503 E0.05163 ; Solid infill
G1 X8.828 Y1.771 E0.01875 ; Solid infill
G1 X-1.774 Y-8.831 E1.02571 ; Solid infill
G1 X-2.423 Y-8.679 E0.04561 ; Solid infill
G1 X-2.885 Y-8.529 E0.03321 ; Solid infill
G1 X8.532 Y2.888 E1.1046 ; Solid infill
G1 X8.232 Y3.665 E0.05697 ; Solid infill
G1 X8.12 Y3.889 E0.01714 ; Solid infill
G1 X-3.893 Y-8.124 E1.16227 ; Solid infill
G1 X-4.505 Y-7.804 E0.04729 ; Solid infill
G1 X-4.799 Y-7.617 E0.0238 ; Solid infill
G1 X7.618 Y4.8 E1.20136 ; Solid infill
G1 X7.505 Y4.987 E0.0149 ; Solid infill
G1 X7.034 Y5.629 E0.05452 ; Solid infill
G1 X-5.627 Y-7.032 E1.22491 ; Solid infill
G1 X-6.373 Y-6.365 E0.06846 ; Solid infill
G1 X6.362 Y6.37 E1.23214 ; Solid infill
G1 X6.029 Y6.696 E0.03187 ; Solid infill
G1 X5.617 Y7.038 E0.03664 ; Solid infill
G1 X-7.037 Y-5.616 E1.22422 ; Solid infill
G1 X-7.288 Y-5.298 E0.02771 ; Solid infill
G1 X-7.625 Y-4.791 E0.04164 ; Solid infill
G1 X4.794 Y7.628 E1.20155 ; Solid infill
G1 X4.175 Y7.985 E0.04891 ; Solid infill
G1 X3.878 Y8.125 E0.02244 ; Solid infill
G1 X-8.127 Y-3.88 E1.16149 ; Solid infill
G1 X-8.38 Y-3.313 E0.04245 ; Solid infill
G1 X-8.533 Y-2.873 E0.03191 ; Solid infill
G1 X2.876 Y8.536 E1.10376 ; Solid infill
G1 X2.058 Y8.773 E0.05828 ; Solid infill
G1 X1.757 Y8.83 E0.02093 ; Solid infill
G1 X-8.833 Y-1.76 E1.02455 ; Solid infill
G1 X-8.939 Y-1.132 E0.04353 ; Solid infill
G1 X-8.992 Y-0.506 E0.04301 ; Solid infill
G1 X0.508 Y8.994 E0.91914 ; Solid infill
G1 X-0.189 Y9.009 E0.04768 ; Solid infill
G1 X-0.937 Y8.962 E0.05132 ; Solid infill
G1 X-8.955 Y0.944 E0.77571 ; Solid infill
G1 X-8.939 Y1.132 E0.01295 ; Solid infill
G1 X-8.813 Y1.879 E0.0518 ; Solid infill
G1 X-8.583 Y2.729 E0.06026 ; Solid infill
G1 X-2.734 Y8.578 E0.56584 ; Solid infill
G1 X-3.141 Y8.446 E0.02925 ; Solid infill
G1 X-3.837 Y8.153 E0.05163 ; Solid infill
G1 X-4.505 Y7.804 E0.05163 ; Solid infill
G1 X-5.143 Y7.399 E0.05163 ; Solid infill
G1 X-5.744 Y6.943 E0.05162 ; Solid infill
G1 X-6.129 Y6.596 E0.0355 ; Solid infill
G1 X-8.369 Y4.356 E0.21671 ; Solid infill
M107 ; disable fan
M106 S127.5 ; set fan for new extruder
;LAYER_CHANGE
;Z:0.9
;HEIGHT:0.5
; custom gcode: before_layer_gcode
;BEFORE_LAYER_CHANGE
;0.9
G92 E0
; custom gcode end: before_layer_gcode

;WIPE_START
G1 F6240
M204 S1000 ; adjust acceleration
G1 X-6.129 Y6.596 E-1.01278 ; wipe and retract
G1 X-5.744 Y6.943 E-0.16588 ; wipe and retract
G1 X-5.143 Y7.399 E-0.24127 ; wipe and retract
G1 X-4.505 Y7.804 E-0.24128 ; wipe and retract
G1 X-4.107 Y8.012 E-0.14379 ; wipe and retract
;WIPE_END
G1 E-0.095 F2100 ; retract
G1 Z1.1 F7800 ; lift Z
; stop printing object Test_base3mm_conic.stl id:0 copy 0
M486 S-1
; custom gcode: layer_gcode
;AFTER_LAYER_CHANGE
;0.9
; custom gcode end: layer_gcode

M140 S60 ; set bed temperature
; printing object Test_base3mm_conic.stl id:0 copy 0
M486 S0
M204 S800 ; adjust acceleration
G1 X-4.951 Y8.576 ; move to first perimeter point (minimum acceleration)
G1 Z1.000000 ; restore layer Z
G1 E1.9 F2100 ; unretract
;TYPE:External perimeter
M106 S127.5 ; set fan for External perimeter
G1 F900
G1 X-5.652 Y8.131 E0.07695 ; perimeter
G1 X-6.312 Y7.63 E0.07695 ; perimeter
G1 X-6.929 Y7.075 E0.07697 ; perimeter
G1 X-7.487 Y6.481 E0.0756 ; perimeter
G1 X-8.007 Y5.827 E0.07756 ; perimeter
G1 X-8.47 Y5.131 E0.07757 ; perimeter
G1 X-8.873 Y4.398 E0.07761 ; perimeter
G1 X-9.212 Y3.632 E0.0777 ; perimeter
G1 X-9.479 Y2.865 E0.0754 ; perimeter
G1 X-9.682 Y2.078 E0.07538 ; perimeter
G1 X-9.823 Y1.253 E0.07769 ; perimeter
G1 X-9.894 Y0.419 E0.07766 ; perimeter
G1 X-9.894 Y-0.419 E0.07767 ; perimeter
G1 X-9.823 Y-1.253 E0.07766 ; perimeter
G1 X-9.682 Y-2.078 E0.07768 ; perimeter
G1 X-9.479 Y-2.865 E0.07538 ; perimeter
G1 X-9.212 Y-3.632 E0.07541 ; perimeter
G1 X-8.873 Y-4.398 E0.07769 ; perimeter
G1 X-8.47 Y-5.131 E0.07762 ; perimeter
G1 X-8.007 Y-5.827 E0.0776 ; perimeter
G1 X-7.501 Y-6.465 E0.07556 ; perimeter
G1 X-6.943 Y-7.06 E0.07563 ; perimeter
G1 X-6.312 Y-7.63 E0.07893 ; perimeter
G1 X-5.652 Y-8.131 E0.07692 ; perimeter
G1 X-4.951 Y-8.576 E0.07695 ; perimeter
G1 X-4.216 Y-8.96 E0.07695 ; perimeter
G1 X-3.452 Y-9.281 E0.07695 ; perimeter
G1 X-2.663 Y-9.538 E0.07696 ; perimeter
G1 X-1.856 Y-9.727 E0.07695 ; perimeter
G1 X-1.035 Y-9.848 E0.07695 ; perimeter
G1 X-0.208 Y-9.9 E0.07695 ; perimeter
G1 X0.511 Y-9.885 E0.06666 ; perimeter
G1 X1.446 Y-9.796 E0.08722 ; perimeter
G1 X2.261 Y-9.641 E0.07695 ; perimeter
G1 X3.06 Y-9.418 E0.07695 ; perimeter
G1 X3.837 Y-9.129 E0.07695 ; perimeter
G1 X4.588 Y-8.776 E0.07696 ; perimeter
G1 X5.306 Y-8.361 E0.07695 ; perimeter
G1 X5.987 Y-7.888 E0.07695 ; perimeter
G1 X6.626 Y-7.359 E0.07695 ; perimeter
G1 X7.219 Y-6.779 E0.07696 ; perimeter
G1 X7.761 Y-6.151 E0.07695 ; perimeter
G1 X8.248 Y-5.48 E0.07695 ; perimeter
G1 X8.678 Y-4.771 E0.07695 ; perimeter
G1 X9.046 Y-4.028 E0.07695 ; perimeter
G1 X9.352 Y-3.257 E0.07696 ; perimeter
G1 X9.591 Y-2.463 E0.07695 ; perimeter
G1 X9.764 Y-1.651 E0.07695 ; perimeter
G1 X9.868 Y-0.829 E0.07695 ; perimeter
G1 X9.903 Y0.000000 E0.07696 ; perimeter
G1 X9.868 Y0.829 E0.07695 ; perimeter
G1 X9.764 Y1.651 E0.07695 ; perimeter
G1 X9.591 Y2.463 E0.07695 ; perimeter
G1 X9.352 Y3.257 E0.07696 ; perimeter
G1 X9.046 Y4.028 E0.07695 ; perimeter
G1 X8.678 Y4.771 E0.07695 ; perimeter
G1 X8.248 Y5.48 E0.07695 ; perimeter
G1 X7.761 Y6.151 E0.07695 ; perimeter
G1 X7.219 Y6.779 E0.07696 ; perimeter
G1 X6.626 Y7.359 E0.07695 ; perimeter
G1 X5.987 Y7.888 E0.07695 ; perimeter
G1 X5.306 Y8.361 E0.07695 ; perimeter
G1 X4.588 Y8.776 E0.07696 ; perimeter
G1 X3.837 Y9.129 E0.07695 ; perimeter
G1 X3.06 Y9.418 E0.07695 ; perimeter
G1 X2.261 Y9.641 E0.07695 ; perimeter
G1 X1.446 Y9.796 E0.07695 ; perimeter
G1 X0.622 Y9.883 E0.07696 ; perimeter
G1 X-0.208 Y9.9 E0.07695 ; perimeter
G1 X-1.035 Y9.848 E0.07695 ; perimeter
G1 X-1.856 Y9.727 E0.07695 ; perimeter
G1 X-2.663 Y9.538 E0.07696 ; perimeter
G1 X-3.452 Y9.281 E0.07695 ; perimeter
G1 X-4.216 Y8.96 E0.07695 ; perimeter
G1 X-4.818 Y8.645 E0.06304 ; perimeter
M106 S127.5 ; set default fan
;WIPE_START
M204 S1000 ; adjust acceleration
G1 X-4.943 Y7.989 F7800 ; move inwards before wipe
;WIPE_END
;WIPE_START
G1 F6240
G1 X-5.366 Y7.72 E-0.16011 ; wipe and retract
G1 X-5.993 Y7.244 E-0.25176 ; wipe and retract
G1 X-6.579 Y6.717 E-0.25182 ; wipe and retract
G1 X-7.108 Y6.154 E-0.24722 ; wipe and retract
G1 X-7.602 Y5.532 E-0.25384 ; wipe and retract
G1 X-8.042 Y4.871 E-0.25376 ; wipe and retract
G1 X-8.424 Y4.175 E-0.2539 ; wipe and retract
G1 X-8.592 Y3.796 E-0.13259 ; wipe and retract
;WIPE_END
G1 E-0.095 F2100 ; retract
G1 Z1.6 F7800 ; lift Z
; acceleration to travel
M204 S1500 ; adjust acceleration
G1 X1.748 Y7.391 ; move to first Solid infill point (acceleration)
; decel to extrusion
M204 S1000 ; adjust acceleration
G1 X4.459 Y8.334 ; move to first Solid infill point (deceleration)
; end travel
G1 Z1.000000 ; restore layer Z
G1 E1.9 F2100 ; unretract
;TYPE:Solid infill
;WIDTH:0.9
M106 S127.5 ; set fan for Solid infill
G1 F1808
G1 X6.77 Y6.023 E0.26926 ; Solid infill
G1 X7.107 Y5.633 E0.04248 ; Solid infill
G1 X7.553 Y5.019 E0.06258 ; Solid infill
G1 X7.947 Y4.369 E0.06258 ; Solid infill
G1 X8.285 Y3.689 E0.06257 ; Solid infill
G1 X8.575 Y2.947 E0.06559 ; Solid infill
G1 X2.954 Y8.569 E0.65498 ; Solid infill
G1 X2.071 Y8.829 E0.07583 ; Solid infill
G1 X1.274 Y8.977 E0.06675 ; Solid infill
G1 X8.971 Y1.28 E0.89683 ; Solid infill
G1 X9.037 Y0.759 E0.04327 ; Solid infill
G1 X9.065 Y-0.085 E0.0696 ; Solid infill
G1 X-0.085 Y9.064 E1.06614 ; Solid infill
G1 X-0.948 Y9.019 E0.07122 ; Solid infill
G1 X-1.264 Y8.972 E0.02631 ; Solid infill
G1 X8.973 Y-1.265 E1.1928 ; Solid infill
G1 X8.942 Y-1.512 E0.02057 ; Solid infill
G1 X8.763 Y-2.325 E0.0686 ; Solid infill
G1 X-2.324 Y8.761 E1.29184 ; Solid infill
G1 X-3.283 Y8.449 E0.08307 ; Solid infill
G1 X8.446 Y-3.28 E1.36666 ; Solid infill
G1 X8.285 Y-3.689 E0.03617 ; Solid infill
G1 X8.052 Y-4.157 E0.04313 ; Solid infill
G1 X-4.157 Y8.051 E1.42252 ; Solid infill
G1 X-4.534 Y7.854 E0.03513 ; Solid infill
G1 X-4.96 Y7.583 E0.04154 ; Solid infill
G1 X7.587 Y-4.964 E1.46196 ; Solid infill
G1 X7.05 Y-5.699 E0.07496 ; Solid infill
G1 X-5.698 Y7.05 E1.48546 ; Solid infill
G1 X-6.371 Y6.452 E0.07419 ; Solid infill
G1 X6.448 Y-6.367 E1.49365 ; Solid infill
G1 X6.068 Y-6.739 E0.04382 ; Solid infill
G1 X5.784 Y-6.974 E0.03039 ; Solid infill
G1 X-6.976 Y5.785 E1.48672 ; Solid infill
G1 X-7.333 Y5.336 E0.04726 ; Solid infill
G1 X-7.518 Y5.057 E0.02766 ; Solid infill
G1 X5.057 Y-7.519 E1.46531 ; Solid infill
G1 X4.859 Y-7.657 E0.01988 ; Solid infill
G1 X4.266 Y-7.999 E0.05642 ; Solid infill
G1 X-7.996 Y4.263 E1.42876 ; Solid infill
G1 X-8.125 Y4.027 E0.02214 ; Solid infill
G1 X-8.404 Y3.399 E0.05659 ; Solid infill
G1 X3.399 Y-8.403 E1.37522 ; Solid infill
G1 X2.802 Y-8.625 E0.05242 ; Solid infill
G1 X2.448 Y-8.724 E0.03031 ; Solid infill
G1 X-8.726 Y2.45 E1.30193 ; Solid infill
G1 X-8.866 Y1.903 E0.0465 ; Solid infill
G1 X-8.952 Y1.405 E0.04169 ; Solid infill
G1 X1.408 Y-8.955 E1.20714 ; Solid infill
G1 X0.462 Y-9.053 E0.07835 ; Solid infill
G1 X0.239 Y-9.058 E0.01838 ; Solid infill
G1 X-9.06 Y0.242 E1.08362 ; Solid infill
G1 X-9.06 Y-0.383 E0.05154 ; Solid infill
G1 X-9.001 Y-1.089 E0.05835 ; Solid infill
