; generated by SuperSlicer 2.5.59.13 on 2025-12-16 at 15:47:42 UTC

; 

; external perimeters extrusion width = 0.42mm
; perimeters extrusion width = 0.42mm
; infill extrusion width = 0.42mm
; solid infill extrusion width = 0.42mm
; top infill extrusion width = 0.42mm
; first layer extrusion width = 0.42mm

; object:{"name":"Test_base3mm_conic","id":"Test_base3mm_conic.stl id:0 copy 0","object_center":[-13.003743,0.000000,0.000000],"boundingbox_center":[-13.003743,0.000000,21.520431],"boundingbox_size":[46.813477,20.801426,60.034294]}
; Total objects to print: 1
M486 T1
; plater:{"center":[-13.003743,0.000000,0.000000],"boundingbox_center":[-13.003743,0.000000,21.520431],"boundingbox_size":[46.813477,20.801426,60.034294]}

M107 ; disable fan
M140 S60 ; set bed temperature
M104 S230 ; set temperature
;TYPE:Custom
; custom gcode: start_gcode
G28 ; home all axes
 M117 Purge extruder
 G92 E0 ; reset extruder
 G1 Z1.0 F3000 ; move z up little to prevent scratching of surface
 G1 X2 Y20 Z0.3 F5000.0 ; move to start-line position
 G1 X2 Y200.0 Z0.3 F1500.0 E15 ; draw 1st line
 G1 X2 Y200.0 Z0.4 F5000.0 ; move to side a little
 G1 X2 Y20 Z0.4 F1500.0 E30 ; draw 2nd line
 G92 E0 ; reset extruder
 G1 Z1.0 F3000 ; move z up little to prevent scratching of surface
; custom gcode end: start_gcode

M107 ; disable fan
G21 ; set units to millimeters
G90 ; use absolute coordinates
M83 ; use relative distances for extrusion
; custom gcode: start_filament_gcode
; Filament gcode
; custom gcode end: start_filament_gcode
M109 S230 ; set temperature and wait for it to be reached
M190 S60 ; set bed temperature and wait for it to be reached
;LAYER_CHANGE
;Z:0.2
;HEIGHT:0.2
; custom gcode: before_layer_gcode
;BEFORE_LAYER_CHANGE
;0.2
G92 E0
; custom gcode end: before_layer_gcode

G1 X150.000 Y150.000 Z0.200 E-1.90000
G1 X150.000 Y150.000 Z0.600
; custom gcode: layer_gcode
;AFTER_LAYER_CHANGE
;0.2
; custom gcode end: layer_gcode

G1 X150.000 Y150.000 Z0.800
; printing object Test_base3mm_conic.stl id:0 copy 0
M486 S0
M204 S500 ; adjust acceleration
G1 X149.058 Y150.044 Z0.600
G1 X148.115 Y150.089 Z0.600
G1 X147.173 Y150.133 Z0.600
G1 X146.230 Y150.178 Z0.600
G1 X145.288 Y150.222 Z0.600
G1 X144.345 Y150.266 Z0.600
G1 X143.403 Y150.311 Z0.600
G1 X142.461 Y150.355 Z0.600
G1 X141.518 Y150.400 Z0.600
G1 X140.576 Y150.444 Z0.600
G1 X140.576 Y150.444 Z0.600
G1 X140.576 Y150.444 Z0.600 E1.90000
;TYPE:Internal perimeter
;WIDTH:0.42
M107 ; disable fan
G1 F1200
G1 X140.576 Y149.556 Z0.600 E0.02898
G1 X140.659 Y148.672 Z0.600 E0.02893
G1 X140.827 Y147.799 Z0.600 E0.02902
G1 X140.977 Y147.243 Z0.600 E0.01877
G1 X141.164 Y146.694 Z0.600 E0.01892
G1 X141.515 Y145.875 Z0.600 E0.02908
G1 X141.936 Y145.101 Z0.600 E0.02873
G1 X142.427 Y144.373 Z0.600 E0.02867
G1 X142.801 Y143.902 Z0.600 E0.01961
G1 X143.221 Y143.441 Z0.600 E0.02031
G1 X143.393 Y143.263 Z0.600 E0.00808
G1 X143.984 Y142.732 Z0.600 E0.02593
G1 X144.613 Y142.253 Z0.600 E0.02578
G1 X145.280 Y141.830 Z0.600 E0.02578
G1 X145.981 Y141.464 Z0.600 E0.02578
G1 X146.710 Y141.157 Z0.600 E0.02577
G1 X147.461 Y140.913 Z0.600 E0.02578
G1 X148.230 Y140.732 Z0.600 E0.02578
G1 X149.012 Y140.617 Z0.600 E0.02578
G1 X149.801 Y140.567 Z0.600 E0.02578
G1 X150.591 Y140.583 Z0.600 E0.02577
G1 X151.377 Y140.666 Z0.600 E0.02578
G1 X152.153 Y140.814 Z0.600 E0.02578
G1 X152.915 Y141.027 Z0.600 E0.02578
G1 X153.655 Y141.302 Z0.600 E0.02577
G1 X154.370 Y141.638 Z0.600 E0.02578
G1 X155.054 Y142.033 Z0.600 E0.02578
G1 X155.704 Y142.484 Z0.600 E0.02578
G1 X156.313 Y142.988 Z0.600 E0.02578
G1 X156.878 Y143.540 Z0.600 E0.02577
G1 X157.394 Y144.139 Z0.600 E0.02578
G1 X157.858 Y144.778 Z0.600 E0.02578
G1 X158.268 Y145.454 Z0.600 E0.02578
G1 X158.620 Y146.162 Z0.600 E0.02577
G1 X158.910 Y146.897 Z0.600 E0.02578
G1 X159.139 Y147.654 Z0.600 E0.02578
G1 X159.303 Y148.426 Z0.600 E0.02578
G1 X159.402 Y149.211 Z0.600 E0.02577
G1 X159.435 Y150.000 Z0.600 E0.02578
G1 X159.402 Y150.789 Z0.600 E0.02578
G1 X159.303 Y151.574 Z0.600 E0.02578
G1 X159.139 Y152.346 Z0.600 E0.02578
G1 X158.910 Y153.103 Z0.600 E0.02577
G1 X158.620 Y153.838 Z0.600 E0.02578
G1 X158.268 Y154.546 Z0.600 E0.02578
G1 X157.858 Y155.222 Z0.600 E0.02578
G1 X157.394 Y155.861 Z0.600 E0.02577
G1 X156.878 Y156.460 Z0.600 E0.02578
G1 X156.313 Y157.012 Z0.600 E0.02578
G1 X155.704 Y157.516 Z0.600 E0.02578
G1 X155.054 Y157.967 Z0.600 E0.02577
G1 X154.370 Y158.362 Z0.600 E0.02578
G1 X153.655 Y158.698 Z0.600 E0.02578
G1 X152.915 Y158.973 Z0.600 E0.02578
G1 X152.153 Y159.186 Z0.600 E0.02578
G1 X151.377 Y159.334 Z0.600 E0.02577
G1 X150.591 Y159.417 Z0.600 E0.02578
G1 X149.801 Y159.433 Z0.600 E0.02578
G1 X149.012 Y159.383 Z0.600 E0.02578
G1 X148.230 Y159.268 Z0.600 E0.02577
G1 X147.461 Y159.087 Z0.600 E0.02578
G1 X146.710 Y158.843 Z0.600 E0.02578
G1 X145.981 Y158.536 Z0.600 E0.02578
G1 X145.280 Y158.170 Z0.600 E0.02577
G1 X144.613 Y157.747 Z0.600 E0.02578
G1 X143.984 Y157.268 Z0.600 E0.02578
G1 X143.395 Y156.738 Z0.600 E0.02584
G1 X142.977 Y156.299 Z0.600 E0.01978
G1 X142.425 Y155.624 Z0.600 E0.02845
G1 X141.936 Y154.899 Z0.600 E0.02852
G1 X141.515 Y154.125 Z0.600 E0.02874
G1 X141.164 Y153.306 Z0.600 E0.02908
G1 X140.977 Y152.757 Z0.600 E0.01891
G1 X140.827 Y152.201 Z0.600 E0.01878
G1 X140.659 Y151.328 Z0.600 E0.02901
G1 X140.581 Y150.502 Z0.600 E0.02706
M107 ; disable fan
G1 X140.213 Y150.461 Z0.600
;TYPE:External perimeter
M107 ; disable fan
G1 F1200
G1 X140.213 Y149.539 Z0.600 E0.03010
G1 X140.300 Y148.622 Z0.600 E0.03005
G1 X140.473 Y147.718 Z0.600 E0.03002
G1 X140.630 Y147.137 Z0.600 E0.01960
G1 X140.825 Y146.564 Z0.600 E0.01975
G1 X141.188 Y145.717 Z0.600 E0.03009
G1 X141.626 Y144.913 Z0.600 E0.02984
G1 X142.135 Y144.158 Z0.600 E0.02968
G1 X142.525 Y143.666 Z0.600 E0.02048
G1 X142.957 Y143.193 Z0.600 E0.02090
G1 X143.141 Y143.003 Z0.600 E0.00866
G1 X143.753 Y142.452 Z0.600 E0.02683
G1 X144.406 Y141.956 Z0.600 E0.02677
G1 X145.099 Y141.516 Z0.600 E0.02677
G1 X145.826 Y141.135 Z0.600 E0.02676
G1 X146.583 Y140.817 Z0.600 E0.02677
G1 X147.363 Y140.563 Z0.600 E0.02677
G1 X148.162 Y140.376 Z0.600 E0.02677
G1 X148.974 Y140.256 Z0.600 E0.02677
G1 X149.793 Y140.204 Z0.600 E0.02677
G1 X150.613 Y140.221 Z0.600 E0.02677
G1 X151.429 Y140.307 Z0.600 E0.02677
G1 X152.236 Y140.460 Z0.600 E0.02677
G1 X153.026 Y140.682 Z0.600 E0.02676
G1 X153.796 Y140.967 Z0.600 E0.02677
G1 X154.538 Y141.317 Z0.600 E0.02677
G1 X155.249 Y141.726 Z0.600 E0.02677
G1 X155.923 Y142.195 Z0.600 E0.02677
G1 X156.556 Y142.718 Z0.600 E0.02677
G1 X157.142 Y143.292 Z0.600 E0.02677
G1 X157.679 Y143.913 Z0.600 E0.02677
G1 X158.160 Y144.578 Z0.600 E0.02676
G1 X158.586 Y145.279 Z0.600 E0.02677
G1 X158.950 Y146.015 Z0.600 E0.02677
G1 X159.253 Y146.778 Z0.600 E0.02677
G1 X159.491 Y147.563 Z0.600 E0.02677
G1 X159.661 Y148.366 Z0.600 E0.02677
G1 X159.764 Y149.180 Z0.600 E0.02677
G1 X159.798 Y150.000 Z0.600 E0.02677
G1 X159.764 Y150.820 Z0.600 E0.02677
G1 X159.661 Y151.634 Z0.600 E0.02676
G1 X159.491 Y152.437 Z0.600 E0.02677
G1 X159.253 Y153.222 Z0.600 E0.02677
G1 X158.950 Y153.985 Z0.600 E0.02677
G1 X158.586 Y154.721 Z0.600 E0.02677
G1 X158.160 Y155.422 Z0.600 E0.02677
G1 X157.679 Y156.087 Z0.600 E0.02677
G1 X157.142 Y156.708 Z0.600 E0.02677
G1 X156.556 Y157.282 Z0.600 E0.02677
G1 X155.923 Y157.805 Z0.600 E0.02676
G1 X155.249 Y158.274 Z0.600 E0.02677
G1 X154.538 Y158.683 Z0.600 E0.02677
G1 X153.796 Y159.033 Z0.600 E0.02677
G1 X153.026 Y159.318 Z0.600 E0.02677
G1 X152.236 Y159.540 Z0.600 E0.02677
G1 X151.429 Y159.693 Z0.600 E0.02677
G1 X150.613 Y159.779 Z0.600 E0.02677
G1 X149.793 Y159.796 Z0.600 E0.02676
G1 X148.974 Y159.744 Z0.600 E0.02677
G1 X148.162 Y159.624 Z0.600 E0.02677
G1 X147.363 Y159.437 Z0.600 E0.02677
G1 X146.583 Y159.183 Z0.600 E0.02677
G1 X145.826 Y158.865 Z0.600 E0.02677
G1 X145.099 Y158.484 Z0.600 E0.02677
G1 X144.406 Y158.044 Z0.600 E0.02677
G1 X143.753 Y157.548 Z0.600 E0.02677
G1 X143.142 Y156.998 Z0.600 E0.02679
G1 X142.705 Y156.539 Z0.600 E0.02067
G1 X142.134 Y155.841 Z0.600 E0.02944
G1 X141.626 Y155.087 Z0.600 E0.02964
G1 X141.188 Y154.283 Z0.600 E0.02984
G1 X140.825 Y153.436 Z0.600 E0.03009
G1 X140.630 Y152.863 Z0.600 E0.01975
G1 X140.473 Y152.282 Z0.600 E0.01960
G1 X140.300 Y151.378 Z0.600 E0.03001
G1 X140.218 Y150.519 Z0.600 E0.02818
M107 ; disable fan
;WIPE_START
M204 S1000 ; adjust acceleration
G1 X140.406 Y150.342 Z0.600
;WIPE_END
;WIPE_START
G1 F6240
G1 X140.406 Y149.548 Z0.600 E-0.26420
G1 X140.491 Y148.648 Z0.600 E-0.30043
G1 X140.660 Y147.760 Z0.600 E-0.30065
G1 X140.813 Y147.193 Z0.600 E-0.19538
G1 X141.005 Y146.634 Z0.600 E-0.19686
G1 X141.361 Y145.800 Z0.600 E-0.30137
G1 X141.716 Y145.150 Z0.600 E-0.24611
;WIPE_END
G1 X141.716 Y145.150 Z0.600 E-0.09500
G1 X141.716 Y145.150 Z0.600
; acceleration to travel
M204 S1500 ; adjust acceleration
G1 X142.629 Y144.959 Z0.600
G1 X143.543 Y144.767 Z0.600
G1 X144.456 Y144.576 Z0.600
G1 X145.369 Y144.384 Z0.600
G1 X146.283 Y144.193 Z0.600
G1 X147.196 Y144.001 Z0.600
G1 X148.109 Y143.809 Z0.600
G1 X149.023 Y143.618 Z0.600
G1 X149.936 Y143.426 Z0.600
G1 X150.849 Y143.235 Z0.600
G1 X151.763 Y143.043 Z0.600
G1 X152.676 Y142.851 Z0.600
G1 X153.589 Y142.660 Z0.600
; decel to extrusion
M204 S500 ; adjust acceleration
G1 X154.425 Y142.484 Z0.600
G1 X155.261 Y142.309 Z0.600
; end travel
G1 X155.261 Y142.309 Z0.600
G1 X155.261 Y142.309 Z0.600 E1.90000
;TYPE:Solid infill
;WIDTH:0.411654
M107 ; disable fan
G1 F3000
G1 X155.757 Y142.805 Z0.600 E1.28909
G1 X156.253 Y143.301 Z0.600 E0.67818
G1 X156.749 Y143.797 Z0.600 E0.06727
G1 X157.186 Y144.304 Z0.600 E0.02140
G1 X157.638 Y144.925 Z0.600 E0.02455
G1 X158.050 Y145.611 Z0.600 E0.02558
G1 X157.441 Y145.003 Z0.600 E0.04882
G1 X156.833 Y144.394 Z0.600 E0.07205
G1 X156.225 Y143.786 Z0.600 E0.09529
G1 X155.617 Y143.178 Z0.600 E0.11853
G1 X155.009 Y142.569 Z0.600 E0.14176
G1 X154.401 Y141.961 Z0.600 E0.16500
G1 X154.248 Y141.873 Z0.600 E0.00565
G1 X153.426 Y141.499 Z0.600 E0.02887
G1 X154.060 Y142.132 Z0.600 E0.05392
G1 X154.693 Y142.766 Z0.600 E0.07896
G1 X155.327 Y143.400 Z0.600 E0.10401
G1 X155.961 Y144.033 Z0.600 E0.12906
G1 X156.594 Y144.667 Z0.600 E0.15410
G1 X157.228 Y145.301 Z0.600 E0.17915
G1 X157.862 Y145.935 Z0.600 E0.20419
G1 X158.496 Y146.568 Z0.600 E0.22924
G1 X158.660 Y146.984 Z0.600 E0.01427
G1 X158.773 Y147.359 Z0.600 E0.01253
G1 X158.160 Y146.746 Z0.600 E0.03902
G1 X157.546 Y146.132 Z0.600 E0.06550
G1 X156.933 Y145.519 Z0.600 E0.09198
G1 X156.320 Y144.905 Z0.600 E0.11847
G1 X155.706 Y144.292 Z0.600 E0.14496
G1 X155.093 Y143.678 Z0.600 E0.17144
G1 X154.479 Y143.064 Z0.600 E0.19793
G1 X153.866 Y142.451 Z0.600 E0.22441
G1 X153.252 Y141.837 Z0.600 E0.25090
G1 X152.639 Y141.224 Z0.600 E0.27738
G1 X151.946 Y141.044 Z0.600 E0.02289
G1 X152.583 Y141.681 Z0.600 E0.04961
G1 X153.220 Y142.318 Z0.600 E0.07633
G1 X153.856 Y142.955 Z0.600 E0.10305
G1 X154.493 Y143.592 Z0.600 E0.12977
G1 X155.130 Y144.229 Z0.600 E0.15649
G1 X155.767 Y144.866 Z0.600 E0.18322
G1 X156.404 Y145.503 Z0.600 E0.20994
G1 X157.041 Y146.140 Z0.600 E0.23666
G1 X157.678 Y146.777 Z0.600 E0.26338
G1 X158.315 Y147.414 Z0.600 E0.29010
G1 X158.952 Y148.051 Z0.600 E0.31682
G1 X159.069 Y148.679 Z0.600 E0.02042
G1 X158.422 Y148.033 Z0.600 E0.04793
G1 X157.776 Y147.387 Z0.600 E0.07544
G1 X157.130 Y146.741 Z0.600 E0.10295
G1 X156.484 Y146.095 Z0.600 E0.13047
G1 X155.838 Y145.449 Z0.600 E0.15798
G1 X155.191 Y144.802 Z0.600 E0.18549
G1 X154.545 Y144.156 Z0.600 E0.21300
G1 X153.899 Y143.510 Z0.600 E0.24051
G1 X153.253 Y142.864 Z0.600 E0.26803
G1 X152.606 Y142.218 Z0.600 E0.29554
G1 X151.960 Y141.572 Z0.600 E0.32305
G1 X151.314 Y140.926 Z0.600 E0.35056
G1 X150.742 Y140.865 Z0.600 E0.01841
G1 X151.388 Y141.511 Z0.600 E0.04620
G1 X152.034 Y142.157 Z0.600 E0.07399
G1 X152.680 Y142.803 Z0.600 E0.10178
G1 X153.326 Y143.449 Z0.600 E0.12957
G1 X153.972 Y144.095 Z0.600 E0.15736
G1 X154.618 Y144.741 Z0.600 E0.18515
G1 X155.264 Y145.387 Z0.600 E0.21294
G1 X155.910 Y146.033 Z0.600 E0.24073
G1 X156.556 Y146.679 Z0.600 E0.26852
G1 X157.202 Y147.325 Z0.600 E0.29631
G1 X157.848 Y147.971 Z0.600 E0.32410
G1 X158.494 Y148.617 Z0.600 E0.35189
G1 X159.140 Y149.263 Z0.600 E0.37968
G1 X159.162 Y149.798 Z0.600 E0.01712
G1 X158.522 Y149.158 Z0.600 E0.04483
G1 X157.882 Y148.518 Z0.600 E0.07253
G1 X157.242 Y147.879 Z0.600 E0.10024
G1 X156.602 Y147.239 Z0.600 E0.12794
G1 X155.963 Y146.599 Z0.600 E0.15565
G1 X155.323 Y145.959 Z0.600 E0.18335
G1 X154.683 Y145.319 Z0.600 E0.21106
G1 X154.043 Y144.679 Z0.600 E0.23877
G1 X153.403 Y144.039 Z0.600 E0.26647
G1 X152.763 Y143.400 Z0.600 E0.29418
G1 X152.123 Y142.760 Z0.600 E0.32188
G1 X151.484 Y142.120 Z0.600 E0.34959
G1 X150.844 Y141.480 Z0.600 E0.37729
G1 X150.204 Y140.840 Z0.600 E0.40500
G1 X149.690 Y140.839 Z0.600 E0.01642
G1 X150.367 Y141.515 Z0.600 E0.04582
G1 X151.043 Y142.192 Z0.600 E0.07522
G1 X151.719 Y142.868 Z0.600 E0.10462
G1 X152.395 Y143.544 Z0.600 E0.13402
G1 X153.072 Y144.220 Z0.600 E0.16342
G1 X153.748 Y144.897 Z0.600 E0.19282
G1 X154.424 Y145.573 Z0.600 E0.22223
G1 X155.100 Y146.249 Z0.600 E0.25163
G1 X155.777 Y146.925 Z0.600 E0.28103
G1 X156.453 Y147.602 Z0.600 E0.31043
G1 X157.129 Y148.278 Z0.600 E0.33983
G1 X157.805 Y148.954 Z0.600 E0.36923
G1 X158.482 Y149.630 Z0.600 E0.39863
G1 X159.158 Y150.307 Z0.600 E0.42803
G1 X159.135 Y150.796 Z0.600 E0.01567
G1 X158.473 Y150.134 Z0.600 E0.04455
G1 X157.811 Y149.472 Z0.600 E0.07342
G1 X157.149 Y148.811 Z0.600 E0.10230
G1 X156.488 Y148.149 Z0.600 E0.13117
G1 X155.826 Y147.487 Z0.600 E0.16005
G1 X155.164 Y146.825 Z0.600 E0.18892
G1 X154.502 Y146.163 Z0.600 E0.21780
G1 X153.840 Y145.502 Z0.600 E0.24667
G1 X153.179 Y144.840 Z0.600 E0.27555
G1 X152.517 Y144.178 Z0.600 E0.30442
G1 X151.855 Y143.516 Z0.600 E0.33330
G1 X151.193 Y142.854 Z0.600 E0.36217
G1 X150.532 Y142.193 Z0.600 E0.39105
G1 X149.870 Y141.531 Z0.600 E0.41992
G1 X149.208 Y140.869 Z0.600 E0.44880
G1 X148.749 Y140.923 Z0.600 E0.01477
G1 X149.395 Y141.568 Z0.600 E0.04303
G1 X150.040 Y142.214 Z0.600 E0.07129
G1 X150.686 Y142.859 Z0.600 E0.09955
G1 X151.331 Y143.505 Z0.600 E0.12781
G1 X151.977 Y144.150 Z0.600 E0.15608
G1 X152.622 Y144.796 Z0.600 E0.18434
G1 X153.268 Y145.441 Z0.600 E0.21260
G1 X153.913 Y146.087 Z0.600 E0.24086
G1 X154.559 Y146.732 Z0.600 E0.26912
G1 X155.204 Y147.378 Z0.600 E0.29738
G1 X155.850 Y148.023 Z0.600 E0.32564
G1 X156.495 Y148.669 Z0.600 E0.35390
G1 X157.141 Y149.314 Z0.600 E0.38217
G1 X157.786 Y149.960 Z0.600 E0.41043
G1 X158.432 Y150.605 Z0.600 E0.43869
G1 X159.077 Y151.251 Z0.600 E0.46695
G1 X159.007 Y151.694 Z0.600 E0.01432
G1 X158.338 Y151.025 Z0.600 E0.04367
G1 X157.669 Y150.356 Z0.600 E0.07303
G1 X157.000 Y149.687 Z0.600 E0.10238
G1 X156.331 Y149.018 Z0.600 E0.13173
G1 X155.662 Y148.349 Z0.600 E0.16109
G1 X154.993 Y147.680 Z0.600 E0.19044
G1 X154.324 Y147.010 Z0.600 E0.21979
G1 X153.655 Y146.341 Z0.600 E0.24915
G1 X152.986 Y145.672 Z0.600 E0.27850
G1 X152.317 Y145.003 Z0.600 E0.30785
G1 X151.648 Y144.334 Z0.600 E0.33720
G1 X150.979 Y143.665 Z0.600 E0.36656
G1 X150.310 Y142.996 Z0.600 E0.39591
G1 X149.640 Y142.327 Z0.600 E0.42526
G1 X148.971 Y141.658 Z0.600 E0.45462
G1 X148.302 Y140.989 Z0.600 E0.48397
G1 X147.886 Y141.085 Z0.600 E0.01367
G1 X148.535 Y141.734 Z0.600 E0.04220
G1 X149.184 Y142.383 Z0.600 E0.07074
G1 X149.833 Y143.032 Z0.600 E0.09927
G1 X150.482 Y143.681 Z0.600 E0.12781
G1 X151.131 Y144.330 Z0.600 E0.15634
G1 X151.780 Y144.979 Z0.600 E0.18487
G1 X152.429 Y145.628 Z0.600 E0.21341
G1 X153.077 Y146.277 Z0.600 E0.24194
G1 X153.726 Y146.925 Z0.600 E0.27048
G1 X154.375 Y147.574 Z0.600 E0.29901
G1 X155.024 Y148.223 Z0.600 E0.32755
G1 X155.673 Y148.872 Z0.600 E0.35608
G1 X156.322 Y149.521 Z0.600 E0.38461
G1 X156.971 Y150.170 Z0.600 E0.41315
G1 X157.620 Y150.819 Z0.600 E0.44168
G1 X158.269 Y151.468 Z0.600 E0.47022
G1 X158.918 Y152.117 Z0.600 E0.49875
G1 X158.810 Y152.521 Z0.600 E0.01340
G1 X158.143 Y151.855 Z0.600 E0.04276
G1 X157.476 Y151.188 Z0.600 E0.07211
G1 X156.810 Y150.521 Z0.600 E0.10147
G1 X156.143 Y149.854 Z0.600 E0.13083
G1 X155.476 Y149.188 Z0.600 E0.16018
G1 X154.809 Y148.521 Z0.600 E0.18954
G1 X154.143 Y147.854 Z0.600 E0.21890
G1 X153.476 Y147.187 Z0.600 E0.24825
