; generated by PrusaSlicer 2.6.1+win64 on 2023-10-25 at 00:19:04 UTC


;
;
; 

; external perimeters extrusion width = 0.45mm
; perimeters extrusion width = 0.45mm
; infill extrusion width = 0.45mm
; solid infill extrusion width = 0.45mm
; top infill extrusion width = 0.40mm
; first layer extrusion width = 0.42mm

; external perimeters extrusion width = 0.45mm
; perimeters extrusion width = 0.45mm
; infill extrusion width = 0.45mm
; solid infill extrusion width = 0.45mm
; top infill extrusion width = 0.40mm
; first layer extrusion width = 0.42mm

M73 P0 R182
M73 Q0 S184
M201 X1000 Y1000 Z200 E5000 ; sets maximum accelerations, mm/sec^2
M203 X200 Y200 Z12 E120 ; sets maximum feedrates, mm / sec
M204 S1250 T1250 ; sets acceleration (S) and retract acceleration (R), mm/sec^2
M205 X8.00 Y8.00 Z0.40 E4.50 ; sets the jerk limits, mm/sec
M205 S0 T0 ; sets the minimum extruding and travel feed rate, mm/sec
;TYPE:Custom
M862.3 P "MK3" ; printer model check
M862.1 P0.4 ; nozzle diameter check
M115 U3.13.1 ; tell printer latest fw version
G90 ; use absolute coordinates
M83 ; extruder relative mode
M104 S215 ; set extruder temp
M140 S60 ; set bed temp
M190 S60 ; wait for bed temp
M109 S215 ; wait for extruder temp
G28 W ; home all without mesh bed level
G80 ; mesh bed leveling

G1 Z0.2 F720
G1 Y-3 F1000 ; go outside print area
G92 E0
G1 X60 E9 F1000 ; intro line
G1 X100 E12.5 F1000 ; intro line

G92 E0
M221 S95

; Don't change E values below. Excessive value can damage the printer.

G21 ; set units to millimeters
G90 ; use absolute coordinates
M83 ; use relative distances for extrusion
M900 K0.05 ; Filament gcode LA 1.5
M900 K30 ; Filament gcode LA 1.0

M107
;LAYER_CHANGE
;Z:0.2
;HEIGHT:0.2
;BEFORE_LAYER_CHANGE
G92 E0.0
;0.2


M73 P0 R181
G1 E-.8 F2100
G1 Z.4 F720
;AFTER_LAYER_CHANGE
;0.2
G1 X35.435 Y38.693 F10800
G1 Z.2 F720
G1 E.8 F2100
M204 S800
;TYPE:Skirt/Brim
;WIDTH:0.42
G1 F1200
G1 X36.481 Y37.817 E.04278
G1 X37.42 Y37.623 E.03006
G1 X117.046 Y37.634 E2.49662
G1 X212.805 Y46.766 E3.01608
G1 X214.069 Y47.28 E.04278
G1 X214.842 Y48.404 E.04277
G1 X214.957 Y49.133 E.02314
G1 X214.957 Y169.133 E3.76252
G1 X214.565 Y170.44 E.04278
G1 X213.519 Y171.316 E.04278
G1 X212.599 Y171.51 E.02948
G1 X105.951 Y172.377 E3.34398
G1 X48.309 Y172.377 E1.80732
G1 X47.47 Y172.268 E.02653
G1 X46.847 Y172.04 E.0208
G1 X46.103 Y171.552 E.0279
G1 X45.627 Y171.046 E.02178
G1 X45.095 Y170.025 E.0361
G1 X44.94 Y169.196 E.02644
G1 X35.051 Y49.596 E3.76277
G1 X35.043 Y40 E.30088
G1 X35.418 Y38.75 E.04092
M204 S1000
; printing object cale1.stl id:0 copy 0
;WIPE_START
G1 F8640
G1 X36.481 Y37.817 E-.32658
G1 X37.42 Y37.623 E-.2214
G1 X38.511 Y37.623 E-.25202
;WIPE_END
G1 Z.6 F720
G1 X84.868 Y48.637 F10800
G1 Z.2 F720
G1 E.8 F2100
M204 S800
;TYPE:Perimeter
;WIDTH:0.419999
G1 F1200
G1 X84.781 Y48.613 E.00283
G1 X69.46 Y48.613 E.48038
G1 X69.363 Y48.621 E.00305
G1 X69.097 Y48.745 E.0092
G1 X68.948 Y48.939 E.00767
G1 X68.895 Y49.179 E.00771
G1 X68.895 Y168.937 E3.75492
G1 X68.823 Y169.141 E.00678
G1 X68.619 Y169.213 E.00678
G1 X48.372 Y169.213 E.63483
G1 X48.168 Y169.141 E.00678
G1 X48.096 Y168.937 E.00678
G1 X48.094 Y49.125 E3.75661
G1 X48.006 Y48.872 E.0084
M73 Q0 S183
G1 X47.818 Y48.691 E.00818
G1 X47.531 Y48.613 E.00933
G1 X38.208 Y48.613 E.29232
G1 X38.208 Y40.787 E.24538
G1 X116.033 Y40.787 E2.44014
G1 X116.033 Y48.613 E.24538
G1 X106.71 Y48.613 E.29232
G1 X106.613 Y48.621 E.00305
G1 X106.347 Y48.745 E.0092
G1 X106.198 Y48.939 E.00767
G1 X106.145 Y49.179 E.00771
G1 X106.145 Y168.937 E3.75492
G1 X106.073 Y169.141 E.00678
M73 P0 R180
G1 X105.869 Y169.213 E.00678
G1 X85.622 Y169.213 E.63483
G1 X85.418 Y169.141 E.00678
G1 X85.346 Y168.937 E.00678
G1 X85.346 Y49.179 E3.75492
G1 X85.344 Y49.125 E.00169
G1 X85.256 Y48.872 E.0084
G1 X85.068 Y48.691 E.00818
G1 X84.926 Y48.653 E.00461
M204 S1000
G1 X84.781 Y48.99 F10800
M204 S800
;TYPE:External perimeter
G1 F1200
G1 X69.46 Y48.99 E.48038
G1 X69.339 Y49.034 E.00404
G1 X69.272 Y49.179 E.00501
G1 X69.272 Y168.909 E3.75404
G1 X69.226 Y169.214 E.00967
G1 X69.095 Y169.414 E.0075
G1 X68.896 Y169.545 E.00747
G1 X68.654 Y169.59 E.00772
G1 X48.4 Y169.59 E.63505
G1 X48.095 Y169.545 E.00967
G1 X47.896 Y169.414 E.00747
G1 X47.764 Y169.214 E.00751
G1 X47.719 Y168.972 E.00772
G1 X47.719 Y49.179 E3.75602
G1 X47.673 Y49.055 E.00415
G1 X47.531 Y48.99 E.0049
G1 X37.83 Y48.99 E.30417
G1 X37.83 Y40.41 E.26902
G1 X116.41 Y40.41 E2.46382
G1 X116.41 Y48.99 E.26902
G1 X106.71 Y48.99 E.30414
G1 X106.589 Y49.034 E.00404
G1 X106.522 Y49.179 E.00501
G1 X106.522 Y168.909 E3.75404
G1 X106.476 Y169.214 E.00967
G1 X106.345 Y169.414 E.0075
G1 X106.146 Y169.545 E.00747
G1 X105.904 Y169.59 E.00772
G1 X85.65 Y169.59 E.63505
G1 X85.345 Y169.545 E.00967
G1 X85.146 Y169.414 E.00747
G1 X85.014 Y169.214 E.00751
G1 X84.969 Y168.972 E.00772
G1 X84.969 Y49.179 E3.75602
G1 X84.923 Y49.055 E.00415
G1 X84.835 Y49.015 E.00303
M204 S1000
G1 X84.677 Y48.604 F10800
;WIPE_START
G1 F8640
G1 X81.37 Y49.009 E-.8
;WIPE_END
G1 Z.6 F720
G1 X115.864 Y41.719 F10800
G1 Z.2 F720
G1 E.8 F2100
M204 S800
;TYPE:Solid infill
;WIDTH:0.420017
G1 F1200
G1 X115.271 Y41.126 E.0263
G1 X114.738 Y41.126 E.01671
G1 X115.694 Y42.083 E.04241
G1 X115.694 Y42.616 E.01671
G1 X114.204 Y41.126 E.06607
G1 X113.671 Y41.126 E.01671
G1 X115.694 Y43.149 E.08971
G1 X115.694 Y43.683 E.01674
G1 X113.138 Y41.126 E.11336
G1 X112.605 Y41.126 E.01671
G1 X115.694 Y44.216 E.137
G1 X115.694 Y44.749 E.01671
G1 X112.071 Y41.126 E.16066
G1 X111.538 Y41.126 E.01671
G1 X115.694 Y45.282 E.18429
G1 X115.694 Y45.816 E.01674
G1 X111.005 Y41.126 E.20795
G1 X110.471 Y41.126 E.01674
G1 X115.694 Y46.349 E.23161
G1 X115.694 Y46.882 E.01671
G1 X109.938 Y41.126 E.25524
G1 X109.405 Y41.126 E.01671
G1 X115.694 Y47.416 E.2789
G1 X115.694 Y47.949 E.01671
G1 X108.871 Y41.126 E.30256
G1 X108.338 Y41.126 E.01671
G1 X115.485 Y48.274 E.31695
G1 X114.952 Y48.274 E.01671
G1 X107.805 Y41.126 E.31695
G1 X107.272 Y41.126 E.01671
G1 X114.419 Y48.274 E.31695
G1 X113.885 Y48.274 E.01674
M73 P1 R180
G1 X106.738 Y41.126 E.31695
G1 X106.205 Y41.126 E.01671
G1 X113.352 Y48.274 E.31695
G1 X112.819 Y48.274 E.01671
M73 Q1 S183
G1 X105.672 Y41.126 E.31695
G1 X105.138 Y41.126 E.01674
G1 X112.286 Y48.274 E.31697
M73 Q1 S182
G1 X111.752 Y48.274 E.01674
G1 X104.605 Y41.126 E.31695
G1 X104.072 Y41.126 E.01671
G1 X111.219 Y48.274 E.31695
G1 X110.686 Y48.274 E.01671
G1 X103.539 Y41.126 E.31695
G1 X103.005 Y41.126 E.01674
G1 X110.152 Y48.274 E.31695
G1 X109.619 Y48.274 E.01671
G1 X102.472 Y41.126 E.31695
G1 X101.939 Y41.126 E.01671
G1 X109.086 Y48.274 E.31695
G1 X108.552 Y48.274 E.01674
G1 X101.405 Y41.126 E.31695
G1 X100.872 Y41.126 E.01671
G1 X108.019 Y48.274 E.31695
G1 X107.486 Y48.274 E.01671
G1 X100.339 Y41.126 E.31695
G1 X99.805 Y41.126 E.01674
G1 X106.953 Y48.274 E.31697
G1 X106.697 Y48.274 E.00803
G1 X106.462 Y48.316 E.00749
G1 X99.272 Y41.126 E.31883
G1 X98.739 Y41.126 E.01671
G1 X106.113 Y48.5 E.32699
G1 X106.025 Y48.586 E.00386
G1 X105.885 Y48.806 E.00818
G1 X98.206 Y41.126 E.34054
G1 X97.672 Y41.126 E.01674
G1 X105.809 Y49.263 E.36082
G1 X105.809 Y49.796 E.01671
G1 X97.139 Y41.126 E.38446
G1 X96.606 Y41.126 E.01671
G1 X105.809 Y50.329 E.4081
G1 X105.809 Y50.863 E.01674
G1 X96.072 Y41.126 E.43177
G1 X95.539 Y41.126 E.01671
G1 X105.809 Y51.396 E.45541
G1 X105.809 Y51.929 E.01671
M73 P1 R179
G1 X95.006 Y41.126 E.47905
G1 X94.473 Y41.126 E.01671
G1 X105.809 Y52.463 E.5027
G1 X105.809 Y52.996 E.01671
G1 X93.939 Y41.126 E.52636
G1 X93.406 Y41.126 E.01671
G1 X105.809 Y53.529 E.55
G1 X105.809 Y54.062 E.01671
G1 X92.873 Y41.126 E.57363
G1 X92.339 Y41.126 E.01674
G1 X105.809 Y54.596 E.59731
G1 X105.809 Y55.129 E.01671
G1 X91.806 Y41.126 E.62095
G1 X91.273 Y41.126 E.01671
G1 X105.809 Y55.662 E.64458
G1 X105.808 Y56.196 E.01674
G1 X90.739 Y41.126 E.66824
G1 X90.206 Y41.126 E.01671
G1 X105.808 Y56.729 E.69187
G1 X105.808 Y57.262 E.01671
G1 X89.673 Y41.126 E.71551
G1 X89.14 Y41.126 E.01671
G1 X105.808 Y57.795 E.73914
G1 X105.808 Y58.329 E.01674
G1 X88.606 Y41.126 E.76282
G1 X88.073 Y41.126 E.01671
G1 X105.808 Y58.862 E.78646
G1 X105.808 Y59.395 E.01671
G1 X87.54 Y41.126 E.81009
G1 X87.006 Y41.126 E.01674
G1 X105.808 Y59.928 E.83375
G1 X105.808 Y60.462 E.01674
G1 X86.473 Y41.126 E.85741
G1 X85.94 Y41.126 E.01671
G1 X105.808 Y60.995 E.88104
G1 X105.808 Y61.528 E.01671
G1 X85.406 Y41.126 E.9047
G1 X84.873 Y41.126 E.01671
G1 X105.808 Y62.062 E.92836
G1 X105.808 Y62.595 E.01671
G1 X84.34 Y41.126 E.95199
G1 X83.807 Y41.126 E.01671
G1 X105.808 Y63.128 E.97563
G1 X105.808 Y63.661 E.01671
G1 X83.273 Y41.126 E.99929
G1 X82.74 Y41.126 E.01671
G1 X105.808 Y64.195 E1.02294
G1 X105.808 Y64.728 E.01671
G1 X82.207 Y41.126 E1.04658
G1 X81.673 Y41.126 E.01674
G1 X105.808 Y65.261 E1.07024
G1 X105.808 Y65.795 E.01674
G1 X81.14 Y41.126 E1.09389
G1 X80.607 Y41.126 E.01671
G1 X105.808 Y66.328 E1.11753
G1 X105.808 Y66.861 E.01671
G1 X80.074 Y41.126 E1.14116
G1 X79.54 Y41.126 E.01674
G1 X105.808 Y67.394 E1.16482
G1 X105.808 Y67.928 E.01674
G1 X79.007 Y41.126 E1.18848
G1 X78.474 Y41.126 E.01671
G1 X105.808 Y68.461 E1.21211
G1 X105.808 Y68.994 E.01671
G1 X77.94 Y41.126 E1.23577
G1 X77.407 Y41.126 E.01671
G1 X84.554 Y48.274 E.31695
G1 X84.021 Y48.274 E.01671
G1 X76.874 Y41.126 E.31695
G1 X76.34 Y41.126 E.01674
G1 X83.488 Y48.274 E.31697
G1 X82.954 Y48.274 E.01674
G1 X75.807 Y41.126 E.31695
G1 X75.274 Y41.126 E.01671
G1 X82.421 Y48.274 E.31695
G1 X81.888 Y48.274 E.01671
M73 Q1 S181
G1 X74.741 Y41.126 E.31695
G1 X74.207 Y41.126 E.01674
G1 X81.354 Y48.274 E.31695
G1 X80.821 Y48.274 E.01671
G1 X73.674 Y41.126 E.31695
G1 X73.141 Y41.126 E.01671
G1 X80.288 Y48.274 E.31695
G1 X79.754 Y48.274 E.01674
G1 X72.607 Y41.126 E.31695
G1 X72.074 Y41.126 E.01671
G1 X79.221 Y48.274 E.31695
G1 X78.688 Y48.274 E.01671
G1 X71.541 Y41.126 E.31695
G1 X71.008 Y41.126 E.01671
G1 X78.155 Y48.274 E.31695
G1 X77.621 Y48.274 E.01674
G1 X70.474 Y41.126 E.31695
G1 X69.941 Y41.126 E.01671
G1 X77.088 Y48.274 E.31695
G1 X76.555 Y48.274 E.01671
G1 X69.408 Y41.126 E.31695
G1 X68.874 Y41.126 E.01674
G1 X76.021 Y48.274 E.31695
G1 X75.488 Y48.274 E.01671
G1 X68.341 Y41.126 E.31695
G1 X67.808 Y41.126 E.01671
G1 X74.955 Y48.274 E.31695
G1 X74.422 Y48.274 E.01671
G1 X67.274 Y41.126 E.31697
G1 X66.741 Y41.126 E.01671
G1 X73.888 Y48.274 E.31695
G1 X73.355 Y48.274 E.01671
G1 X66.208 Y41.126 E.31695
G1 X65.675 Y41.126 E.01671
G1 X72.822 Y48.274 E.31695
G1 X72.288 Y48.274 E.01674
G1 X65.141 Y41.126 E.31695
G1 X64.608 Y41.126 E.01671
G1 X71.755 Y48.274 E.31695
G1 X71.222 Y48.274 E.01671
M73 P1 R178
G1 X64.075 Y41.126 E.31695
G1 X63.541 Y41.126 E.01674
G1 X70.688 Y48.274 E.31695
G1 X70.155 Y48.274 E.01671
G1 X63.008 Y41.126 E.31695
G1 X62.475 Y41.126 E.01671
G1 X69.622 Y48.274 E.31695
G1 X69.447 Y48.274 E.00549
G1 X69.145 Y48.33 E.00963
G1 X61.941 Y41.126 E.31945
G1 X61.408 Y41.126 E.01671
G1 X68.824 Y48.543 E.32888
G1 X68.696 Y48.692 E.00616
G1 X68.614 Y48.866 E.00603
G1 X60.875 Y41.126 E.3432
G1 X60.342 Y41.126 E.01671
G1 X68.555 Y49.34 E.36422
G1 X68.555 Y49.873 E.01671
G1 X59.808 Y41.126 E.38787
G1 X59.275 Y41.126 E.01671
G1 X68.555 Y50.407 E.41153
G1 X68.555 Y50.94 E.01671
G1 X58.742 Y41.126 E.43517
G1 X58.208 Y41.126 E.01674
G1 X68.555 Y51.473 E.45882
G1 X68.555 Y52.007 E.01674
G1 X57.675 Y41.126 E.48248
G1 X57.142 Y41.126 E.01671
G1 X68.555 Y52.54 E.50612
G1 X68.555 Y53.073 E.01671
G1 X56.609 Y41.126 E.52975
G1 X56.075 Y41.126 E.01674
G1 X68.555 Y53.607 E.55343
G1 X68.555 Y54.14 E.01671
G1 X55.542 Y41.126 E.57707
G1 X55.009 Y41.126 E.01671
G1 X68.555 Y54.673 E.6007
G1 X68.555 Y55.206 E.01671
G1 X54.475 Y41.126 E.62436
G1 X53.942 Y41.126 E.01671
G1 X68.555 Y55.74 E.64802
G1 X68.555 Y56.273 E.01671
G1 X53.409 Y41.126 E.67165
G1 X52.875 Y41.126 E.01674
G1 X68.555 Y56.806 E.69531
G1 X68.555 Y57.34 E.01674
G1 X52.342 Y41.126 E.71897
G1 X51.809 Y41.126 E.01671
G1 X68.555 Y57.873 E.7426
G1 X68.555 Y58.406 E.01671
G1 X51.276 Y41.126 E.76624
G1 X50.742 Y41.126 E.01674
G1 X68.555 Y58.939 E.78989
G1 X68.555 Y59.473 E.01674
G1 X50.209 Y41.126 E.81355
G1 X49.676 Y41.126 E.01671
G1 X68.555 Y60.006 E.83719
G1 X68.555 Y60.539 E.01671
G1 X49.142 Y41.126 E.86084
G1 X48.609 Y41.126 E.01671
G1 X68.555 Y61.073 E.8845
G1 X68.555 Y61.606 E.01671
G1 X48.076 Y41.126 E.90814
G1 X47.542 Y41.126 E.01674
G1 X68.555 Y62.139 E.93179
G1 X68.555 Y62.673 E.01674
G1 X47.009 Y41.126 E.95545
G1 X46.476 Y41.126 E.01671
G1 X68.555 Y63.206 E.97909
G1 X68.555 Y63.739 E.01671
G1 X45.943 Y41.126 E1.00272
G1 X45.409 Y41.126 E.01674
G1 X68.555 Y64.272 E1.02638
G1 X68.555 Y64.806 E.01674
M73 P2 R178
G1 X44.876 Y41.126 E1.05004
G1 X44.343 Y41.126 E.01671
M73 Q2 S181
G1 X68.555 Y65.339 E1.07367
G1 X68.555 Y65.872 E.01671
G1 X43.809 Y41.126 E1.09733
G1 X43.276 Y41.126 E.01671
G1 X68.555 Y66.406 E1.12099
G1 X68.555 Y66.939 E.01671
G1 X42.743 Y41.126 E1.14462
G1 X42.21 Y41.126 E.01671
G1 X68.555 Y67.472 E1.16826
G1 X68.555 Y68.005 E.01671
G1 X41.676 Y41.126 E1.19191
G1 X41.143 Y41.126 E.01671
M73 Q2 S180
G1 X68.555 Y68.539 E1.21557
G1 X68.555 Y69.072 E.01671
G1 X40.61 Y41.126 E1.23921
G1 X40.076 Y41.126 E.01674
G1 X47.223 Y48.274 E.31695
G1 X46.69 Y48.274 E.01671
G1 X39.543 Y41.126 E.31695
G1 X39.01 Y41.126 E.01671
G1 X46.157 Y48.274 E.31695
G1 X45.624 Y48.274 E.01671
G1 X38.547 Y41.197 E.31382
G1 X38.547 Y41.73 E.01671
G1 X45.09 Y48.274 E.29016
G1 X44.557 Y48.274 E.01671
G1 X38.547 Y42.263 E.26653
G1 X38.547 Y42.797 E.01674
G1 X44.024 Y48.274 E.24287
G1 X43.49 Y48.274 E.01674
G1 X38.547 Y43.33 E.21921
G1 X38.547 Y43.863 E.01671
G1 X42.957 Y48.274 E.19558
G1 X42.424 Y48.274 E.01671
G1 X38.547 Y44.397 E.17192
G1 X38.547 Y44.93 E.01671
G1 X41.891 Y48.274 E.14829
G1 X41.357 Y48.274 E.01674
G1 X38.547 Y45.463 E.12463
G1 X38.547 Y45.997 E.01674
G1 X40.824 Y48.274 E.10097
G1 X40.291 Y48.274 E.01671
G1 X38.547 Y46.53 E.07734
G1 X38.547 Y47.063 E.01671
G1 X39.757 Y48.274 E.05368
M73 P2 R177
G1 X39.224 Y48.274 E.01671
G1 X38.547 Y47.596 E.03004
G1 X38.547 Y48.13 E.01674
G1 X38.86 Y48.443 E.01388
M204 S1000
;WIPE_START
G1 F8640
G1 X38.547 Y48.13 E-.10221
G1 X38.547 Y47.596 E-.1233
G1 X39.224 Y48.274 E-.22123
G1 X39.757 Y48.274 E-.12307
G1 X39.052 Y47.569 E-.23019
;WIPE_END
G1 Z.6 F720
G1 X48.262 Y49.313 F10800
G1 Z.2 F720
G1 E.8 F2100
M204 S800
G1 F1200
G1 X68.555 Y69.605 E.89984
G1 X68.555 Y70.139 E.01674
G1 X48.432 Y50.016 E.89233
G1 X48.432 Y50.549 E.01671
G1 X68.555 Y70.672 E.89233
G1 X68.555 Y71.205 E.01671
G1 X48.432 Y51.082 E.89233
G1 X48.432 Y51.616 E.01674
G1 X68.555 Y71.739 E.89233
G1 X68.555 Y72.272 E.01671
G1 X48.432 Y52.149 E.89233
G1 X48.432 Y52.682 E.01671
G1 X68.555 Y72.805 E.89233
G1 X68.555 Y73.338 E.01671
G1 X48.432 Y53.215 E.89233
G1 X48.432 Y53.749 E.01674
G1 X68.555 Y73.872 E.89233
G1 X68.555 Y74.405 E.01671
G1 X48.432 Y54.282 E.89233
G1 X48.432 Y54.815 E.01671
G1 X68.555 Y74.938 E.89233
G1 X68.555 Y75.472 E.01674
G1 X48.432 Y55.349 E.89233
G1 X48.432 Y55.882 E.01671
G1 X68.555 Y76.005 E.89233
G1 X68.555 Y76.538 E.01671
G1 X48.432 Y56.415 E.89233
G1 X48.432 Y56.949 E.01674
G1 X68.555 Y77.072 E.89233
G1 X68.555 Y77.605 E.01671
G1 X48.432 Y57.482 E.89233
G1 X48.432 Y58.015 E.01671
G1 X68.555 Y78.138 E.89233
G1 X68.555 Y78.671 E.01671
G1 X48.432 Y58.549 E.89231
G1 X48.432 Y59.082 E.01671
G1 X68.555 Y79.205 E.89233
G1 X68.555 Y79.738 E.01671
G1 X48.432 Y59.615 E.89233
G1 X48.432 Y60.148 E.01671
G1 X68.555 Y80.271 E.89233
G1 X68.555 Y80.805 E.01674
G1 X48.432 Y60.682 E.89233
G1 X48.433 Y61.215 E.01671
G1 X68.555 Y81.338 E.89231
G1 X68.555 Y81.871 E.01671
G1 X48.433 Y61.748 E.89231
G1 X48.433 Y62.282 E.01674
G1 X68.555 Y82.404 E.89228
G1 X68.555 Y82.938 E.01674
G1 X48.433 Y62.815 E.89231
G1 X48.433 Y63.348 E.01671
G1 X68.555 Y83.471 E.89231
G1 X68.555 Y84.004 E.01671
G1 X48.433 Y63.882 E.89228
G1 X48.433 Y64.415 E.01671
G1 X68.555 Y84.538 E.89231
G1 X68.555 Y85.071 E.01671
G1 X48.433 Y64.948 E.89231
G1 X48.433 Y65.482 E.01674
G1 X68.555 Y85.604 E.89228
G1 X68.555 Y86.138 E.01674
G1 X48.433 Y66.015 E.89231
G1 X48.433 Y66.548 E.01671
G1 X68.555 Y86.671 E.89231
G1 X68.555 Y87.204 E.01671
G1 X48.433 Y67.082 E.89228
G1 X48.433 Y67.615 E.01671
