;FLAVOR:Marlin 
;TIME:2807 
;Filament used: 1.43191m 
;Layer height: 0.25 
;MINX:135.292 
;MINY:133.95 
;MINZ:0.25 
;MAXX:164.709 
;MAXY:166.268 
;MAXZ:28 
;Generated with Cura_SteamEngine 4.13.1 
M140 S70 
M105 
M190 S70 
M104 S215 
M105 
M109 S215 
M82 ;absolute extrusion mode 
G28 ; home all axes 
 M117 Purge extruder 
 G92 E0 ; reset extruder 
 G1 Z1.0 F3000 ; move z up little to prevent scratching of surface 
 G1 X2 Y20 Z0.3 F5000.0 ; move to start-line position 
 G1 X2 Y200.0 Z0.3 F1500.0 E15 ; draw 1st line 
 G1 X2 Y200.0 Z0.4 F5000.0 ; move to side a little 
 G1 X2 Y20 Z0.4 F1500.0 E30 ; draw 2nd line 
 G92 E0 ; reset extruder 
 G1 Z1.0 F3000 ; move z up little to prevent scratching of surface 
G92 E0 
G92 E0 
G1 F1500 E-2 
;LAYER_COUNT:113 
;LAYER:0 
M107 
;MESH:trasnformedConico_outward_16deg_transformed.stl 
G0 F6000 X151.785 Y150.414 Z0.25 
;TYPE:WALL-OUTER 
G1 F1500 E0 
G1 F600 X110.343 Y90.336 Z63.215 E0.00017 
G1 F600 X110.685 Y90.671 Z63.078 E0.00017 
G1 F600 X111.028 Y91.007 Z62.94 E0.00017 
G1 F600 X111.37 Y91.343 Z62.803 E0.00017 
G1 F600 X111.713 Y91.678 Z62.665 E0.00017 
G1 F600 X112.055 Y92.014 Z62.528 E0.00017 
G1 F600 X112.398 Y92.35 Z62.39 E0.00017 
G1 F600 X112.74 Y92.685 Z62.253 E0.00017 
G1 F600 X113.083 Y93.021 Z62.115 E0.00017 
G1 F600 X113.425 Y93.357 Z61.978 E0.00017 
G1 F600 X113.768 Y93.692 Z61.84 E0.00017 
G1 F600 X114.11 Y94.028 Z61.703 E0.00017 
G1 F600 X114.453 Y94.364 Z61.565 E0.00017 
G1 F600 X114.795 Y94.699 Z61.428 E0.00017 
G1 F600 X115.138 Y95.035 Z61.29 E0.00017 
G1 F600 X115.48 Y95.371 Z61.153 E0.00017 
G1 F600 X115.823 Y95.706 Z61.015 E0.00017 
G1 F600 X116.165 Y96.042 Z60.878 E0.00017 
G1 F600 X116.508 Y96.378 Z60.74 E0.00017 
G1 F600 X116.85 Y96.713 Z60.603 E0.00017 
G1 F600 X117.193 Y97.049 Z60.465 E0.00017 
G1 F600 X117.535 Y97.385 Z60.328 E0.00017 
G1 F600 X117.878 Y97.72 Z60.19 E0.00017 
G1 F600 X118.22 Y98.056 Z60.053 E0.00017 
G1 F600 X118.563 Y98.392 Z59.915 E0.00017 
G1 F600 X118.905 Y98.727 Z59.778 E0.00017 
G1 F600 X119.248 Y99.063 Z59.64 E0.00017 
G1 F600 X119.59 Y99.399 Z59.503 E0.00017 
G1 F600 X119.933 Y99.734 Z59.365 E0.00017 
G1 F600 X120.275 Y100.07 Z59.228 E0.00017 
G1 F600 X120.618 Y100.406 Z59.09 E0.00017 
G1 F600 X120.96 Y100.741 Z58.953 E0.00017 
G1 F600 X121.303 Y101.077 Z58.815 E0.00017 
G1 F600 X121.645 Y101.413 Z58.678 E0.00017 
G1 F600 X121.988 Y101.748 Z58.54 E0.00017 
G1 F600 X122.33 Y102.084 Z58.403 E0.00017 
G1 F600 X122.673 Y102.42 Z58.265 E0.00017 
G1 F600 X123.015 Y102.755 Z58.128 E0.00017 
G1 F600 X123.358 Y103.091 Z57.99 E0.00017 
G1 F600 X123.7 Y103.427 Z57.853 E0.00017 
G1 F600 X124.043 Y103.762 Z57.715 E0.00017 
G1 F600 X124.385 Y104.098 Z57.578 E0.00017 
G1 F600 X124.728 Y104.434 Z57.44 E0.00017 
G1 F600 X125.07 Y104.769 Z57.302 E0.00017 
G1 F600 X125.413 Y105.105 Z57.165 E0.00017 
G1 F600 X125.755 Y105.441 Z57.027 E0.00017 
G1 F600 X126.098 Y105.776 Z56.89 E0.00017 
G1 F600 X126.44 Y106.112 Z56.752 E0.00017 
G1 F600 X126.783 Y106.448 Z56.615 E0.00017 
G1 F600 X127.125 Y106.783 Z56.477 E0.00017 
G1 F600 X127.468 Y107.119 Z56.34 E0.00017 
G1 F600 X127.81 Y107.455 Z56.202 E0.00017 
G1 F600 X128.153 Y107.79 Z56.065 E0.00017 
G1 F600 X128.495 Y108.126 Z55.927 E0.00017 
G1 F600 X128.838 Y108.462 Z55.79 E0.00017 
G1 F600 X129.18 Y108.797 Z55.652 E0.00017 
G1 F600 X129.523 Y109.133 Z55.515 E0.00017 
G1 F600 X129.865 Y109.469 Z55.377 E0.00017 
G1 F600 X130.208 Y109.804 Z55.24 E0.00017 
G1 F600 X130.55 Y110.14 Z55.102 E0.00017 
G1 F600 X130.893 Y110.476 Z54.965 E0.00017 
G1 F600 X131.235 Y110.811 Z54.827 E0.00017 
G1 F600 X131.578 Y111.147 Z54.69 E0.00017 
G1 F600 X131.92 Y111.483 Z54.552 E0.00017 
G1 F600 X132.263 Y111.818 Z54.415 E0.00017 
G1 F600 X132.605 Y112.154 Z54.277 E0.00017 
G1 F600 X132.948 Y112.49 Z54.14 E0.00017 
G1 F600 X133.29 Y112.825 Z54.002 E0.00017 
G1 F600 X133.633 Y113.161 Z53.865 E0.00017 
G1 F600 X133.975 Y113.497 Z53.727 E0.00017 
G1 F600 X134.318 Y113.832 Z53.59 E0.00017 
G1 F600 X134.66 Y114.168 Z53.452 E0.00017 
G1 F600 X135.003 Y114.504 Z53.315 E0.00017 
G1 F600 X135.345 Y114.839 Z53.177 E0.00017 
G1 F600 X135.688 Y115.175 Z53.04 E0.00017 
G1 F600 X136.03 Y115.511 Z52.902 E0.00017 
G1 F600 X136.373 Y115.846 Z52.765 E0.00017 
G1 F600 X136.715 Y116.182 Z52.627 E0.00017 
G1 F600 X137.058 Y116.518 Z52.49 E0.00017 
G1 F600 X137.4 Y116.853 Z52.352 E0.00017 
G1 F600 X137.743 Y117.189 Z52.215 E0.00017 
G1 F600 X138.085 Y117.525 Z52.077 E0.00017 
G1 F600 X138.428 Y117.86 Z51.94 E0.00017 
G1 F600 X138.77 Y118.196 Z51.802 E0.00017 
G1 F600 X139.113 Y118.532 Z51.665 E0.00017 
G1 F600 X139.455 Y118.867 Z51.527 E0.00017 
G1 F600 X139.798 Y119.203 Z51.389 E0.00017 
G1 F600 X140.14 Y119.539 Z51.252 E0.00017 
G1 F600 X140.483 Y119.874 Z51.114 E0.00017 
G1 F600 X140.825 Y120.21 Z50.977 E0.00017 
G1 F600 X141.168 Y120.546 Z50.839 E0.00017 
G1 F600 X141.51 Y120.881 Z50.702 E0.00017 
G1 F600 X141.853 Y121.217 Z50.564 E0.00017 
G1 F600 X142.195 Y121.553 Z50.427 E0.00017 
G1 F600 X142.538 Y121.888 Z50.289 E0.00017 
G1 F600 X142.88 Y122.224 Z50.152 E0.00017 
G1 F600 X143.223 Y122.56 Z50.014 E0.00017 
G1 F600 X143.565 Y122.895 Z49.877 E0.00017 
G1 F600 X143.908 Y123.231 Z49.739 E0.00017 
G1 F600 X144.25 Y123.567 Z49.602 E0.00017 
G1 F600 X144.593 Y123.902 Z49.464 E0.00017 
G1 F600 X144.935 Y124.238 Z49.327 E0.00017 
G1 F600 X145.278 Y124.574 Z49.189 E0.00017 
G1 F600 X145.62 Y124.909 Z49.052 E0.00017 
G1 F600 X145.963 Y125.245 Z48.914 E0.00017 
G1 F600 X146.305 Y125.581 Z48.777 E0.00017 
G1 F600 X146.648 Y125.916 Z48.639 E0.00017 
G1 F600 X146.99 Y126.252 Z48.502 E0.00017 
G1 F600 X147.333 Y126.588 Z48.364 E0.00017 
G1 F600 X147.675 Y126.923 Z48.227 E0.00017 
G1 F600 X148.018 Y127.259 Z48.089 E0.00017 
G1 F600 X148.36 Y127.595 Z47.952 E0.00017 
G1 F600 X148.703 Y127.93 Z47.814 E0.00017 
G1 F600 X149.045 Y128.266 Z47.677 E0.00017 
G1 F600 X149.388 Y128.602 Z47.539 E0.00017 
G1 F600 X149.73 Y128.937 Z47.402 E0.00017 
G1 F600 X150.073 Y129.273 Z47.264 E0.00017 
G1 F600 X150.415 Y129.609 Z47.127 E0.00017 
G1 F600 X150.758 Y129.944 Z46.989 E0.00017 
G1 F600 X151.1 Y130.28 Z46.852 E0.00017 
G1 F600 X151.443 Y130.616 Z46.714 E0.00017 
G1 F600 X151.785 Y130.951 Z46.577 E0.00017 
G1 F600 X152.128 Y131.287 Z46.439 E0.00017 
G1 F600 X152.47 Y131.623 Z46.302 E0.00017 
G1 F600 X152.813 Y131.958 Z46.164 E0.00017 
G1 F600 X153.155 Y132.294 Z46.027 E0.00017 
G1 F600 X153.498 Y132.63 Z45.889 E0.00017 
G1 F600 X153.84 Y132.965 Z45.752 E0.00017 
G1 F600 X154.183 Y133.301 Z45.614 E0.00017 
G1 F600 X154.525 Y133.636 Z45.476 E0.00017 
G1 F600 X154.868 Y133.972 Z45.339 E0.00017 
G1 F600 X155.21 Y134.308 Z45.201 E0.00017 
G1 F600 X155.553 Y134.643 Z45.064 E0.00017 
G1 F600 X155.895 Y134.979 Z44.926 E0.00017 
G1 F600 X156.238 Y135.315 Z44.789 E0.00017 
G1 F600 X156.58 Y135.65 Z44.651 E0.00017 
G1 F600 X156.923 Y135.986 Z44.514 E0.00017 
G1 F600 X157.265 Y136.322 Z44.376 E0.00017 
G1 F600 X157.608 Y136.657 Z44.239 E0.00017 
G1 F600 X157.95 Y136.993 Z44.101 E0.00017 
G1 F600 X158.293 Y137.329 Z43.964 E0.00017 
G1 F600 X158.635 Y137.664 Z43.826 E0.00017 
G1 F600 X158.978 Y138.0 Z43.689 E0.00017 
G1 F600 X159.32 Y138.336 Z43.551 E0.00017 
G1 F600 X159.663 Y138.671 Z43.414 E0.00017 
G1 F600 X160.005 Y139.007 Z43.276 E0.00017 
G1 F600 X160.348 Y139.343 Z43.139 E0.00017 
G1 F600 X160.69 Y139.678 Z43.001 E0.00017 
G1 F600 X161.033 Y140.014 Z42.864 E0.00017 
G1 F600 X161.375 Y140.35 Z42.726 E0.00017 
G1 F600 X161.718 Y140.685 Z42.589 E0.00017 
G1 F600 X162.06 Y141.021 Z42.451 E0.00017 
G1 F600 X162.403 Y141.357 Z42.314 E0.00017 
G1 F600 X162.745 Y141.692 Z42.176 E0.00017 
G1 F600 X163.088 Y142.028 Z42.039 E0.00017 
G1 F600 X163.43 Y142.364 Z41.901 E0.00017 
G1 F600 X163.773 Y142.699 Z41.764 E0.00017 
G1 F600 X164.115 Y143.035 Z41.626 E0.00017 
G1 F600 X164.458 Y143.371 Z41.489 E0.00017 
G1 F600 X164.8 Y143.706 Z41.351 E0.00017 
G1 F600 X165.143 Y144.042 Z41.214 E0.00017 
G1 F600 X165.485 Y144.378 Z41.076 E0.00017 
G1 F600 X165.828 Y144.713 Z40.939 E0.00017 
G1 F600 X166.17 Y145.049 Z40.801 E0.00017 
G1 F600 X166.513 Y145.385 Z40.664 E0.00017 
G1 F600 X166.855 Y145.72 Z40.526 E0.00017 
G1 F600 X167.198 Y146.056 Z40.389 E0.00017 
G1 F600 X167.54 Y146.392 Z40.251 E0.00017 
G1 F600 X167.883 Y146.727 Z40.114 E0.00017 
G1 F600 X168.225 Y147.063 Z39.976 E0.00017 
G1 F600 X168.568 Y147.399 Z39.839 E0.00017 
G1 F600 X168.91 Y147.734 Z39.701 E0.00017 
G1 F600 X169.253 Y148.07 Z39.563 E0.00017 
G1 F600 X169.595 Y148.406 Z39.426 E0.00017 
G1 F600 X169.938 Y148.741 Z39.288 E0.00017 
G1 F600 X170.28 Y149.077 Z39.151 E0.00017 
G1 F600 X170.623 Y149.413 Z39.013 E0.00017 
G1 F600 X170.965 Y149.748 Z38.876 E0.00017 
G1 F600 X171.308 Y150.084 Z38.738 E0.00017 
G1 F600 X171.65 Y150.42 Z38.601 E0.00017 
G1 F600 X171.993 Y150.755 Z38.463 E0.00017 
G1 F600 X172.335 Y151.091 Z38.326 E0.00017 
G1 F600 X172.678 Y151.427 Z38.188 E0.00017 
G1 F600 X173.02 Y151.762 Z38.051 E0.00017 
G1 F600 X173.363 Y152.098 Z37.913 E0.00017 
G1 F600 X173.705 Y152.434 Z37.776 E0.00017 
G1 F600 X174.048 Y152.769 Z37.638 E0.00017 
G1 F600 X174.39 Y153.105 Z37.501 E0.00017 
G1 F600 X174.733 Y153.441 Z37.363 E0.00017 
G1 F600 X175.075 Y153.776 Z37.226 E0.00017 
G1 F600 X175.418 Y154.112 Z37.088 E0.00017 
G1 F600 X175.76 Y154.448 Z36.951 E0.00017 
G1 F600 X176.103 Y154.783 Z36.813 E0.00017 
G1 F600 X176.445 Y155.119 Z36.676 E0.00017 
G1 F600 X176.788 Y155.455 Z36.538 E0.00017 
G1 F600 X177.13 Y155.79 Z36.401 E0.00017 
G1 F600 X177.473 Y156.126 Z36.263 E0.00017 
G1 F600 X177.815 Y156.462 Z36.126 E0.00017 
G1 F600 X178.158 Y156.797 Z35.988 E0.00017 
G1 F600 X178.5 Y157.133 Z35.851 E0.00017 
G1 F600 X178.843 Y157.469 Z35.713 E0.00017 
G1 F600 X179.185 Y157.804 Z35.576 E0.00017 
G1 F600 X179.528 Y158.14 Z35.438 E0.00017 
G1 F600 X179.87 Y158.476 Z35.301 E0.00017 
G1 F600 X180.213 Y158.811 Z35.163 E0.00017 
G1 F600 X180.555 Y159.147 Z35.026 E0.00017 
G1 F600 X180.898 Y159.483 Z34.888 E0.00017 
G1 F600 X181.24 Y159.818 Z34.751 E0.00017 
G1 F600 X181.583 Y160.154 Z34.613 E0.00017 
G1 F600 X181.925 Y160.49 Z34.476 E0.00017 
G1 F600 X182.268 Y160.825 Z34.338 E0.00017 
G1 F600 X182.61 Y161.161 Z34.201 E0.00017 
G1 F600 X182.953 Y161.497 Z34.063 E0.00017 
G1 F600 X183.295 Y161.832 Z33.926 E0.00017 
G1 F600 X183.638 Y162.168 Z33.788 E0.00017 
G1 F600 X183.98 Y162.504 Z33.65 E0.00017 
G1 F600 X184.323 Y162.839 Z33.513 E0.00017 
G1 F600 X184.665 Y163.175 Z33.375 E0.00017 
G1 F600 X185.008 Y163.511 Z33.238 E0.00017 
G1 F600 X185.35 Y163.846 Z33.1 E0.00017 
G1 F600 X185.693 Y164.182 Z32.963 E0.00017 
G1 F600 X186.035 Y164.518 Z32.825 E0.00017 
G1 F600 X186.378 Y164.853 Z32.688 E0.00017 
G1 F600 X186.72 Y165.189 Z32.55 E0.00017 
G1 F600 X187.063 Y165.525 Z32.413 E0.00017 
G1 F600 X187.405 Y165.86 Z32.275 E0.00017 
G1 F600 X187.748 Y166.196 Z32.138 E0.00017 
G1 F600 X188.09 Y166.532 Z32.0 E0.00017 
G1 F600 X188.433 Y166.867 Z31.863 E0.00017 
G1 F600 X188.775 Y167.203 Z31.725 E0.00017 
G1 F600 X189.118 Y167.539 Z31.588 E0.00017 
G1 F600 X189.46 Y167.874 Z31.45 E0.00017 
G1 F600 X189.803 Y168.21 Z31.313 E0.00017 
G1 F600 X190.145 Y168.546 Z31.175 E0.00017 
G1 F600 X190.488 Y168.881 Z31.038 E0.00017 
G1 F600 X190.83 Y169.217 Z30.9 E0.00017 
G1 F600 X191.173 Y169.553 Z30.763 E0.00017 
G1 F600 X191.515 Y169.888 Z30.625 E0.00017 
G1 F600 X191.858 Y170.224 Z30.488 E0.00017 
G1 F600 X192.2 Y170.56 Z30.35 E0.00017 
G1 F600 X192.543 Y170.895 Z30.213 E0.00017 
G1 F600 X192.885 Y171.231 Z30.075 E0.00017 
G1 F600 X193.228 Y171.567 Z29.938 E0.00017 
G1 F600 X193.57 Y171.902 Z29.8 E0.00017 
G1 F600 X193.913 Y172.238 Z29.663 E0.00017 
G1 F600 X194.255 Y172.574 Z29.525 E0.00017 
G1 F600 X194.598 Y172.909 Z29.388 E0.00017 
G1 F600 X194.94 Y173.245 Z29.25 E0.00017 
G1 F600 X195.283 Y173.581 Z29.113 E0.00017 
G1 F600 X195.625 Y173.916 Z28.975 E0.00017 
G1 F600 X195.968 Y174.252 Z28.838 E0.00017 
G1 F600 X196.31 Y174.588 Z28.7 E0.00017 
G1 F600 X196.653 Y174.923 Z28.563 E0.00017 
G1 F600 X196.995 Y175.259 Z28.425 E0.00017 
G1 F600 X197.338 Y175.595 Z28.288 E0.00017 
G1 F600 X197.68 Y175.93 Z28.15 E0.00017 
G1 F600 X198.023 Y176.266 Z28.013 E0.00017 
G1 F600 X198.365 Y176.602 Z27.875 E0.00017 
G1 F600 X198.708 Y176.937 Z27.738 E0.00017 
G1 F600 X199.05 Y177.273 Z27.6 E0.00017 
G1 F600 X199.393 Y177.609 Z27.462 E0.00017 
G1 F600 X199.735 Y177.944 Z27.325 E0.00017 
G1 F600 X200.078 Y178.28 Z27.187 E0.00017 
G1 F600 X200.42 Y178.616 Z27.05 E0.00017 
G1 F600 X200.763 Y178.951 Z26.912 E0.00017 
G1 F600 X201.105 Y179.287 Z26.775 E0.00017 
G1 F600 X201.448 Y179.623 Z26.637 E0.00017 
G1 F600 X201.79 Y179.958 Z26.5 E0.00017 
G1 F600 X202.133 Y180.294 Z26.362 E0.00017 
G1 F600 X202.475 Y180.63 Z26.225 E0.00017 
G1 F600 X202.818 Y180.965 Z26.087 E0.00017 
G1 F600 X203.16 Y181.301 Z25.95 E0.00017 
G1 F600 X203.503 Y181.637 Z25.812 E0.00017 
G1 F600 X203.845 Y181.972 Z25.675 E0.00017 
G1 F600 X204.188 Y182.308 Z25.537 E0.00017 
G1 F600 X204.53 Y182.644 Z25.4 E0.00017 
G1 F600 X204.873 Y182.979 Z25.262 E0.00017 
G1 F600 X205.215 Y183.315 Z25.125 E0.00017 
G1 F600 X205.558 Y183.651 Z24.987 E0.00017 
G1 F600 X205.9 Y183.986 Z24.85 E0.00017 
G1 F600 X206.243 Y184.322 Z24.712 E0.00017 
G1 F600 X206.585 Y184.658 Z24.575 E0.00017 
G1 F600 X206.928 Y184.993 Z24.437 E0.00017 
G1 F600 X207.27 Y185.329 Z24.3 E0.00017 
G1 F600 X207.613 Y185.665 Z24.162 E0.00017 
G1 F600 X207.955 Y186.0 Z24.025 E0.00017 
G1 F600 X208.298 Y186.336 Z23.887 E0.00017 
G1 F600 X208.64 Y186.672 Z23.75 E0.00017 
G1 F600 X208.983 Y187.007 Z23.612 E0.00017 
G1 F600 X209.325 Y187.343 Z23.475 E0.00017 
G1 F600 X209.668 Y187.679 Z23.337 E0.00017 
G1 F600 X210.01 Y188.014 Z23.2 E0.00017 
G1 F600 X210.353 Y188.35 Z23.062 E0.00017 
G1 F600 X210.695 Y188.686 Z22.925 E0.00017 
G1 F600 X211.038 Y189.021 Z22.787 E0.00017 
G1 F600 X211.38 Y189.357 Z22.65 E0.00017 
G1 F600 X211.723 Y189.693 Z22.512 E0.00017 
G1 F600 X212.065 Y190.028 Z22.375 E0.00017 
G1 F600 X212.408 Y190.364 Z22.237 E0.00017 
G1 F600 X212.75 Y190.7 Z22.1 E0.00017 
G1 F600 X213.093 Y191.035 Z21.962 E0.00017 
G1 F600 X213.435 Y191.371 Z21.825 E0.00017 
G1 F600 X213.778 Y191.707 Z21.687 E0.00017 
G1 F600 X214.12 Y192.042 Z21.549 E0.00017 
G1 F600 X214.463 Y192.378 Z21.412 E0.00017 
G1 F600 X214.805 Y192.714 Z21.274 E0.00017 
G1 F600 X215.148 Y193.049 Z21.137 E0.00017 
G1 F600 X215.49 Y193.385 Z20.999 E0.00017 
G1 F600 X215.833 Y193.721 Z20.862 E0.00017 
G1 F600 X216.175 Y194.056 Z20.724 E0.00017 
G1 F600 X216.518 Y194.392 Z20.587 E0.00017 
G1 F600 X216.86 Y194.728 Z20.449 E0.00017 
G1 F600 X217.203 Y195.063 Z20.312 E0.00017 
G1 F600 X217.545 Y195.399 Z20.174 E0.00017 
G1 F600 X217.888 Y195.735 Z20.037 E0.00017 
G1 F600 X218.23 Y196.07 Z19.899 E0.00017 
G1 F600 X218.573 Y196.406 Z19.762 E0.00017 
G1 F600 X218.915 Y196.742 Z19.624 E0.00017 
G1 F600 X219.258 Y197.077 Z19.487 E0.00017 
G1 F600 X219.6 Y197.413 Z19.349 E0.00017 
G1 F600 X219.943 Y197.749 Z19.212 E0.00017 
G1 F600 X220.285 Y198.084 Z19.074 E0.00017 
G1 F600 X220.628 Y198.42 Z18.937 E0.00017 
G1 F600 X220.97 Y198.756 Z18.799 E0.00017 
G1 F600 X221.313 Y199.091 Z18.662 E0.00017 
G1 F600 X221.655 Y199.427 Z18.524 E0.00017 
G1 F600 X221.998 Y199.763 Z18.387 E0.00017 
G1 F600 X222.34 Y200.098 Z18.249 E0.00017 
G1 F600 X222.683 Y200.434 Z18.112 E0.00017 
G1 F600 X223.025 Y200.77 Z17.974 E0.00017 
G1 F600 X223.368 Y201.105 Z17.837 E0.00017 
G1 F600 X223.71 Y201.441 Z17.699 E0.00017 
G1 F600 X224.053 Y201.777 Z17.562 E0.00017 
G1 F600 X224.395 Y202.112 Z17.424 E0.00017 
G1 F600 X224.738 Y202.448 Z17.287 E0.00017 
G1 F600 X225.08 Y202.784 Z17.149 E0.00017 
G1 F600 X225.423 Y203.119 Z17.012 E0.00017 
G1 F600 X225.765 Y203.455 Z16.874 E0.00017 
G1 F600 X226.108 Y203.791 Z16.737 E0.00017 
G1 F600 X226.45 Y204.126 Z16.599 E0.00017 
G1 F600 X226.793 Y204.462 Z16.462 E0.00017 
G1 F600 X227.135 Y204.798 Z16.324 E0.00017 
G1 F600 X227.478 Y205.133 Z16.187 E0.00017 
G1 F600 X227.82 Y205.469 Z16.049 E0.00017 
G1 F600 X228.163 Y205.805 Z15.912 E0.00017 
G1 F600 X228.505 Y206.14 Z15.774 E0.00017 
G1 F600 X228.848 Y206.476 Z15.636 E0.00017 
G1 F600 X229.19 Y206.812 Z15.499 E0.00017 
